!!!!SEGMENT: pl-wtm--r-1715_stefani-jozef--mazur-na-zadanie.krn
!!!cenid: 18xx:1884
!!!COM: Stefani, Józef
!!!COM-rismid: pe30024097
!!!CDT: 1800/04/16-1876/03/19
!!!CNT: Polish
!!!OTL: Mazur na żądanie
!!!PDT:
!!!AGN: Secular; Mazurka
!!!SMS-siglum: PL-Wtm
!!!SMS-shelfmark: R 1715
!!!SMS-shelfwork: W
!!!SMS-variant:
!!!SMS-altvar:
!!!NIFC-rismid: 1001128768
!!!URL-scan: http://repozytorium.nifc.pl/skany/pl-wtm-nut--r1715
!!!ONB-nifc:
**kern	**dynam	**kern	**dynam	**kern	**dynam	**kern	**dynam	**kern	**dynam	**kern	**kern	**dynam	**kern	**kern	**dynam	**kern	**dynam	**kern	**dynam	**kern	**dynam	**kern	**dynam	**kern	**dynam	**kern	**dynam	**kern	**dynam	**kern	**dynam	**kern	**dynam
*part18	*part18	*part17	*part17	*part16	*part16	*part15	*part15	*part14	*part14	*part13	*part12	*part12	*part11	*part10	*part10	*part9	*part9	*part8	*part8	*part7	*part7	*part6	*part6	*part5	*part5	*part4	*part4	*part3	*part3	*part2	*part2	*part1	*part1
*staff18	*	*staff17	*	*staff16	*	*staff15	*	*staff14	*	*staff13	*staff12	*	*staff11	*staff10	*	*staff9	*	*staff8	*	*staff7	*	*staff6	*	*staff5	*	*staff4	*	*staff3	*	*staff2	*	*staff1	*
*Icbass	*	*Icello	*	*Iviola	*	*Ivioln	*	*Ivioln	*	*Ibdrum	*Itrngl	*	*Itimpa	*Itromt	*	*Itromt	*	*Itromp	*	*Ifagot	*	*Icor	*	*Icor	*	*Iclars	*	*Ioboe	*	*Iflt	*	*Ipicco	*
*I"C: Baſsi	*	*I"Violoncello	*	*I"Viole	*	*I"Violini	*	*I"Violini	*	*I"G. Caſsa	*I"Triangolo	*	*I"Timpani D. A.	*I"Tromboni	*	*I"Tromboni	*	*I"Trombe in C	*	*I"Fagotti	*	*I"Corni in C	*	*I"Corni in D	*	*I"Clarinetti in C	*	*I"Oboe	*	*I"Flauto	*	*I"Flauto Picolo	*
*>[A,A,B,C,C,D,D,E,E,A,B,C,F,G,G,H]	*[A,A,B,C,C,D,D,E,E,A,B,C,F,G,G,H]	*[A,A,B,C,C,D,D,E,E,A,B,C,F,G,G,H]	*[A,A,B,C,C,D,D,E,E,A,B,C,F,G,G,H]	*[A,A,B,C,C,D,D,E,E,A,B,C,F,G,G,H]	*[A,A,B,C,C,D,D,E,E,A,B,C,F,G,G,H]	*[A,A,B,C,C,D,D,E,E,A,B,C,F,G,G,H]	*[A,A,B,C,C,D,D,E,E,A,B,C,F,G,G,H]	*[A,A,B,C,C,D,D,E,E,A,B,C,F,G,G,H]	*[A,A,B,C,C,D,D,E,E,A,B,C,F,G,G,H]	*[A,A,B,C,C,D,D,E,E,A,B,C,F,G,G,H]	*[A,A,B,C,C,D,D,E,E,A,B,C,F,G,G,H]	*[A,A,B,C,C,D,D,E,E,A,B,C,F,G,G,H]	*[A,A,B,C,C,D,D,E,E,A,B,C,F,G,G,H]	*[A,A,B,C,C,D,D,E,E,A,B,C,F,G,G,H]	*[A,A,B,C,C,D,D,E,E,A,B,C,F,G,G,H]	*[A,A,B,C,C,D,D,E,E,A,B,C,F,G,G,H]	*[A,A,B,C,C,D,D,E,E,A,B,C,F,G,G,H]	*[A,A,B,C,C,D,D,E,E,A,B,C,F,G,G,H]	*[A,A,B,C,C,D,D,E,E,A,B,C,F,G,G,H]	*[A,A,B,C,C,D,D,E,E,A,B,C,F,G,G,H]	*[A,A,B,C,C,D,D,E,E,A,B,C,F,G,G,H]	*[A,A,B,C,C,D,D,E,E,A,B,C,F,G,G,H]	*[A,A,B,C,C,D,D,E,E,A,B,C,F,G,G,H]	*[A,A,B,C,C,D,D,E,E,A,B,C,F,G,G,H]	*[A,A,B,C,C,D,D,E,E,A,B,C,F,G,G,H]	*[A,A,B,C,C,D,D,E,E,A,B,C,F,G,G,H]	*[A,A,B,C,C,D,D,E,E,A,B,C,F,G,G,H]	*[A,A,B,C,C,D,D,E,E,A,B,C,F,G,G,H]	*[A,A,B,C,C,D,D,E,E,A,B,C,F,G,G,H]	*[A,A,B,C,C,D,D,E,E,A,B,C,F,G,G,H]	*[A,A,B,C,C,D,D,E,E,A,B,C,F,G,G,H]	*[A,A,B,C,C,D,D,E,E,A,B,C,F,G,G,H]	*[A,A,B,C,C,D,D,E,E,A,B,C,F,G,G,H]
*>A	*>A	*>A	*>A	*>A	*>A	*>A	*>A	*>A	*>A	*>A	*>A	*>A	*>A	*>A	*>A	*>A	*>A	*>A	*>A	*>A	*>A	*>A	*>A	*>A	*>A	*>A	*>A	*>A	*>A	*>A	*>A	*>A	*>A
*clefF4	*	*clefF4	*	*clefC3	*	*clefG2	*	*clefG2	*	*clefF4	*clefG2	*	*clefF4	*clefF4	*	*clefC4	*	*clefG2	*	*clefF4	*	*clefG2	*	*clefG2	*	*clefG2	*	*clefG2	*	*clefG2	*	*clefG2	*
*	*	*	*	*	*	*	*	*	*	*	*	*	*	*	*	*	*	*	*	*	*	*	*	*ITrd6c10	*	*	*	*	*	*	*	*ITrd0c0	*
*k[f#c#]	*	*k[f#c#]	*	*k[f#c#]	*	*k[f#c#]	*	*k[f#c#]	*	*	*	*	*	*k[f#c#]	*	*k[f#c#]	*	*k[f#c#]	*	*k[f#c#]	*	*	*	*k[f#c#]	*	*k[f#c#]	*	*k[f#c#]	*	*k[f#c#]	*	*k[f#c#]	*
*D:	*	*D:	*	*D:	*	*D:	*	*D:	*	*	*	*	*	*D:	*	*D:	*	*D:	*	*D:	*	*	*	*D:	*	*D:	*	*D:	*	*D:	*	*D:	*
*M3/8	*	*M3/8	*	*M3/8	*	*M3/8	*	*M3/8	*	*M3/8	*M3/8	*	*M3/8	*M3/8	*	*M3/8	*	*M3/8	*	*M3/8	*	*M3/8	*	*M3/8	*	*M3/8	*	*M3/8	*	*M3/8	*	*M3/8	*
*all\right	*	*all\right	*	*all\right	*	*all\right	*	*all\right	*	*all\right	*all\right	*	*all\right	*all\right	*	*all\right	*	*all\right	*	*all\right	*	*all\right	*	*all\right	*	*all\right	*	*all\right	*	*all\right	*	*all\right	*
=1	=1	=1	=1	=1	=1	=1	=1	=1	=1	=1	=1	=1	=1	=1	=1	=1	=1	=1	=1	=1	=1	=1	=1	=1	=1	=1	=1	=1	=1	=1	=1	=1	=1
!	!LO:DY:a	!	!LO:DY:a	!	!	!	!	!	!	!	!	!	!LO:TX:t=P:problem:cue notes 4D 4AA przed oznaczeniem metrycznym [określenie rodzaju kotła]	!	!	!	!	!	!	!	!	!	!	!	!	!	!	!	!	!	!	!	!
(8BB-X/L	sf	(y8BB-X/Lyy	sfy	8G/L	.	8d/L	sf	8e/L	sf	8Ra/	4.r	.	8D\	8G 8BB-X\	.	8e 8d\	sf	4.r	.	(8B-L 8BB-X\	.	4.r	.	4.r	.	4.r	.	4.r	.	4.r	.	4.r	.
8AA/)	.	8AA/)yy	.	8A/	.	8c#/	.	8g/	.	8r	.	.	8r	8r	.	8r	.	.	.	8A 8AA\)	.	.	.	.	.	.	.	.	.	.	.	.	.
8AA'/J	.	8AA'/Jyy	.	8A/J	.	8c#/J	.	8e/J	.	8r	.	.	8r	8r	.	8r	.	.	.	8AJ 8AA'\	.	.	.	.	.	.	.	.	.	.	.	.	.
=2	=2	=2	=2	=2	=2	=2	=2	=2	=2	=2	=2	=2	=2	=2	=2	=2	=2	=2	=2	=2	=2	=2	=2	=2	=2	=2	=2	=2	=2	=2	=2	=2	=2
*	*	*	*	*	*	*	*	*	*	*	*	*	*	*	*	*	*	*	*	*	*	*^	*	*	*	*	*	*^	*	*	*	*	*
*tremolo	*	*tremolo	*	*	*	*	*	*	*	*	*tremolo	*	*	*	*	*	*	*	*	*tremolo	*	*	*	*	*	*	*	*	*	*	*	*	*	*	*
8D\L	.	8D\Lyy	.	16.A/LL	.	16.d/LL	.	16.f#/LL	.	4.r	8Ree\L	.	4.r	4.r	.	4.r	.	4.r	.	8AL 8D\	.	4.dd/	4.dd\	.	4.f# 4.A/	.	16.ff#LL 16.dd\	.	16.aa\LL	4.re	.	16.ff#\LL	.	16.ddd\LL	.
.	.	.	.	32d/JJk	.	32f#/JJk	.	32a/JJk	.	.	.	.	.	.	.	.	.	.	.	.	.	.	.	.	.	.	32aaJJk 32ff#\	.	32ddd\JJk	.	.	32aa\JJk	.	32fff#\JJk	.
8D\	.	8D\yy	.	8F#/L	.	8A/L	.	8d/L	.	.	8Ree\	.	.	.	.	.	.	.	.	8A 8D\	.	.	.	.	.	.	8ddL 8a\	.	8ff#\L	.	.	8dd\L	.	8aa\L	.
8D\J	.	8D\Jyy	.	8A/J	.	8d/J	.	8f#/J	.	.	8Ree\J	.	.	.	.	.	.	.	.	8AJ 8D\	.	.	.	.	.	.	8ff#J 8dd\	.	8aa\J	.	.	8ff#\J	.	8ddd\J	.
*Xtremolo	*	*Xtremolo	*	*	*	*	*	*	*	*	*Xtremolo	*	*	*	*	*	*	*	*	*Xtremolo	*	*	*	*	*	*	*	*	*	*	*	*	*	*	*
*	*	*	*	*	*	*	*	*	*	*	*	*	*	*	*	*	*	*	*	*	*	*v	*v	*	*	*	*	*	*v	*v	*	*	*	*	*
=3	=3	=3	=3	=3	=3	=3	=3	=3	=3	=3	=3	=3	=3	=3	=3	=3	=3	=3	=3	=3	=3	=3	=3	=3	=3	=3	=3	=3	=3	=3	=3	=3	=3
(8BB-X/L	sf	(y8BB-X/Lyy	sfy	8G/	.	8d/	sf	8e/	sf	8Ra/	4.r	.	8D\	8G 8BB-X\	.	8e 8d\	sf	4.r	.	(8B-XL 8BB-X/	.	4.r	.	4.r	.	4.r	.	4.r	.	4.r	.	4.r	.
.	.	.	.	.	.	(16qqc#/LL	.	(16qqe/LL	.	.	.	.	.	.	.	.	.	.	.	.	.	.	.	.	.	.	.	.	.	.	.	.	.
.	.	.	.	.	.	16qqd/JJ	.	16qqf#/JJ	.	.	.	.	.	.	.	.	.	.	.	.	.	.	.	.	.	.	.	.	.	.	.	.	.
8AA/)	.	8AA/)yy	.	8A/L	.	8e/L)	.	8g/L)	.	8r	.	.	8r	8r	.	8r	.	.	.	8A 8AA/)	.	.	.	.	.	.	.	.	.	.	.	.	.
8AA'/J	.	8AA'/Jyy	.	8A/J	.	8c#/J	.	8e/J	.	8r	.	.	8r	8r	.	8r	.	.	.	8AJ 8AA'/	.	.	.	.	.	.	.	.	.	.	.	.	.
=4	=4	=4	=4	=4	=4	=4	=4	=4	=4	=4	=4	=4	=4	=4	=4	=4	=4	=4	=4	=4	=4	=4	=4	=4	=4	=4	=4	=4	=4	=4	=4	=4	=4
*tremolo	*	*tremolo	*	*	*	*	*	*	*	*	*tremolo	*	*	*	*	*	*	*	*	*tremolo	*	*	*	*	*	*	*	*	*	*	*	*	*
8D\L	.	8D\Lyy	.	16.A/LL	.	16.d/LL	.	16.f#/LL	.	4.r	8Ree\L	.	4.r	4.r	.	4.r	.	4.r	.	8AL 8D\	.	8r	.	8r	.	16.ff#LL 16.a/	.	16.aaLL 16.dd\	.	16.ff#\LL	.	16.fff#\LL	.
.	.	.	.	32G/JJk	.	32A/JJk	.	32c#/JJk	.	.	.	.	.	.	.	.	.	.	.	.	.	.	.	.	.	32cc#JJk 32g/	.	32ggJJk 32a\	.	32cc#\JJk	.	32ccc#\JJk	.
8D\	.	8D\yy	.	8F#/L	.	8A/L	.	8d/L	.	.	8Ree\	.	.	.	.	.	.	.	.	8A 8D\	.	8dd\L	.	8f#L 8A/	.	8ddL 8f#/	.	8ff#L 8a\	.	8dd\L	.	8ddd\L	.
8D\J	.	8D\Jyy	.	8F#/J	.	8A/J	.	8A/J	.	.	8Ree\J	.	.	.	.	.	.	.	.	8AJ 8D\	.	8dd\J	.	8f#J 8A/	.	8aJ 8f#/	.	8ff#J 8a\	.	8a\J	.	8aa\J	.
*Xtremolo	*	*Xtremolo	*	*	*	*	*	*	*	*	*Xtremolo	*	*	*	*	*	*	*	*	*Xtremolo	*	*	*	*	*	*	*	*	*	*	*	*	*
=5	=5	=5	=5	=5	=5	=5	=5	=5	=5	=5	=5	=5	=5	=5	=5	=5	=5	=5	=5	=5	=5	=5	=5	=5	=5	=5	=5	=5	=5	=5	=5	=5	=5
!	!LO:DY:a	!	!LO:DY:a	!	!	!	!	!	!	!	!	!	!	!	!	!	!	!	!	!	!	!	!	!	!	!	!	!	!	!	!	!	!
(8BB-X/L	sf	(y8BB-X/Lyy	sfy	8G/L	.	8d/L	sf	8e/L	sf	8Ra/	4.r	.	8D\	8G 8BB-X\	.	8e 8d\	sf	4.r	.	(8B-XL 8BB-X/	.	4.r	.	4.r	.	4.r	.	4.r	.	4.r	.	4.r	.
8AA/)	.	8AA/)yy	.	8A/	.	8c#/	.	8g/	.	8r	.	.	8r	8r	.	8r	.	.	.	8A 8AA/)	.	.	.	.	.	.	.	.	.	.	.	.	.
8AA'/J	.	8AA'/Jyy	.	8A/J	.	8c#/J	.	8e/J	.	8r	.	.	8r	8r	.	8r	.	.	.	8AJ 8AA'/	.	.	.	.	.	.	.	.	.	.	.	.	.
=6	=6	=6	=6	=6	=6	=6	=6	=6	=6	=6	=6	=6	=6	=6	=6	=6	=6	=6	=6	=6	=6	=6	=6	=6	=6	=6	=6	=6	=6	=6	=6	=6	=6
*	*	*	*	*	*	*	*	*	*	*	*	*	*	*	*	*	*	*	*	*	*	*^	*	*	*	*	*	*	*	*	*	*	*
*tremolo	*	*tremolo	*	*	*	*	*	*	*	*	*tremolo	*	*	*	*	*	*	*	*	*tremolo	*	*	*	*	*	*	*	*	*	*	*	*	*	*
8D\L	.	8D\Lyy	.	16.A/LL	.	16.d/LL	.	16.f#/LL	.	4.r	8Ree\L	.	4.r	4.r	.	4.r	.	4.r	.	8AL 8D\	.	4.dd/	4.dd\	.	4.f# 4.A/	.	16.ff#LL 16.dd\	.	16.aa\LL	.	16.ff#\LL	.	16.ddd\LL	.
.	.	.	.	32d/JJk	.	32f#/JJk	.	32a/JJk	.	.	.	.	.	.	.	.	.	.	.	.	.	.	.	.	.	.	32aaJJk 32ff#\	.	32ddd\JJk	.	32aa\JJk	.	32fff#\JJk	.
8D\	.	8D\yy	.	8F#/L	.	8A/L	.	8d/L	.	.	8Ree\	.	.	.	.	.	.	.	.	8A 8D\	.	.	.	.	.	.	8ddL 8a\	.	8ff#\L	.	8dd\L	.	8aa\L	.
8D\J	.	8D\Jyy	.	8A/J	.	8d/J	.	8f#/J	.	.	8Ree\J	.	.	.	.	.	.	.	.	8AJ 8D\	.	.	.	.	.	.	8ff#J 8dd\	.	8aa\J	.	8ff#\J	.	8ddd\J	.
*Xtremolo	*	*Xtremolo	*	*	*	*	*	*	*	*	*Xtremolo	*	*	*	*	*	*	*	*	*Xtremolo	*	*	*	*	*	*	*	*	*	*	*	*	*	*
*	*	*	*	*	*	*	*	*	*	*	*	*	*	*	*	*	*	*	*	*	*	*v	*v	*	*	*	*	*	*	*	*	*	*	*
!!LO:PB:g=original
=7	=7	=7	=7	=7	=7	=7	=7	=7	=7	=7	=7	=7	=7	=7	=7	=7	=7	=7	=7	=7	=7	=7	=7	=7	=7	=7	=7	=7	=7	=7	=7	=7	=7
*	*	*	*	*tremolo	*	*	*	*	*	*	*	*	*	*	*	*	*	*	*	*	*	*	*	*tremolo	*	*	*	*	*	*	*	*	*
!LO:TX:t=P:problem:mixed beam	!	!LO:TX:t=P:problem:mixed beam	!	!	!	!	!	!	!	!	!	!	!	!	!	!	!	!	!	!LO:TX:t=P:problem:mixed beam	!	!	!	!	!	!	!	!	!	!	!	!	!
8AA/L	.	8AA/Lyy	.	8A/L	.	16.c#/LL	<	16.e/LL	.	4.r	4.r	.	8r	8r	.	8r	.	16.eLL 16.c#/	.	8AA/L	.	4.r	.	8eL 8A/	<	16.eLL 16.c#/	.	16.eeLL 16.cc#\	.	16.ee\LL	.	16.ccc#\LL	.
.	<	.	<	.	.	32d/K	.	32f#/K	<	.	.	.	.	.	.	.	.	32f#K 32d/	.	.	.	.	.	.	.	32f#K 32d/	.	32ff#K 32dd\	.	32ff#\K	.	32ddd\K	<
8A\	.	8A\yy	.	8A/	.	16.e/	.	16.g/	.	.	.	.	8r	8r	.	8r	.	16.g 16.e/	.	8A\	.	.	.	8e 8A/	.	16.g 16.e/	.	16.gg 16.ee\	.	16.gg\	.	16.eee\	.
.	.	.	.	.	.	32f#/K	.	32a/K	.	.	.	.	.	.	.	.	.	32aK 32f#/	.	.	.	.	.	.	.	32aK 32f#/	.	32aaK 32ff#\	.	32aa\K	.	32fff#\K	.
8AA/J	[[	8AA/Jyy	[[	8A/J	.	16.g/	.	16.b/	.	.	.	.	8AA/	8A 8AA\	.	8g 8e\	.	16.b 16.g/	.	8AA/J	.	.	.	8eJ 8A/	[[	16.b 16.g/	.	16.bb 16.gg\	.	16.bb\	.	16.ggg\	.
*	*	*	*	*Xtremolo	*	*	*	*	*	*	*	*	*	*	*	*	*	*	*	*	*	*	*	*Xtremolo	*	*	*	*	*	*	*	*	*
.	.	.	.	.	.	32g/JJk	[[	32cc#/JJk	[[	.	.	.	.	.	.	.	f	32cc#JJk 32e/	.	.	.	.	.	.	.	32cc#JJk 32g/	.	32ccc#JJk 32gg\	.	32ccc#\JJk	.	32ggg\JJk	[[
=8	=8	=8	=8	=8	=8	=8	=8	=8	=8	=8	=8	=8	=8	=8	=8	=8	=8	=8	=8	=8	=8	=8	=8	=8	=8	=8	=8	=8	=8	=8	=8	=8	=8
!	!LO:DY:rj	!	!LO:DY:rj	!	!LO:DY:rj	!	!	!	!LO:DY:rj	!	!	!LO:DY:rj	!	!	!LO:DY:rj	!	!	!	!	!LO:TX:a:t=col b. //	!	!	!	!	!LO:DY:rj	!	!	!	!LO:DY:rj	!	!	!	!LO:DY:rj
16.BB/LL	f	16.BB/LLyy	fy	16.B/LL	f	16.f#/LL	.	16.dd\LL	f	8Ra/	16.Ree\LL	f	16.D/LL	16.BLL 16.BB\	f	16.f#LL 16.d\	.	16.ddLL 16.d/	.	16.BB/LLyy	fy	16.dd\LL	.	16.dLL 16.F#/	f	16.ddLL 16.f#/	.	16.dddLL 16.ff#\	f	16.ddd\LL	.	16.ddd\LL	f
32AA/JJk	.	32AA/JJkyy	.	32A/JJk	.	32cc#/JJk	.	32eeJJk 32a\	.	.	32Ree\JJk	.	32AA/JJk	32AJJk 32AA\	.	32c#JJk 32A\	.	32cc#JJk 32e/	.	32AA/JJkyy	.	32eeJJk 32cc#X\	.	32eJJk 32A/	.	32eeJJk 32cc#/	.	32aaJJk 32cc#\	.	32eee\JJk	.	32ccc#\JJk	.
8D/L	.	8D/Lyy	.	8d/L	.	8dd\L	.	8ff#L 8a\	.	8r	8Ree\L	.	8D/L	8D\L	.	8dL 8A\	.	8ddL 8f#/	.	8D/Lyy	.	8dd\L	.	8f#L 8d/	.	8ff#L 8dd\	.	8aaL 8dd\	.	8fff#\L	.	8ddd\L	.
8C#/J	.	y8C#/Jyy	.	8c#/J	.	8ee\J	.	8aaJ 8a\	.	8r	8Ree\J	.	8AA/J	8C#\J	.	8eJ 8A\	.	8eeJ 8e/	.	8C#/Jyy	.	8eeJ 8cc#\	.	8eJ 8A/	.	8aaJ 8ee\	.	8aaJ 8ee\	.	8aa\J	.	8eee\J	.
=9	=9	=9	=9	=9	=9	=9	=9	=9	=9	=9	=9	=9	=9	=9	=9	=9	=9	=9	=9	=9	=9	=9	=9	=9	=9	=9	=9	=9	=9	=9	=9	=9	=9
*	*	*	*	*	*	*	*	*	*	*rep	*rep	*	*rep	*	*	*	*	*	*	*	*	*rep	*	*	*	*	*	*	*	*	*	*	*
16.D\LL	.	16.D\LLyy	.	16.d\LL	.	16.dd\LL	.	16.ff#LL 16.a 16.d/	.	8Ra/	16.Ree\LL	.	16.D/LL	16.D\LL	.	16.f#LL 16.A\	.	16.ddLL 16.f#/	.	16.D\LLyy	.	16.dd\LL	.	16.f#LL 16.d\	.	16.ff#LL 16.dd\	.	16.aaLL 16.ff#\	.	16.ff#\LL	.	16.ddd\LL	.
32E\JJk	.	32E\JJkyy	.	32g\JJk	.	32a\JJk	.	32cc#/JJk	.	.	32Ree\JJk	.	32AA/JJk	32E\JJk	.	32c#JJk 32A\	.	32cc#JJk 32e/	.	32E\JJkyy	.	32eeJJk 32cc#X\	.	32gJJk 32e\	.	32cc#JJk 32a\	.	32aaJJk 32cc#\	.	32cc#\JJk	.	32aa\JJk	.
8F#\L	.	8F#\Lyy	.	8f#\L	.	8a\L	.	8dd\L	.	8r	8Ree\L	.	8D/L	8F#\L	.	8dL 8A\	.	8ddL 8d/	.	8F#\Lyy	.	8dd\L	.	8f#L 8d\	.	8ddL 8a\	.	8aaL 8dd\	.	8dd\L	.	8aa\L	.
8C#\J	.	8C#\Jyy	.	8e\J	.	8eeJ 8a\	.	8aaJ 8a\	.	8r	8Ree\J	.	8AA/J	8C#\J	.	8eJ 8A\	.	8eeJ 8e/	.	8C#\Jyy	.	8eeJ 8cc#\	.	8eJ 8A\	.	8aaJ 8a\	.	8aaJ 8ee\	.	8aa\J	.	8aa\J	.
*	*	*	*	*	*	*	*	*	*	*Xrep	*Xrep	*	*Xrep	*	*	*	*	*	*	*	*	*Xrep	*	*	*	*	*	*	*	*	*	*	*
=10	=10	=10	=10	=10	=10	=10	=10	=10	=10	=10	=10	=10	=10	=10	=10	=10	=10	=10	=10	=10	=10	=10	=10	=10	=10	=10	=10	=10	=10	=10	=10	=10	=10
*	*	*	*	*	*	*	*	*	*	*rep	*rep	*	*	*	*	*	*	*	*	*	*	*	*	*	*	*	*	*	*	*	*	*	*
16.D\LL	.	16.D\LLyy	.	16.d\LL	.	16.dd\LL	.	16.ff#LL 16.a 16.d/	.	8Ra/	16.Ree\LL	.	16.D/LL	16.D\LL	.	16.f#LL 16.A\	.	16.ddLL 16.f#/	.	16.D\LLyy	.	16.dd\LL	.	16.f#LL 16.d\	.	16.ff#LL 16.a\	.	16.aaLL 16.ff#\	.	16.ff#\LL	.	16.aa\LL	.
32E\JJk	.	32E\JJkyy	.	32g\JJk	.	32a\JJk	.	32cc#/JJk	.	.	32Ree\JJk	.	32AA/JJk	32E\JJk	.	32c#JJk 32A\	.	32cc#JJk 32e/	.	32E\JJkyy	.	32eeJJk 32cc#X\	.	32gJJk 32e\	.	32cc#JJk 32a\	.	32aaJJk 32cc#\	.	32cc#\JJk	.	32aa\JJk	.
8F#\L	.	8F#\Lyy	.	8f#\L	.	8a/L	.	8dd/L	.	8r	8Ree\L	.	8D/L	8F#\L	.	8dL 8A\	.	8ddL 8f#/	.	8F#\Lyy	.	8dd\L	.	8f#L 8d\	.	8ddL 8a\	.	8aaL 8dd\	.	8dd\L	.	8aa\L	.
8G\J	.	8G\Jyy	.	8d\J	.	8g/J	.	8b/J	.	8r	8Ree\J	.	8D/J	8G\J	.	8BJ 8G\	.	8bJ 8g/	.	8G\Jyy	.	8dd\J	.	8gJ 8B\	.	8bJ 8g\	.	8bbJ 8gg\	.	8b\J	.	8gg\J	.
*	*	*	*	*	*	*	*	*	*	*Xrep	*Xrep	*	*	*	*	*	*	*	*	*	*	*	*	*	*	*	*	*	*	*	*	*	*
=11	=11	=11	=11	=11	=11	=11	=11	=11	=11	=11	=11	=11	=11	=11	=11	=11	=11	=11	=11	=11	=11	=11	=11	=11	=11	=11	=11	=11	=11	=11	=11	=11	=11
*	*	*	*	*	*	*	*	*	*	*	*tremolo	*	*	*	*	*	*	*	*	*	*	*	*	*tremolo	*	*	*	*	*	*	*	*	*
!LO:TX:t=P:problem:mixed beam	!	!LO:TX:t=P:problem:mixed beam	!	!	!	!	!	!	!	!	!	!	!	!	!	!	!	!	!	!LO:TX:t=P:problem:mixed beam	!	!	!	!	!	!	!	!	!	!	!	!	!
8A\L	.	8A\Lyy	.	8d\L	.	16.f#\LL	.	16.a\LL	.	4.r	8Ree\L	.	8D/	8A\	.	8A 8F#/	.	8a 8f#/	.	8A\Lyy	.	8dd\L	.	8gL 8A\	.	16.aLL 16.f#\	.	16.aaLL 16.ff#\	.	16.a\LL	.	16.ff#\LL	.
.	.	.	.	.	.	32ff#\K	.	32aa\K	.	.	.	.	.	.	.	.	.	.	.	.	.	.	.	.	.	32aaK 32ff#\	.	32aaK 32ff#\	.	32aa\K	.	32fff#\K	.
8A\	.	8A\yy	.	8e\	.	16.ee\	.	16.gg\	.	.	8Ree\	.	8r	8r	.	8r	.	8r	.	8A\yy	.	8ee 8cc#X\	.	8g 8A\	.	16.gg 16.ee\	.	16.gg 16.ee\	.	16.gg\	.	16.eee\	.
.	.	.	.	.	.	32cc#\K	.	32ee\K	.	.	.	.	.	.	.	.	.	.	.	.	.	.	.	.	.	32eeK 32cc#\	.	32eeK 32cc#\	.	32ee\K	.	32ccc#\K	.
8AA/J	.	8AA/Jyy	.	8e\J	.	16.g\	.	16.b\	.	.	8Ree\J	.	8r	8r	.	8r	.	8r	.	8AA/Jyy	.	8eeJ 8cc#	.	8gJ 8A\	.	16.b 16.g\	.	16.b 16.g\	.	16.b\	.	16.gg\	.
*	*	*	*	*	*	*	*	*	*	*	*Xtremolo	*	*	*	*	*	*	*	*	*	*	*	*	*Xtremolo	*	*	*	*	*	*	*	*	*
.	.	.	.	.	.	32g\JJk	.	32cc#\JJk	.	.	.	.	.	.	.	.	.	.	.	.	.	.	.	.	.	32cc#JJk 32g\	.	32cc#JJk 32g\	.	32cc#\JJk	.	32gg\JJk	.
=12	=12	=12	=12	=12	=12	=12	=12	=12	=12	=12	=12	=12	=12	=12	=12	=12	=12	=12	=12	=12	=12	=12	=12	=12	=12	=12	=12	=12	=12	=12	=12	=12	=12
16.D/LL	.	16.D/LLyy	.	16.d/LL	.	16.f#/LL	.	16.dd\LL	.	8Ra/	16.Ree\LL	.	16.D/LL	16.D/LL	.	16.f#LL 16.d\	.	16.ddLL 16.f#/	.	16.D/LLyy	.	16.dd\LL	.	16.f#LL 16.d\	.	16.ddLL 16.f#\	.	16.ddLL 16.f#\	.	16.dd\LL	.	16.ff#\LL	.
32AA/JJk	.	32AA/JJkyy	.	32A/JJk	.	32cc#JJk 32e/	.	32eeJJk 32a\	.	.	32Ree\JJk	.	32AA/JJk	32AA/JJk	.	32eJJk 32A\	.	32cc#JJk 32e/	.	32AA/JJkyy	.	32eeJJk 32cc#X\	.	32eJJk 32A\	.	32eeJJk 32cc#\	.	32eeJJk 32a\	.	32ee\JJk	.	32ccc#\JJk	.
8D/L	.	8D/Lyy	.	8d/L	.	8ddL 8f#/	.	8ff#L 8a\	.	8r	8Ree\L	.	8D/L	8D/L	.	8dL 8F#/	.	8ddL 8f#/	.	8D/Lyy	.	8dd\L	.	8f#L 8d\	.	8ff#L 8dd\	.	8ff#L 8a\	.	8ff#\L	.	8ddd\L	.
8BB/J	.	8BB/Jyy	.	8B/J	.	8ddJ 8f#/	.	8dddJ 8dd 8d\	.	8r	8Ree\J	.	8D/J	8BB/J	.	8dJ 8F#/	.	8ddJ 8f#/	.	8BB/Jyy	.	8dd\J	.	8f#J 8d\	.	8ff#J 8dd\	.	8dddJ 8ff#\	.	8ddd\J	.	8fff#\J	.
!!LO:PB:g=original
=13	=13	=13	=13	=13	=13	=13	=13	=13	=13	=13	=13	=13	=13	=13	=13	=13	=13	=13	=13	=13	=13	=13	=13	=13	=13	=13	=13	=13	=13	=13	=13	=13	=13
*	*	*	*	*	*	*	*	*	*	*	*tremolo	*	*	*	*	*	*	*	*	*	*	*	*	*	*	*	*	*	*	*	*	*	*
!LO:TX:t=P:problem:mixed beam	!	!LO:TX:t=P:problem:mixed beam	!	!	!	!	!	!	!	!	!	!	!	!	!	!	!	!	!	!LO:TX:t=P:problem:mixed beam	!	!	!	!	!	!	!	!	!	!	!	!	!
8G\L	.	8G\Lyy	.	8B/L	.	8bL 8g/	.	16.ccc#\LL	.	4.r	8Ree\L	.	4.r	8GG/L	.	8dL 8G\	.	4.r	.	8G\Lyy	.	8dd\L	.	8gL 8d\	.	16.cc#/LL	.	4.r	.	16.ccc#\LL	.	4.r	.
.	.	.	.	.	.	.	.	32bb\K	.	.	.	.	.	.	.	.	.	.	.	.	.	.	.	.	.	32b/K	.	.	.	32bb\K	.	.	.
8A\	.	8A\yy	.	8c#/	.	8a 8g/	.	16.aa\	.	.	8Ree\	.	.	8AA/	.	8c# 8E\	.	.	.	8A\yy	.	8ee 8cc#X\	.	8g 8A\	.	16.a/	.	.	.	16.aa\	.	.	.
.	.	.	.	.	.	.	.	32gg\K	.	.	.	.	.	.	.	.	.	.	.	.	.	.	.	.	.	32g/K	.	.	.	32gg\K	.	.	.
8AA/J	.	8AA/Jyy	.	8eJ 8A/	.	8aJ 8g/	.	16.b\	.	.	8Ree\J	.	.	8AA/J	.	8eJ 8G\	.	.	.	8AA/Jyy	.	8eeJ 8cc#\	.	8gJ 8A\	.	16.B/	.	.	.	16.b\	.	.	.
*	*	*	*	*	*	*	*	*	*	*	*Xtremolo	*	*	*	*	*	*	*	*	*	*	*	*	*	*	*	*	*	*	*	*	*	*
.	.	.	.	.	.	.	.	32cc#\JJk	.	.	.	.	.	.	.	.	.	.	.	.	.	.	.	.	.	32c#/JJk	.	.	.	32cc#\JJk	.	.	.
=14	=14	=14	=14	=14	=14	=14	=14	=14	=14	=14	=14	=14	=14	=14	=14	=14	=14	=14	=14	=14	=14	=14	=14	=14	=14	=14	=14	=14	=14	=14	=14	=14	=14
16.D/LL	.	16.D/LLyy	.	16.d/LL	.	16.aLL 16.f#/	.	16.dd\LL	.	4Ra/	16.Ree\LL	.	16.D/LL	16.D/LL	.	16.dLL 16.F#\	.	16.ddLL 16.f#/	.	16.D/LLyy	.	16.dd\LL	.	16.f#LL 16.d\	.	16.d/LL	.	16.ddLL 16.f#\	.	16.dd\LL	.	16.ddd\LL	.
32AA/JJk	.	32AA/JJkyy	.	32A/JJk	.	32cc#JJk 32e/	.	32eeJJk 32a\	.	.	32Ree\JJk	.	32AA/JJk	32AA/JJk	.	32eJJk 32A\	.	32cc#XJJk 32e/	.	32AA/JJkyy	.	32eeJJk 32cc#X\	.	32eJJk 32A\	.	32e/JJk	.	32eeJJk 32a\	.	32ee\JJk	.	32ccc#\JJk	.
8D/L	.	8D/Lyy	.	8d/L	.	8ddL 8f#/	.	8ff# 8a\	.	.	8Ree\L	.	8D/L	8D/L	.	8f#L 8d\	.	8ddL 8f#/	.	8D/Lyy	.	8dd\L	.	8f#L 8d\	.	8f#/L	.	8ff#L 8a\	.	8ff#\L	.	8ddd\L	.
8BB/J	.	8BB/Jyy	.	8B/J	.	8ddJ 8f#/	.	8ddd 8dd 8d\	.	8r	8Ree\J	.	8D/J	8BB/J	.	8f#J 8c#\	.	8ddJ 8f#/	.	8BB/Jyy	.	8dd\J	.	8f#J 8d\	.	8dd/J	.	8dddJ 8ff#\	.	8ddd\J	.	8fff#\J	.
=15	=15	=15	=15	=15	=15	=15	=15	=15	=15	=15	=15	=15	=15	=15	=15	=15	=15	=15	=15	=15	=15	=15	=15	=15	=15	=15	=15	=15	=15	=15	=15	=15	=15
*	*	*	*	*	*	*	*	*	*	*	*tremolo	*	*	*	*	*	*	*	*	*	*	*	*	*	*	*	*	*	*	*	*	*	*
8GG/L	.	8GG/Lyy	.	8B/L	.	8bL 8g/	.	16.ccc#\LL	.	4.r	8Ree\L	.	4.r	8GG/L	.	8gL 8d\	.	4.r	.	8GG/Lyy	.	8dd\L	.	8gL 8d\	.	16.cc#/LL	.	4.r	.	16.ccc#\LL	.	4.r	.
.	.	.	.	.	.	.	.	32bb\K	.	.	.	.	.	.	.	.	.	.	.	.	.	.	.	.	.	32b/K	.	.	.	32bb\K	.	.	.
8AA/	.	8AA/yy	.	8c#/	.	8a 8g/	.	16.aa\	.	.	8Ree\	.	.	8AA/	.	8e 8c#\	.	.	.	8AA/yy	.	8ee 8cc#X\	.	8g 8A\	.	16.a/	.	.	.	16.aa\	.	.	.
.	.	.	.	.	.	.	.	32gg\K	.	.	.	.	.	.	.	.	.	.	.	.	.	.	.	.	.	32g/K	.	.	.	32gg\K	.	.	.
8AA/J	.	8AA/Jyy	.	8eJ 8A/	.	8aJ 8g/	.	16.b\	.	.	8Ree\J	.	.	8AA/J	.	8eJ 8G\	.	.	.	8AA/Jyy	.	8eeJ 8cc#\	.	8gJ 8A\	.	16.B/	.	.	.	16.b\	.	.	.
*	*	*	*	*	*	*	*	*	*	*	*Xtremolo	*	*	*	*	*	*	*	*	*	*	*	*	*	*	*	*	*	*	*	*	*	*
.	.	.	.	.	.	.	.	32cc#\JJk	.	.	.	.	.	.	.	.	.	.	.	.	.	.	.	.	.	32c#/JJk	.	.	.	32cc#\JJk	.	.	.
=16	=16	=16	=16	=16	=16	=16	=16	=16	=16	=16	=16	=16	=16	=16	=16	=16	=16	=16	=16	=16	=16	=16	=16	=16	=16	=16	=16	=16	=16	=16	=16	=16	=16
8D\	.	8D\yy	.	8d\	.	8a 8f#/	.	8dd\	.	8r	8Ree\L	.	8r	8D\	.	8d 8F#\	.	8r	.	8D\yy	.	8dd\	.	8f# 8A/	.	8d/	.	8r	.	8dd\	.	8r	.
8D\	.	8D\yy	.	8A 8D/	.	8ff# 8a 8d\	.	8ddd 8dd\	.	8Ra/	8Ree\J	.	8D\	8D\	.	8d 8F#\	.	8dd 8f#/	.	8D\yy	.	8dd\	.	8f# 8A/	.	8dd 8f#/	.	8aa 8ff#\	.	8ddd\	.	8ddd\	.
8r	.	8ryy	.	8r	.	8r	.	8r	.	8r	8r	.	8r	8r	.	8r	.	8r	.	8ryy	.	8r	.	8r	.	8r	.	8r	.	8r	.	8r	.
=17:|!	=17:|!	=17:|!	=17:|!	=17:|!	=17:|!	=17:|!	=17:|!	=17:|!	=17:|!	=17:|!	=17:|!	=17:|!	=17:|!	=17:|!	=17:|!	=17:|!	=17:|!	=17:|!	=17:|!	=17:|!	=17:|!	=17:|!	=17:|!	=17:|!	=17:|!	=17:|!	=17:|!	=17:|!	=17:|!	=17:|!	=17:|!	=17:|!	=17:|!
*>B	*>B	*>B	*>B	*>B	*>B	*>B	*>B	*>B	*>B	*>B	*>B	*>B	*>B	*>B	*>B	*>B	*>B	*>B	*>B	*>B	*>B	*>B	*>B	*>B	*>B	*>B	*>B	*>B	*>B	*>B	*>B	*>B	*>B
!	!LO:DY:rj	!	!LO:DY:rj	!	!	!	!	!	!LO:DY:rj	!	!	!	!	!	!	!	!LO:DY:rj	!	!	!	!	!	!	!	!LO:DY:rj	!	!	!	!LO:DY:rj	!	!	!	!LO:DY:rj
16.AA\LL	ff	16.AA\LLyy	ffy	16.A/LL	.	16.eeLL 16.a\	.	16.aaLL 16.cc# 16.e\	ff	8Ra/	8r	.	16.AA/LL	16.AA/LL	.	16.eLL 16.c#\	ff	16.aLL 16.c#/	ff	16.ALL 16.AA\	.	16.eeLL 16.cc#X\	.	16.eLL 16.A/	ff	16.a/LL	.	16.aaLL 16.cc#\	ff	16.aa\LL	.	16.ccc#\LL	ff
32A\JJk	.	32A\JJkyy	.	32eJJk 32A/	.	32eeJJk 32a\	.	32aaJJk 32cc#\	.	.	.	.	32AA/JJk	32AA/JJk	.	32eJJk 32c#\	.	32aJJk 32c#/	.	32AJJk 32AA\	.	32eeJJk 32cc#\	.	32eJJk 32A/	.	32a/JJk	.	32aaJJk 32cc#\	.	32aa\JJk	.	32ccc#\JJk	.
8A\L	.	8A\Lyy	.	8eL 8A/	.	8eeL 8a\	.	8aaL 8cc#\	.	8r	8Ree\L	.	8AA/L	8AA/L	.	8eL 8c#\	.	8aL 8c#/	.	8AL 8AA\	.	8eeL 8cc#\	.	8eL 8A/	.	8a/L	.	8aaL 8cc#\	.	8aa\L	.	8ccc#\L	.
8A\J	.	8A\Jyy	.	8eJ 8A/	.	8cc#\J	.	8eeJ 8a\	.	8r	8Ree\J	.	8AA/J	8AA/J	.	8eJ 8c#\	.	8eJ 8c#/	.	8AJ 8AA\	.	8eeJ 8cc#\	.	8eJ 8A/	.	8e/J	.	8eeJ 8cc#\	.	8aa\J	.	8ccc#\J	.
!!LO:PB:g=original
=18	=18	=18	=18	=18	=18	=18	=18	=18	=18	=18	=18	=18	=18	=18	=18	=18	=18	=18	=18	=18	=18	=18	=18	=18	=18	=18	=18	=18	=18	=18	=18	=18	=18
*	*	*	*	*	*	*	*	*	*	*	*	*	*	*	*	*	*	*	*	*	*	*^	*	*	*	*	*	*	*	*	*	*	*
*tremolo	*	*tremolo	*	*tremolo	*	*	*	*	*	*	*	*	*	*	*	*	*	*	*	*tremolo	*	*tremolo	*tremolo	*	*tremolo	*	*	*	*	*	*	*	*	*
8D\L	.	8D\Lyy	.	8f#L 8A/	.	16dd'\LL	.	16ff#LL 16a'\	.	8Ra/	8Ree\	.	8D/	8D/	.	8f# 8d\	.	8f#L 8d/	.	8AL 8D\	.	8dd/L	8dd\L	.	8f#L 8A/	.	16f#'/LL	.	16ff#LL 16dd'\	.	16ff#'\LL	.	16ddd'\LL	.
.	.	.	.	.	.	(64aa\LL	.	(64aa\LL	.	.	.	.	.	.	.	.	.	.	.	.	.	.	.	.	.	.	(64a/LL	.	(64aa\LL	.	(64aa\LL	.	(64aa\LL	.
.	.	.	.	.	.	64gg\	.	64gg\	.	.	.	.	.	.	.	.	.	.	.	.	.	.	.	.	.	.	64g/	.	64gg\	.	64gg\	.	64gg\	.
.	.	.	.	.	.	64ff#\	.	64ff#\	.	.	.	.	.	.	.	.	.	.	.	.	.	.	.	.	.	.	64f#/	.	64ff#\	.	64ff#\	.	64ff#\	.
.	.	.	.	.	.	64ee\JJJJ	.	64ee\JJJJ	.	.	.	.	.	.	.	.	.	.	.	.	.	.	.	.	.	.	64e/JJJJ	.	64ee\JJJJ	.	64ee\JJJJ	.	64ee\JJJJ	.
8D\	.	8D\yy	.	8f# 8A/	.	8dd\)	.	8dd\L)	.	8r	8r	.	8r	8r	.	8r	.	8a 8f#/	.	8A 8D\	.	8dd/	8dd\	.	8f# 8A/	.	8d/L)	.	8dd\L)	.	8dd\L)	.	8dd\L)	.
8D\J	.	8D\Jyy	.	8f#J 8A/	.	8ff# 8a 8d\	.	8dddJ 8dd\	.	8r	8r	.	8r	8r	.	8r	.	8f#J 8d/	.	8AJ 8D\	.	8dd/J	8dd\J	.	8f#J 8A/	.	8f#'/J	.	8ff#J 8dd\	.	8ddd\J	.	8ddd\J	.
*Xtremolo	*	*Xtremolo	*	*Xtremolo	*	*	*	*	*	*	*	*	*	*	*	*	*	*	*	*Xtremolo	*	*Xtremolo	*Xtremolo	*	*Xtremolo	*	*	*	*	*	*	*	*	*
*	*	*	*	*	*	*	*	*	*	*	*	*	*	*	*	*	*	*	*	*	*	*v	*v	*	*	*	*	*	*	*	*	*	*	*
=19	=19	=19	=19	=19	=19	=19	=19	=19	=19	=19	=19	=19	=19	=19	=19	=19	=19	=19	=19	=19	=19	=19	=19	=19	=19	=19	=19	=19	=19	=19	=19	=19	=19
!LO:TX:t=P:problem:mixed beam	!	!LO:TX:t=P:problem:mixed beam	!	!	!	!	!	!	!	!	!	!	!	!	!	!	!	!	!	!	!	!	!	!	!	!	!	!	!	!	!	!	!
16.AA/LL	.	16.AA/LLyy	.	16.eLL 16.A/	.	16.eeLL 16.a\	.	16.aaLL 16.cc#\	.	8Ra/	8r	.	16.AA/LL	16.A\LL	.	16.eLL 16.c#\	.	16.aLL 16.c#/	.	16.ALL 16.AA\	.	16.eeLL 16.cc#X\	.	16.eLL 16.A/	.	16.a/LL	.	16.aaLL 16.cc#\	.	16.aa\LL	.	16.ccc#\LL	.
32A\JJk	.	32A\JJkyy	.	32eJJk 32A/	.	32eeJJk 32a\	.	32aaJJk 32cc#\	.	.	.	.	32AA/JJk	32A\JJk	.	32eJJk 32c#\	.	32aJJk 32c#/	.	32AJJk 32AA\	.	32eeJJk 32cc#\	.	32eJJK 32A/	.	32a/JJk	.	32aaJJk 32cc#\	.	32aa\JJk	.	32ccc#\JJk	.
*	*	*	*	*	*	*	*	*	*	*	*tremolo	*	*	*	*	*	*	*	*	*	*	*	*	*	*	*	*	*	*	*	*	*	*
8A\L	.	8A\Lyy	.	8eL 8A/	.	8eeL 8a\	.	8aaL 8cc#\	.	8r	32Ree\LLL	.	8AA/L	8A\L	.	8eL 8c#\	.	8aL 8c#/	.	8AL 8AA\	.	8eeL 8cc#\	.	8eL 8A/	.	8a/L	.	8aaL 8cc#\	.	8aa\L	.	8ccc#\L	.
.	.	.	.	.	.	.	.	.	.	.	32Ree\	.	.	.	.	.	.	.	.	.	.	.	.	.	.	.	.	.	.	.	.	.	.
.	.	.	.	.	.	.	.	.	.	.	32Ree\	.	.	.	.	.	.	.	.	.	.	.	.	.	.	.	.	.	.	.	.	.	.
.	.	.	.	.	.	.	.	.	.	.	32Ree\JJ	.	.	.	.	.	.	.	.	.	.	.	.	.	.	.	.	.	.	.	.	.	.
*	*	*	*	*	*	*	*	*	*	*	*Xtremolo	*	*	*	*	*	*	*	*	*	*	*	*	*	*	*	*	*	*	*	*	*	*
8A\J	.	8A\Jyy	.	8eJ 8A/	.	8cc#\J	.	8eeJ 8a\	.	8r	8Ree\J	.	8AA/J	8A\J	.	8eJ 8c#\	.	8eJ 8c#/	.	8AJ 8AA\	.	8eeJ 8cc#\	.	8eJ 8A/	.	8e/J	.	8eeJ 8cc#\	.	8ee\J	.	8ccc#\J	.
=20	=20	=20	=20	=20	=20	=20	=20	=20	=20	=20	=20	=20	=20	=20	=20	=20	=20	=20	=20	=20	=20	=20	=20	=20	=20	=20	=20	=20	=20	=20	=20	=20	=20
*	*	*	*	*	*	*	*	*	*	*	*	*	*	*	*	*	*	*	*	*^	*	*	*	*	*	*	*	*^	*	*	*	*	*
16D\	.	16D\yy	.	16f# 16A/	.	16dd\LL	.	16ff#LL 16a\	.	8Ra/	8Ree\	.	8D/	16D\	.	16f# 16d\	.	16f# 16d/	.	16A 16D\	8ryy	.	16dd\	.	16f# 16A/	.	16f#/	.	16ff# 16dd\	8ryy	.	16ff#'\LL	.	16ddd'\LL	.
16r	.	16ryy	.	16r	.	32cc#\L	.	32cc#\L	.	.	.	.	.	16r	.	16r	.	16r	.	16r	.	.	16r	.	16r	.	16r	.	16r	.	.	(32cc#\L	.	(32ccc#\L	.
.	.	.	.	.	.	32dd\JJJ	.	32dd\JJJ	.	.	.	.	.	.	.	.	.	.	.	.	.	.	.	.	.	.	.	.	.	.	.	32dd\JJJ)	.	32ddd\JJJ)	.
!	!	!	!	!LO:TX:t=P:problem:diminuendolike accent	!	!	!	!	!	!	!	!	!	!	!	!	!	!	!	!	!	!	!	!	!	!	!	!	!	!	!	!	!	!	!
8D\L	.	8D\Lyy	.	8e#XL 8G#X^>/	.	(8bT/L	.	(8bT/L	.	8r	8r	.	8r	8r	.	8r	.	8r	.	8B/L	4D\	.	8dd\L	.	(8e#XL 8B/	.	(8g#XL 8e#X/	.	8ee#X/L	4dd^\	.	(8bT/L	.	(8bb^<T\L	.
8D\J	.	8D\Jyy	.	8f#J 8A/	.	8a/J)	.	8a/J)	.	8r	8r	.	8r	8r	.	8r	.	8r	.	8A/J	.	.	8dd\J	.	8f#J 8A/)	.	8aJ 8f#/)	.	8ff#/J	.	.	8a/J)	.	8aa\J)	.
*	*	*	*	*	*	*	*	*	*	*	*	*	*	*	*	*	*	*	*	*v	*v	*	*	*	*	*	*	*	*	*	*	*	*	*	*
=21	=21	=21	=21	=21	=21	=21	=21	=21	=21	=21	=21	=21	=21	=21	=21	=21	=21	=21	=21	=21	=21	=21	=21	=21	=21	=21	=21	=21	=21	=21	=21	=21	=21	=21
*	*	*	*	*	*	*	*	*	*	*	*tremolo	*	*	*	*	*	*	*	*	*	*	*	*	*	*	*	*	*	*	*	*	*	*	*
16.GG\LL	.	16.GG\LLyy	.	16.d\LL	.	16.ggLL 16.b 16.d\	.	16.bbLL 16.b 16.d\	.	8Ra/L	32Ree\LLL	.	16.D\LL	16.G\LL	.	16.gLL 16.B\	.	16.ddLL 16.g/	.	16.GLL 16.GG/	.	16.dd\LL	.	16.gLL 16.B\	.	16.bLL 16.g/	.	16.bbLL 16.dd\	4ryy	.	16.bb\LL	.	16.ggg\LL	.
.	.	.	.	.	.	.	.	.	.	.	32Ree\	.	.	.	.	.	.	.	.	.	.	.	.	.	.	.	.	.	.	.	.	.	.	.
.	.	.	.	.	.	.	.	.	.	.	32Ree\	.	.	.	.	.	.	.	.	.	.	.	.	.	.	.	.	.	.	.	.	.	.	.
32G\JJk	.	32G\JJkyy	.	32ddJJk 32d\	.	32ggJJk 32b\	.	32bbJJk 32b\	.	.	32Ree\JJ	.	32D\JK	32G\JK	.	32gJK 32B\	.	32ddJK 32g/	.	32GJK 32GG/	.	32dd\JK	.	32gJK 32B\	.	32bJK 32g/	.	32bbJK 32dd\	.	.	32bb\JK	.	32ggg\JK	.
*	*	*	*	*	*	*	*	*	*	*	*Xtremolo	*	*	*	*	*	*	*	*	*	*	*	*	*	*	*	*	*	*	*	*	*	*	*
8G\L	.	8G\Lyy	.	8ddL 8d\	.	8ggL 8b\	.	8bb 8b\	.	8Ra/J	8Ree\J	.	8D\J	8G\J	.	8gJ 8B\	.	8ddJ 8g/	.	8GJ 8GG/	.	8dd\J	.	8gJ 8B\	.	8bJ 8g/	.	8bbJ 8dd\	.	.	8bb\J	.	8ggg\J	.
*	*	*	*	*	*	*	*	*	*	*	*	*	*	*	*	*	*	*	*	*	*	*	*	*	*	*	*	*Xtuplet	*	*	*	*	*	*
!	!	!	!	!	!	!	!	!LO:TUP:a:problem:klamra łukowa	!	!	!	!	!	!	!	!	!	!	!	!	!	!	!	!	!	!LO:TUP:b:problem:klamra łukowa, łuczek zamiast numeru	!	!	!	!	!LO:TUP:a:problem:klamra łukowa, łuczek zamiast numeru	!	!	!
8G\J	.	8G\Jyy	.	8ddJ 8d\	.	8ggJ 8b\	.	24gg\LL	.	8r	8r	.	8r	8r	.	8r	.	8r	.	8r	.	8r	.	8r	.	24g/LL	.	24gg/LL	8r	.	24gg\LL	.	8r	.
.	.	.	.	.	.	.	.	24aa\	.	.	.	.	.	.	.	.	.	.	.	.	.	.	.	.	.	24a/	.	24aa/	.	.	24aa\	.	.	.
.	.	.	.	.	.	.	.	24bb\JJ	.	.	.	.	.	.	.	.	.	.	.	.	.	.	.	.	.	24b/JJ	.	24bb/JJ	.	.	24bb\JJ	.	.	.
*	*	*	*	*	*	*	*	*	*	*	*	*	*	*	*	*	*	*	*	*	*	*	*	*	*	*	*	*v	*v	*	*	*	*	*
=22	=22	=22	=22	=22	=22	=22	=22	=22	=22	=22	=22	=22	=22	=22	=22	=22	=22	=22	=22	=22	=22	=22	=22	=22	=22	=22	=22	=22	=22	=22	=22	=22	=22
*	*	*	*	*	*	*	*	*	*	*	*rep	*	*	*	*	*	*	*	*	*	*	*	*	*	*	*	*	*	*	*	*	*	*
*	*	*	*	*	*	*	*	*	*	*	*tremolo	*	*	*	*	*	*	*	*	*	*	*	*	*	*	*	*	*	*	*	*	*	*
16.F#\LL	.	16.F#\LLyy	.	16.ddLL 16.d\	.	16.aaLL 16.a\	.	16.aaLL 16.dd 16.d\	.	8Ra/L	32Ree\LLL	.	16.D\LL	16.F#\LL	.	16.dLL 16.A\	.	16.ddLL 16.a/	.	16.F#LL 16.FF#/	.	16.dd\LL	.	16.f#LL 16.A/	.	16.a/LL	.	16.aaLL 16.dd\	.	16.aa\LL	.	16.ddd\LL	.
.	.	.	.	.	.	.	.	.	.	.	32Ree\	.	.	.	.	.	.	.	.	.	.	.	.	.	.	.	.	.	.	.	.	.	.
.	.	.	.	.	.	.	.	.	.	.	32Ree\	.	.	.	.	.	.	.	.	.	.	.	.	.	.	.	.	.	.	.	.	.	.
32F#\JJk	.	32F#\JJkyy	.	32ddJJk 32d\	.	32aaJJk 32a\	.	32aaJJk 32dd\	.	.	32Ree\JJ	.	32D\JK	32F#\JK	.	32dJK 32A\	.	32ddJK 32a/	.	32F#JK 32FF#/	.	32dd\JK	.	32f#JK 32A/	.	32a/JK	.	32aaJK 32dd\	.	32aa\JK	.	32ddd\JK	.
*	*	*	*	*	*	*	*	*	*	*	*Xtremolo	*	*	*	*	*	*	*	*	*	*	*	*	*	*	*	*	*	*	*	*	*	*
8F#\L	.	8F#\Lyy	.	8ddL 8d\	.	8aa 8a\	.	8aa 8dd\	.	8Ra/J	8Ree\J	.	8D\J	8F#\J	.	8dJ 8A\	.	8ddJ 8a/	.	8F#J 8FF#/	.	8dd\J	.	8f#J 8A/	.	8a/J	.	8aaJ 8dd\	.	8aa\J	.	8ddd\J	.
!	!	!	!	!	!	!LO:TUP:a:problem:klamra łukowa, łuczek zamiast numeru	!	!LO:TUP:a:problem:klamra łukowa, łuczek zamiast numeru	!	!	!	!	!	!	!	!	!	!	!	!	!	!	!	!	!	!LO:TUP:b:problem:klamra łukowa, łuczek zamiast numeru	!	!	!	!LO:TUP:a:problem:klamra łukowa, łuczek zamiast numeru	!	!	!
8F#\J	.	8F#\Jyy	.	8ddJ 8d\	.	24ff#\LL	.	24ff#\LL	.	8r	8r	.	8r	8r	.	8r	.	8r	.	8r	.	8r	.	8r	.	24f#/LL	.	24ff#/LL	.	24ff#\LL	.	8r	.
.	.	.	.	.	.	24gg\	.	24gg\	.	.	.	.	.	.	.	.	.	.	.	.	.	.	.	.	.	24g/	.	24gg/	.	24gg\	.	.	.
.	.	.	.	.	.	24aa\JJ	.	24aa\JJ	.	.	.	.	.	.	.	.	.	.	.	.	.	.	.	.	.	24a/JJ	.	24aa/JJ	.	24aa\JJ	.	.	.
!!LO:PB:g=original
*	*	*	*	*	*	*	*	*	*	*	*Xrep	*	*	*	*	*	*	*	*	*	*	*	*	*	*	*	*	*	*	*	*	*	*
=23	=23	=23	=23	=23	=23	=23	=23	=23	=23	=23	=23	=23	=23	=23	=23	=23	=23	=23	=23	=23	=23	=23	=23	=23	=23	=23	=23	=23	=23	=23	=23	=23	=23
*	*	*	*	*	*	*	*	*	*	*	*tremolo	*	*	*	*	*	*	*	*	*	*	*	*	*	*	*	*	*	*	*	*	*	*
16.E\LL	.	16.E\LLyy	.	16.bLL 16.e\	.	16.ee\LL	.	16.ggLL 16.b\	.	8Ra/	32Ree\LLL	.	8r	16.E\LL	.	16.eLL 16.G\	.	16.g/LL	.	16.ELL 16.EE/	.	16.eeLL 16.b\	.	16.eLL 16.B\	.	16.eeLL 16.g\	.	16.ggLL 16.b\	.	16.gg'\LL	.	16.eee\LL	.
.	.	.	.	.	.	.	.	.	.	.	32Ree\	.	.	.	.	.	.	.	.	.	.	.	.	.	.	.	.	.	.	.	.	.	.
.	.	.	.	.	.	.	.	.	.	.	32Ree\	.	.	.	.	.	.	.	.	.	.	.	.	.	.	.	.	.	.	.	.	.	.
32E\JJk	.	32E\JJkyy	.	32bJJk 32e\	.	32ee\JJk	.	32ggJJk 32b\	.	.	32Ree\JJ	.	.	32E\JJk	.	32eJJk 32G\	.	32g/JJk	.	32EJJk 32EE/	.	32eeJJk 32b\	.	32eJJk 32B\	.	32eeJJk 32g\	.	32ggJJk 32b\	.	32gg'\JJk	.	32eee\JJk	.
*	*	*	*	*	*	*	*	*	*	*	*Xtremolo	*	*	*	*	*	*	*	*	*	*	*	*	*	*	*	*	*	*	*	*	*	*
!LO:TX:t=P:problem:mixed beam	!	!LO:TX:t=P:problem:mixed beam	!	!	!	!	!	!	!	!	!	!	!	!LO:TX:a:t=P:problem:mixedbeam	!	!	!	!	!	!	!	!	!	!	!	!	!	!	!	!	!	!	!
8A\L	.	8A\Lyy	.	8aL 8e\	.	8cc#/L	.	8eeL 8a\	.	8r	8Ree\	.	8AA/L	8A\L	.	8c#L 8E/	.	8e/L	.	8AL 8AA/	.	8eeL 8cc#X\	.	8eL 8A\	.	8cc#L 8a/	.	8eeL 8cc#\	.	8ee'\L	.	8ccc#\L	.
.	.	.	.	.	.	.	.	.	.	.	.	.	.	.	.	.	.	.	.	.	.	.	.	.	.	.	.	(<8qgg#X/	.	(8qgg#X/	.	.	.
8AA/J	.	8AA/Jyy	.	8aJ 8e\	.	8cc#J 8e/	.	8aaJ 8a\	.	8r	8Ree\J	.	8AA/J	8AA/J	.	8c#J 8E/	.	8cc#J 8e/	.	8AJ 8AA/	.	8eeJ 8cc#\	.	8eJ 8A\	.	8aJ 8e/	.	8aaJ 8cc#\)	.	8aa\J)	.	8ccc#\J	.
=24	=24	=24	=24	=24	=24	=24	=24	=24	=24	=24	=24	=24	=24	=24	=24	=24	=24	=24	=24	=24	=24	=24	=24	=24	=24	=24	=24	=24	=24	=24	=24	=24	=24
8D/L	.	8D/Lyy	.	8aL 8d\	.	8ddL 8f#\	.	(32ff#\LLL	.	8Ra/L	8Ree\L	.	8D/L	8D\L	.	8dL 8F#/	.	8ddL 8f#/	.	8AL 8D\	.	8dd\L	.	8f#L 8A\	.	(32f#/LLL	.	8ff#L 8dd\	.	(32ff#\LLL	.	32ddd\LLL	.
.	.	.	.	.	.	.	.	32dd\	.	.	.	.	.	.	.	.	.	.	.	.	.	.	.	.	.	32d/	.	.	.	32dd\	.	(32dd\	.
.	.	.	.	.	.	.	.	32ff#\	.	.	.	.	.	.	.	.	.	.	.	.	.	.	.	.	.	32f#/	.	.	.	32ff#\	.	32ff#\	.
.	.	.	.	.	.	.	.	32aa\JJ)	.	.	.	.	.	.	.	.	.	.	.	.	.	.	.	.	.	32a/JJ)	.	.	.	32aa\JJ)	.	32aa\JJ	.
8D/J	.	8D/Jyy	.	8aJ 8d\	.	8ddJ 8f#\	.	8ddd\J	.	8Ra/J	8Ree\J	.	8D/J	8D\J	.	8dJ 8F#/	.	8ddJ 8f#/	.	8AJ 8D\	.	8dd\J	.	8f#J 8A\	.	8dd/J	.	8dddJ 8ff#\	.	8ddd\J	.	8ddd\J)	.
8r	.	8ryy	.	8r	.	8r	.	8r	.	8r	8r	.	8r	8r	.	8r	.	8r	.	8r	.	8r	.	8r	.	8r	.	8r	.	8r	.	8r	.
=25!|:	=25!|:	=25!|:	=25!|:	=25!|:	=25!|:	=25!|:	=25!|:	=25!|:	=25!|:	=25!|:	=25!|:	=25!|:	=25!|:	=25!|:	=25!|:	=25!|:	=25!|:	=25!|:	=25!|:	=25!|:	=25!|:	=25!|:	=25!|:	=25!|:	=25!|:	=25!|:	=25!|:	=25!|:	=25!|:	=25!|:	=25!|:	=25!|:	=25!|:
*>C	*>C	*>C	*>C	*>C	*>C	*>C	*>C	*>C	*>C	*>C	*>C	*>C	*>C	*>C	*>C	*>C	*>C	*>C	*>C	*>C	*>C	*>C	*>C	*>C	*>C	*>C	*>C	*>C	*>C	*>C	*>C	*>C	*>C
*	*	*	*	*	*	*	*	*	*	*	*	*	*	*	*	*	*	*	*	*^	*	*	*	*	*	*^	*	*	*	*	*	*	*
*	*	*clefC4	*	*	*	*	*	*	*	*	*	*	*	*	*	*	*	*	*	*clefC4	*	*	*	*	*	*	*	*	*	*	*	*	*	*	*
!	!LO:DY:rj	!	!	!	!	!	!LO:DY:rj	!	!	!	!	!LO:DY:rj	!	!	!	!	!	!	!	!	!	!	!	!	!	!	!	!	!	!	!	!	!	!	!
8BB/	p	16.f#\LL	.	16r	.	16r	p	4.r	.	4.r	8Ree\	p	4.r	4.r	.	4.r	.	4.r	.	16.f#/LL	4.rAA	.	4.r	.	4.r	.	16.ff#/LL	4.re	.	4.r	.	4.r	.	4.r	.
.	.	.	.	16d\	.	16f# 16B/	.	.	.	.	.	.	.	.	.	.	.	.	.	.	.	.	.	.	.	.	.	.	.	.	.	.	.	.	.
.	.	32f#\JJk	.	.	.	.	.	.	.	.	.	.	.	.	.	.	.	.	.	32f#/JJk	.	.	.	.	.	.	32ff#/JJk	.	.	.	.	.	.	.	.
*	*	*	*	*tremolo	*	*tremolo	*	*	*	*	*	*	*	*	*	*	*	*	*	*	*	*	*	*	*	*	*	*	*	*	*	*	*	*	*
8r	.	8g\L	.	16d\LL	.	16f#LL 16B/	.	.	.	.	8r	.	.	.	.	.	.	.	.	8g/L	.	.	.	.	.	.	8gg/L	.	.	.	.	.	.	.	.
.	.	.	.	16d\	.	16f# 16B/	.	.	.	.	.	.	.	.	.	.	.	.	.	.	.	.	.	.	.	.	.	.	.	.	.	.	.	.	.
8r	.	8f#\J	.	16d\	.	16f# 16B/	.	.	.	.	8r	.	.	.	.	.	.	.	.	8f#/J	.	.	.	.	.	.	8ff#/J	.	.	.	.	.	.	.	.
.	.	.	.	16d\JJ	.	16f#JJ 16B/	.	.	.	.	.	.	.	.	.	.	.	.	.	.	.	.	.	.	.	.	.	.	.	.	.	.	.	.	.
*	*	*	*	*Xtremolo	*	*Xtremolo	*	*	*	*	*	*	*	*	*	*	*	*	*	*	*	*	*	*	*	*	*	*	*	*	*	*	*	*	*
=26	=26	=26	=26	=26	=26	=26	=26	=26	=26	=26	=26	=26	=26	=26	=26	=26	=26	=26	=26	=26	=26	=26	=26	=26	=26	=26	=26	=26	=26	=26	=26	=26	=26	=26	=26
*	*	*	*	*rep	*	*rep	*	*	*	*	*rep	*	*	*	*	*	*	*	*	*	*	*	*	*	*	*	*	*	*	*	*	*	*	*	*
8BB/	.	16.e#X\LL	.	16r	.	16r	.	4.r	.	4.r	8Ree\	.	4.r	4.r	.	4.r	.	4.r	.	16.e#X/LL	4.rE	.	4.r	.	4.r	.	16.ee#X/LL	4.re	.	4.r	.	4.r	.	4.r	.
.	.	.	.	16d\	.	16f# 16B/	.	.	.	.	.	.	.	.	.	.	.	.	.	.	.	.	.	.	.	.	.	.	.	.	.	.	.	.	.
.	.	32f#\JJk	.	.	.	.	.	.	.	.	.	.	.	.	.	.	.	.	.	32f#/JJk	.	.	.	.	.	.	32ff#/JJk	.	.	.	.	.	.	.	.
*	*	*	*	*tremolo	*	*tremolo	*	*	*	*	*	*	*	*	*	*	*	*	*	*	*	*	*	*	*	*	*	*	*	*	*	*	*	*	*
8r	.	8d\L	.	16d\LL	.	16f#LL 16B/	.	.	.	.	8r	.	.	.	.	.	.	.	.	8d/L	.	.	.	.	.	.	8dd/L	.	.	.	.	.	.	.	.
.	.	.	.	16d\	.	16f# 16B/	.	.	.	.	.	.	.	.	.	.	.	.	.	.	.	.	.	.	.	.	.	.	.	.	.	.	.	.	.
8r	.	8B\J	.	16d\	.	16f# 16B/	.	.	.	.	8r	.	.	.	.	.	.	.	.	8B/J	.	.	.	.	.	.	8b/J	.	.	.	.	.	.	.	.
.	.	.	.	16d\JJ	.	16f#JJ 16B/	.	.	.	.	.	.	.	.	.	.	.	.	.	.	.	.	.	.	.	.	.	.	.	.	.	.	.	.	.
*	*	*	*	*Xtremolo	*	*Xtremolo	*	*	*	*	*Xrep	*	*	*	*	*	*	*	*	*	*	*	*	*	*	*	*	*	*	*	*	*	*	*	*
*	*	*	*	*Xrep	*	*Xrep	*	*	*	*	*	*	*	*	*	*	*	*	*	*	*	*	*	*	*	*	*	*	*	*	*	*	*	*	*
=27	=27	=27	=27	=27	=27	=27	=27	=27	=27	=27	=27	=27	=27	=27	=27	=27	=27	=27	=27	=27	=27	=27	=27	=27	=27	=27	=27	=27	=27	=27	=27	=27	=27	=27	=27
*	*	*	*	*	*	*	*	*	*	*	*rep	*	*	*	*	*	*	*	*	*Xtuplet	*	*	*	*	*	*	*	*	*	*	*	*	*	*	*
!	!	!LO:TUP:b	!	!	!	!	!	!	!	!	!	!	!	!	!	!	!	!	!	!	!	!	!	!	!	!	!	!	!	!	!	!	!	!	!
8FF#/	.	(24c#/LL	.	16r	.	16r	.	4.r	.	4.r	8Ree\	.	4.r	4.r	.	4.r	.	4.r	.	(24c#/LL	4.r	.	4.r	.	4.r	.	(24cc#/LL	4.re	.	4.r	.	4.r	.	4.r	.
.	.	24A#X/)	.	.	.	.	.	.	.	.	.	.	.	.	.	.	.	.	.	24A#X/)	.	.	.	.	.	.	24a#X/)	.	.	.	.	.	.	.	.
.	.	.	.	16c#\	.	16f# 16A#X/	.	.	.	.	.	.	.	.	.	.	.	.	.	.	.	.	.	.	.	.	.	.	.	.	.	.	.	.	.
.	.	24F#'/JJ	.	.	.	.	.	.	.	.	.	.	.	.	.	.	.	.	.	24F#'/JJ	.	.	.	.	.	.	24f#'/JJ	.	.	.	.	.	.	.	.
*	*	*	*	*tremolo	*	*tremolo	*	*	*	*	*	*	*	*	*	*	*	*	*	*	*	*	*	*	*	*	*	*	*	*	*	*	*	*	*
8r	.	4f#\	.	16c#\LL	.	16f#LL 16A#/	.	.	.	.	8r	.	.	.	.	.	.	.	.	4f#/	.	.	.	.	.	.	4ff#/	.	.	.	.	.	.	.	.
.	.	.	.	16c#\	.	16f# 16A#/	.	.	.	.	.	.	.	.	.	.	.	.	.	.	.	.	.	.	.	.	.	.	.	.	.	.	.	.	.
8r	.	.	.	16c#\	.	16f# 16A#/	.	.	.	.	8r	.	.	.	.	.	.	.	.	.	.	.	.	.	.	.	.	.	.	.	.	.	.	.	.
.	.	.	.	16c#\JJ	.	16f#JJ 16A#/	.	.	.	.	.	.	.	.	.	.	.	.	.	.	.	.	.	.	.	.	.	.	.	.	.	.	.	.	.
*	*	*	*	*Xtremolo	*	*Xtremolo	*	*	*	*	*Xrep	*	*	*	*	*	*	*	*	*	*	*	*	*	*	*	*	*	*	*	*	*	*	*	*
*	*	*	*	*	*	*	*	*	*	*	*	*	*	*	*	*	*	*	*	*v	*v	*	*	*	*	*	*v	*v	*	*	*	*	*	*	*
=28	=28	=28	=28	=28	=28	=28	=28	=28	=28	=28	=28	=28	=28	=28	=28	=28	=28	=28	=28	=28	=28	=28	=28	=28	=28	=28	=28	=28	=28	=28	=28	=28	=28
*	*	*	*	*	*	*	*	*	*	*	*	*	*	*	*	*	*	*	*	*	*	*	*	*	*	*	*	*^	*	*	*	*	*
*	*	*	*	*rep	*	*rep	*	*Xtuplet	*	*	*	*	*	*	*	*	*	*	*	*	*	*	*	*	*	*	*	*	*	*	*	*	*	*
!	!	!	!	!	!	!	!	!	!	!	!	!	!	!	!	!	!	!	!	!	!	!	!	!	!	!	!	!	!	!	!	!	!LO:TUP:a	!
8F#\	.	8F#/	.	16r	.	16r	.	(24cc#/LL	.	4.r	4.r	.	4.r	8F#\	.	8c# 8A#X\	.	4.r	.	4.r	.	4.r	.	8f# 8F#/	.	4.r	.	(24cc#/LL	4.r	.	4.r	.	(24ccc#\LL	.
.	.	.	.	.	.	.	.	24a#X/)	.	.	.	.	.	.	.	.	.	.	.	.	.	.	.	.	.	.	.	24a#X/)	.	.	.	.	24aa#X\)	.
.	.	.	.	16c#\	.	16f# 16A#X/	.	.	.	.	.	.	.	.	.	.	.	.	.	.	.	.	.	.	.	.	.	.	.	.	.	.	.	.
.	.	.	.	.	.	.	.	24f#'/JJ	.	.	.	.	.	.	.	.	.	.	.	.	.	.	.	.	.	.	.	24f#'/JJ	.	.	.	.	24ff#'\JJ	.
.	.	.	.	.	.	.	.	(8qee#X/	.	.	.	.	.	.	.	.	.	.	.	.	.	.	.	.	.	.	.	(8qee#X/	.	.	.	.	(8qeee#X/	.
*	*	*	*	*tremolo	*	*tremolo	*	*	*	*	*	*	*	*	*	*	*	*	*	*	*	*	*	*	*	*	*	*	*	*	*	*	*	*
8r	.	8r	.	16c#\LL	.	16f#LL 16A#/	.	4ff#\)	.	.	.	.	.	4F#\	.	4c# 4A#\	.	.	.	.	.	.	.	4f# 4F#/	.	.	.	4ff#/)	.	.	.	.	4fff#\)	.
.	.	.	.	16c#\	.	16f# 16A#/	.	.	.	.	.	.	.	.	.	.	.	.	.	.	.	.	.	.	.	.	.	.	.	.	.	.	.	.
8r	.	8r	.	16c#\	.	16f# 16A#/	.	.	.	.	.	.	.	.	.	.	.	.	.	.	.	.	.	.	.	.	.	.	.	.	.	.	.	.
.	.	.	.	16c#\JJ	.	16f#JJ 16A#/	.	.	.	.	.	.	.	.	.	.	.	.	.	.	.	.	.	.	.	.	.	.	.	.	.	.	.	.
*	*	*	*	*Xtremolo	*	*Xtremolo	*	*	*	*	*	*	*	*	*	*	*	*	*	*	*	*	*	*	*	*	*	*	*	*	*	*	*	*
*	*	*	*	*Xrep	*	*Xrep	*	*	*	*	*	*	*	*	*	*	*	*	*	*	*	*	*	*	*	*	*	*	*	*	*	*	*	*
*	*	*	*	*	*	*	*	*	*	*	*	*	*	*	*	*	*	*	*	*	*	*	*	*	*	*	*	*v	*v	*	*	*	*	*
!!LO:PB:g=original
=29	=29	=29	=29	=29	=29	=29	=29	=29	=29	=29	=29	=29	=29	=29	=29	=29	=29	=29	=29	=29	=29	=29	=29	=29	=29	=29	=29	=29	=29	=29	=29	=29	=29
*	*	*	*	*	*	*	*	*	*	*	*	*	*	*	*	*	*	*	*	*^	*	*	*	*	*	*^	*	*	*	*	*	*	*
8BB/	.	16.f#\LL	.	16r	.	16r	.	4.r	.	4.r	8Ree\	.	4.r	4.r	.	4.r	.	4.r	.	16.f#'/LL	4.r	.	4.r	.	4.r	.	16.ff#/LL	4.re	.	4.r	.	4.r	.	4.r	.
.	.	.	.	16d\	.	16f# 16B/	.	.	.	.	.	.	.	.	.	.	.	.	.	.	.	.	.	.	.	.	.	.	.	.	.	.	.	.	.
.	.	32f#\JJk	.	.	.	.	.	.	.	.	.	.	.	.	.	.	.	.	.	32f#'/JJk	.	.	.	.	.	.	32ff#/JJk	.	.	.	.	.	.	.	.
.	.	8qa/	.	.	.	.	.	.	.	.	.	.	.	.	.	.	.	.	.	(8qa/	.	.	.	.	.	.	8qaa/	.	.	.	.	.	.	.	.
*	*	*	*	*tremolo	*	*tremolo	*	*	*	*	*	*	*	*	*	*	*	*	*	*	*	*	*	*	*	*	*	*	*	*	*	*	*	*	*
8r	.	8g\L	.	16d\LL	.	16f#LL 16B/	.	.	.	.	8r	.	.	.	.	.	.	.	.	8g/L)	.	.	.	.	.	.	8gg/L	.	.	.	.	.	.	.	.
.	.	.	.	16d\	.	16f# 16B/	.	.	.	.	.	.	.	.	.	.	.	.	.	.	.	.	.	.	.	.	.	.	.	.	.	.	.	.	.
8r	.	8f#\J	.	16d\	.	16f# 16B/	.	.	.	.	8r	.	.	.	.	.	.	.	.	8f#'/J	.	.	.	.	.	.	8ff#/J	.	.	.	.	.	.	.	.
.	.	.	.	16d\JJ	.	16f#JJ 16B/	.	.	.	.	.	.	.	.	.	.	.	.	.	.	.	.	.	.	.	.	.	.	.	.	.	.	.	.	.
*	*	*	*	*Xtremolo	*	*Xtremolo	*	*	*	*	*	*	*	*	*	*	*	*	*	*	*	*	*	*	*	*	*	*	*	*	*	*	*	*	*
=30	=30	=30	=30	=30	=30	=30	=30	=30	=30	=30	=30	=30	=30	=30	=30	=30	=30	=30	=30	=30	=30	=30	=30	=30	=30	=30	=30	=30	=30	=30	=30	=30	=30	=30	=30
*	*	*	*	*rep	*	*rep	*	*	*	*	*	*	*	*	*	*	*	*	*	*	*	*	*	*	*	*	*Xtuplet	*	*	*	*	*	*	*	*
8BB/	.	24e#X'\LL	.	16r	.	16r	.	4.r	.	4.r	8Ree\	.	4.r	4.r	.	4.r	.	4.r	.	24e#X'/LL	4.r	.	4.r	.	4.r	.	24ee#X'/LL	4.re	.	4.r	.	4.r	.	4.r	.
.	.	(24g\	.	.	.	.	.	.	.	.	.	.	.	.	.	.	.	.	.	(24g/	.	.	.	.	.	.	(24gg/	.	.	.	.	.	.	.	.
.	.	.	.	16d\	.	16f# 16B/	.	.	.	.	.	.	.	.	.	.	.	.	.	.	.	.	.	.	.	.	.	.	.	.	.	.	.	.	.
.	.	24f#\JJ)	.	.	.	.	.	.	.	.	.	.	.	.	.	.	.	.	.	24f#/JJ)	.	.	.	.	.	.	24ff#/JJ)	.	.	.	.	.	.	.	.
*	*	*	*	*tremolo	*	*tremolo	*	*	*	*	*	*	*	*	*	*	*	*	*	*	*	*	*	*	*	*	*	*	*	*	*	*	*	*	*
8r	.	8B\L	.	16d\LL	.	16f#LL 16B/	.	.	.	.	8r	.	.	.	.	.	.	.	.	8B/L	.	.	.	.	.	.	8b/L	.	.	.	.	.	.	.	.
.	.	.	.	16d\	.	16f# 16B/	.	.	.	.	.	.	.	.	.	.	.	.	.	.	.	.	.	.	.	.	.	.	.	.	.	.	.	.	.
8r	.	8d\J	.	16d\	.	16f# 16B/	.	.	.	.	8r	.	.	.	.	.	.	.	.	8d/J	.	.	.	.	.	.	8dd/J	.	.	.	.	.	.	.	.
.	.	.	.	16d\JJ	.	16f#JJ 16B/	.	.	f	.	.	.	.	.	.	.	.	.	.	.	.	.	.	.	.	.	.	.	.	.	.	.	.	.	.
*	*	*	*	*Xtremolo	*	*Xtremolo	*	*	*	*	*	*	*	*	*	*	*	*	*	*	*	*	*	*	*	*	*	*	*	*	*	*	*	*	*
*	*	*	*	*Xrep	*	*Xrep	*	*	*	*	*	*	*	*	*	*	*	*	*	*	*	*	*	*	*	*	*	*	*	*	*	*	*	*	*
*	*	*	*	*	*	*	*	*	*	*	*	*	*	*	*	*	*	*	*	*v	*v	*	*	*	*	*	*	*	*	*	*	*	*	*	*
=31	=31	=31	=31	=31	=31	=31	=31	=31	=31	=31	=31	=31	=31	=31	=31	=31	=31	=31	=31	=31	=31	=31	=31	=31	=31	=31	=31	=31	=31	=31	=31	=31	=31	=31
*	*	*	*	*	*	*	*	*	*	*	*	*	*	*	*	*	*	*	*	*	*	*^	*	*	*	*	*	*	*	*	*	*	*	*
*	*	*clefF4	*	*	*	*	*	*	*	*	*tremolo	*	*	*	*	*	*	*	*	*clefF4	*	*	*	*	*	*	*	*	*	*	*	*	*	*	*
!	!LO:DY:rj	!	!	!	!	!	!LO:DY:rj	!	!	!	!	!	!	!	!	!	!	!	!LO:DY:rj	!	!	!	!	!LO:DY:rj	!	!	!	!	!LO:DY:rj	!	!LO:DY:rj	!	!LO:DY:rj:a	!	!
16AA/	f	16AA/yy	fy	16r	.	16r	f	(32a\LLL	.	8Ra/	8Ree\L	.	8r	8r	.	8r	.	4.cc# 4.e/	f	4.A 4.AA\	.	4.ee/	4.cc#X\	f	4.g 4.A\	.	4.cc#/	4.a\	f	4.gg 4.ee\	f	(32a\LLL	f	(32aa\LLL	.
.	.	.	.	.	.	.	.	32cc#\	.	.	.	.	.	.	.	.	.	.	.	.	.	.	.	.	.	.	.	.	.	.	.	32cc#\	.	32ccc#\	.
16r	.	16ryy	.	16e 16c#\	.	16g 16A/	.	32ee\	.	.	.	.	.	.	f	.	f	.	.	.	.	.	.	.	.	.	.	.	.	.	.	32ee\	.	32eee\	.
.	.	.	.	.	.	.	.	32gg\JJ	.	.	.	.	.	.	.	.	.	.	.	.	.	.	.	.	.	.	.	.	.	.	.	32gg\JJJ	.	32ggg\JJJ	.
*	*	*	*	*rep	*	*rep	*	*	*	*	*	*	*	*	*	*	*	*	*	*	*	*	*	*	*	*	*	*	*	*	*	*	*	*	*
4r	.	4ryy	.	16r	.	16r	.	8aa\)	.	8r	8Ree\	.	8AA/L	8AA/L	.	8c#L 8E/	.	.	.	.	.	.	.	.	.	.	.	.	.	.	.	8aa\L)	.	8aaa\L)	.
.	.	.	.	16e 16c#\	.	16g 16A/	.	.	.	.	.	.	.	.	.	.	.	.	.	.	.	.	.	.	.	.	.	.	.	.	.	.	.	.	.
*	*	*	*	*Xrep	*	*Xrep	*	*	*	*	*	*	*	*	*	*	*	*	*	*	*	*	*	*	*	*	*	*	*	*	*	*	*	*	*
*	*	*	*	*rep	*	*rep	*	*	*	*	*	*	*	*	*	*	*	*	*	*	*	*	*	*	*	*	*	*	*	*	*	*	*	*	*
.	.	.	.	16r	.	16r	.	8ccc#'\J	.	8r	8Ree\J	.	8AA/J	8AA/J	.	8c#J 8E/	.	.	.	.	.	.	.	.	.	.	.	.	.	.	.	8ccc#\J	.	8ccc#\J	.
.	.	.	.	16e 16c#\	.	16g 16A/	.	.	.	.	.	.	.	.	.	.	.	.	.	.	.	.	.	.	.	.	.	.	.	.	.	.	.	.	.
*	*	*	*	*Xrep	*	*Xrep	*	*	*	*	*	*	*	*	*	*	*	*	*	*	*	*	*	*	*	*	*	*	*	*	*	*	*	*	*
=32	=32	=32	=32	=32	=32	=32	=32	=32	=32	=32	=32	=32	=32	=32	=32	=32	=32	=32	=32	=32	=32	=32	=32	=32	=32	=32	=32	=32	=32	=32	=32	=32	=32	=32	=32
.	.	.	.	.	.	.	.	(>8qeee/	.	.	.	.	.	.	.	.	.	.	.	.	.	.	.	.	.	.	(>8qee/	.	.	.	.	8qeee/	.	(>8qeee/	.
16D/	.	16D/yy	.	16r	.	16r	.	16ddd\LL	.	8Ra/	32Ree\LLL	.	8D/	8D/	.	8d 8F#/	.	8dd 8f#/	.	8A 8D\	.	8dd/	8dd\	.	8f# 8A\	.	16dd/LL	8f#\	.	8ff#L 8dd\	.	16ddd\LL	.	16ddd\LL	.
.	.	.	.	.	.	.	.	.	.	.	32Ree\	.	.	.	.	.	.	.	.	.	.	.	.	.	.	.	.	.	.	.	.	.	.	.	.
16r	.	16ryy	.	16d\KL	.	16f#KL 16A/	.	32ccc#\L	.	.	32Ree\	.	.	.	.	.	.	.	.	.	.	.	.	.	.	.	32cc#/L	.	.	.	.	32ccc#\L	.	32ccc#\L	.
.	.	.	.	.	.	.	.	32ddd\JJJ)	.	.	32Ree\JJ	.	.	.	.	.	.	.	.	.	.	.	.	.	.	.	32dd/JJJ	.	.	.	.	32ddd\JJJ	.	32ddd\JJJ)	.
*	*	*	*	*	*	*	*	*	*	*	*Xtremolo	*	*	*	*	*	*	*	*	*	*	*	*	*	*	*	*	*	*	*	*	*	*	*	*
8D/	.	8D/yy	.	8d\J	.	8f#J 8A/	.	8dd\	.	8Ra/	8Ree\J	.	8D/	8D/	.	8d 8F#/	.	8dd 8f#/	.	8A 8D\	.	8dd/	8dd\	.	8f# 8A\	.	8d/)	8f#\	.	8ff#J 8dd\	.	8dd\	.	8dd\	.
8r	.	8ryy	.	8r	.	8r	.	(32dd\LLL	.	8r	8r	.	8r	8r	.	8r	.	8r	.	8r	.	8r	8ryy	.	8r	.	(32d/LLL	8ryy	.	(<32dd/LLL	.	(32dd\LLL	.	8r	.
.	.	.	.	.	.	.	.	32ee\	.	.	.	.	.	.	.	.	.	.	.	.	.	.	.	.	.	.	32e/	.	.	32ee/	.	32ee\	.	.	.
.	.	.	.	.	.	.	.	32ff#\	.	.	.	.	.	.	.	.	.	.	.	.	.	.	.	.	.	.	32f#/	.	.	32ff#/	.	32ff#\	.	.	.
.	.	.	.	.	.	.	.	32gg\JJJ	.	.	.	.	.	.	.	.	.	.	.	.	.	.	.	.	.	.	32g/JJJ	.	.	32gg/JJJ	.	32gg\JJJ	.	.	.
*	*	*	*	*	*	*	*	*	*	*	*	*	*	*	*	*	*	*	*	*	*	*v	*v	*	*	*	*v	*v	*	*	*	*	*	*	*
=33	=33	=33	=33	=33	=33	=33	=33	=33	=33	=33	=33	=33	=33	=33	=33	=33	=33	=33	=33	=33	=33	=33	=33	=33	=33	=33	=33	=33	=33	=33	=33	=33	=33
!	!	!	!	!	!	!	!	!	!	!	!	!	!	!	!	!	!	!LO:DY:rj	!	!	!	!	!	!	!	!	!	!	!	!LO:TX:a:t=P:problem:brak zakończenia łuku	!	!	!
16.AA\LLyy	ffy	16.AA\LLyy	ffy	16.A/LLyy	.	16.eeLLyy 16.a\yy	.	16.aaLLyy 16.cc#yy 16.e\)yy	.	8Ra/yy	8ryy	.	16.AA/LLyy	16.AA/LLyy	.	16.eLLyy 16.c#\yy	ffyy	16.aLLyy 16.c#/yy	ffy	16.ALLyy 16.AA\yy	.	16.eeLLyy 16.cc#X\yy	.	16.eLLyy 16.A/yy	ffy	16.a/LL)yy	.	16.aaLLyy 16.cc#\)yy	ffy	16.aa\LL)	.	16.ccc#\LLyy	ffy
32A\JJkyy	.	32A\JJkyy	.	32eJJkyy 32A/yy	.	32eeJJkyy 32a\yy	.	32aaJJkyy 32cc#\yy	.	.	.	.	32AA/JJkyy	32AA/JJkyy	.	32eJJkyy 32c#\yy	.	32aJJkyy 32c#/yy	.	32AJJkyy 32AA\yy	.	32eeJJkyy 32cc#\yy	.	32eJJkyy 32A/yy	.	32a/JJkyy	.	32aaJJkyy 32cc#\yy	.	32aa\JJk	.	32ccc#\JJkyy	.
8A\Lyy	.	8A\Lyy	.	8eLyy 8A/yy	.	8eeLyy 8a\yy	.	8aaLyy 8cc#\yy	.	8ryy	8Ree\Lyy	.	8AA/Lyy	8AA/Lyy	.	8eLyy 8c#\yy	.	8aLyy 8c#/yy	.	8ALyy 8AA\yy	.	8eeLyy 8cc#\yy	.	8eLyy 8A/yy	.	8a/Lyy	.	8aaLyy 8cc#\yy	.	8aa\L	.	8ccc#\Lyy	.
8A\Jyy	.	8A\Jyy	.	8eJyy 8A/yy	.	8cc#\Jyy	.	8eeJyy 8a\yy	.	8ryy	8Ree\Jyy	.	8AA/Jyy	8AA/Jyy	.	8eJyy 8c#\yy	.	8eJyy 8c#/yy	.	8AJyy 8AA\yy	.	8eeJyy 8cc#\yy	.	8eJyy 8A/yy	.	8e/Jyy	.	8eeJyy 8cc#\yy	.	8ee\J	.	8ccc#\Jyy	.
=34	=34	=34	=34	=34	=34	=34	=34	=34	=34	=34	=34	=34	=34	=34	=34	=34	=34	=34	=34	=34	=34	=34	=34	=34	=34	=34	=34	=34	=34	=34	=34	=34	=34
*	*	*	*	*	*	*	*	*	*	*	*	*	*	*	*	*	*	*	*	*	*	*^	*	*	*	*	*	*	*	*	*	*	*
8D\Lyy	.	8D\Lyy	.	8f#Lyy 8A/yy	.	16dd'\LLyy	.	16ff#LLyy 16a'\yy	.	8Ra/yy	8Ree\yy	.	8D/yy	8D/yy	.	8f#yy 8d\yy	.	8f#Lyy 8d/yy	.	8ALyy 8D\yy	.	8dd/Lyy	8dd\Lyy	.	8f#Lyy 8A/yy	.	16f#'/LLyy	.	16ff#LLyy 16dd'\yy	.	16ff#'\LL	.	16ddd'\LLyy	.
.	.	.	.	.	.	(y64aa\LLyy	.	(y64aa\LLyy	.	.	.	.	.	.	.	.	.	.	.	.	.	.	.	.	.	.	(y64a/LLyy	.	(y64aa\LLyy	.	(64aa\LL	.	(y64aa\LLyy	.
.	.	.	.	.	.	64gg\yy	.	64gg\yy	.	.	.	.	.	.	.	.	.	.	.	.	.	.	.	.	.	.	64g/yy	.	64gg\yy	.	64gg\	.	64gg\yy	.
.	.	.	.	.	.	64ff#\yy	.	64ff#\yy	.	.	.	.	.	.	.	.	.	.	.	.	.	.	.	.	.	.	64f#/yy	.	64ff#\yy	.	64ff#\	.	64ff#\yy	.
.	.	.	.	.	.	64ee\JJJJyy	.	64ee\JJJJyy	.	.	.	.	.	.	.	.	.	.	.	.	.	.	.	.	.	.	64e/JJJJyy	.	64ee\JJJJyy	.	64ee\JJJJ	.	64ee\JJJJyy	.
8D\yy	.	8D\yy	.	8f#yy 8A/yy	.	8dd\)yy	.	8dd\L)yy	.	8ryy	8ryy	.	8ryy	8ryy	.	8ryy	.	8ayy 8f#/yy	.	8Ayy 8D\yy	.	8dd/yy	8dd\yy	.	8f#yy 8A/yy	.	8d/L)yy	.	8dd\L)yy	.	8dd\L)	.	8dd\L)yy	.
8D\Jyy	.	8D\Jyy	.	8f#Jyy 8A/yy	.	8ff#yy 8ayy 8d\yy	.	8dddJyy 8dd\yy	.	8ryy	8ryy	.	8ryy	8ryy	.	8ryy	.	8f#Jyy 8d/yy	.	8AJyy 8D\yy	.	8dd/Jyy	8dd\Jyy	.	8f#Jyy 8A/yy	.	8f#'/Jyy	.	8ff#Jyy 8dd\yy	.	8ddd\J	.	8ddd\Jyy	.
*	*	*	*	*	*	*	*	*	*	*	*	*	*	*	*	*	*	*	*	*	*	*v	*v	*	*	*	*	*	*	*	*	*	*	*
!!LO:PB:g=original
=35	=35	=35	=35	=35	=35	=35	=35	=35	=35	=35	=35	=35	=35	=35	=35	=35	=35	=35	=35	=35	=35	=35	=35	=35	=35	=35	=35	=35	=35	=35	=35	=35	=35
!LO:TX:t=P:problem:mixed beam	!	!LO:TX:t=P:problem:mixed beam	!	!	!	!	!	!	!	!	!	!	!	!	!	!	!	!	!	!	!	!	!	!	!	!	!	!	!	!	!	!	!
16.AA/LLyy	.	16.AA/LLyy	.	16.eLLyy 16.A/yy	.	16.eeLLyy 16.a\yy	.	16.aaLLyy 16.cc#\yy	.	8Ra/yy	8ryy	.	16.AA/LLyy	16.A\LLyy	.	16.eLLyy 16.c#\yy	.	16.aLLyy 16.c#/yy	.	16.ALLyy 16.AA\yy	.	16.eeLLyy 16.cc#X\yy	.	16.eLLyy 16.A/yy	.	16.a/LLyy	.	16.aaLLyy 16.cc#\yy	.	16.aa\LL	.	16.ccc#\LLyy	.
32A\JJkyy	.	32A\JJkyy	.	32eJJkyy 32A/yy	.	32eeJJkyy 32a\yy	.	32aaJJkyy 32cc#\yy	.	.	.	.	32AA/JJkyy	32A\JJkyy	.	32eJJkyy 32c#\yy	.	32aJJkyy 32c#/yy	.	32AJJkyy 32AA\yy	.	32eeJJkyy 32cc#\yy	.	32eJKyy 32A/yy	.	32a/JJkyy	.	32aaJJkyy 32cc#\yy	.	32aa\JJk	.	32ccc#\JJkyy	.
*	*	*	*	*	*	*	*	*	*	*	*tremolo	*	*	*	*	*	*	*	*	*	*	*	*	*	*	*	*	*	*	*	*	*	*
8A\Lyy	.	8A\Lyy	.	8eLyy 8A/yy	.	8eeLyy 8a\yy	.	8aaLyy 8cc#\yy	.	8ryy	32Ree\LLLyy	.	8AA/Lyy	8A\Lyy	.	8eLyy 8c#\yy	.	8aLyy 8c#/yy	.	8ALyy 8AA\yy	.	8eeLyy 8cc#\yy	.	8eyy 8A/yy	.	8a/Lyy	.	8aaLyy 8cc#\yy	.	8aa\L	.	8ccc#\Lyy	.
.	.	.	.	.	.	.	.	.	.	.	32Ree\yy	.	.	.	.	.	.	.	.	.	.	.	.	.	.	.	.	.	.	.	.	.	.
.	.	.	.	.	.	.	.	.	.	.	32Ree\yy	.	.	.	.	.	.	.	.	.	.	.	.	.	.	.	.	.	.	.	.	.	.
.	.	.	.	.	.	.	.	.	.	.	32Ree\JJyy	.	.	.	.	.	.	.	.	.	.	.	.	.	.	.	.	.	.	.	.	.	.
*	*	*	*	*	*	*	*	*	*	*	*Xtremolo	*	*	*	*	*	*	*	*	*	*	*	*	*	*	*	*	*	*	*	*	*	*
8A\Jyy	.	8A\Jyy	.	8eJyy 8A/yy	.	8cc#\Jyy	.	8eeJyy 8a\yy	.	8ryy	8Ree\Jyy	.	8AA/Jyy	8A\Jyy	.	8eJyy 8c#\yy	.	8eJyy 8c#/yy	.	8AJyy 8AA\yy	.	8eeJyy 8cc#\yy	.	8eJyy 8A/yy	.	8e/Jyy	.	8eeJyy 8cc#\yy	.	8ee\J	.	8ccc#\Jyy	.
=36	=36	=36	=36	=36	=36	=36	=36	=36	=36	=36	=36	=36	=36	=36	=36	=36	=36	=36	=36	=36	=36	=36	=36	=36	=36	=36	=36	=36	=36	=36	=36	=36	=36
*	*	*	*	*	*	*	*	*	*	*	*	*	*	*	*	*	*	*	*	*^	*	*	*	*	*	*	*	*^	*	*	*	*	*
16D\yy	.	16D\yy	.	16f#yy 16A/yy	.	16dd\LLyy	.	16ff#LLyy 16a\yy	.	8Ra/yy	8Ree\yy	.	8D/yy	16D\yy	.	16f#yy 16d\yy	.	16f#yy 16d/yy	.	16Ayy 16D\yy	8ryy	.	16dd\yy	.	16f#yy 16A/yy	.	16f#/yy	.	16ff#yy 16dd\yy	8ryy	.	16ff#'\LL	.	16ddd'\LLyy	.
16ryy	.	16ryy	.	16ryy	.	32cc#\Lyy	.	32cc#\Lyy	.	.	.	.	.	16ryy	.	16ryy	.	16ryy	.	16ryy	.	.	16ryy	.	16ryy	.	16ryy	.	16ryy	.	.	(32cc#\L	.	(y32ccc#\Lyy	.
.	.	.	.	.	.	32dd\JJJyy	.	32dd\JJJyy	.	.	.	.	.	.	.	.	.	.	.	.	.	.	.	.	.	.	.	.	.	.	.	32dd\JJJ)	.	32ddd\JJJ)yy	.
!	!	!	!	!LO:TX:t=P:problem:diminuendolike accent	!	!	!	!	!	!	!	!	!	!	!	!	!	!	!	!	!	!	!	!	!	!	!	!	!	!	!	!	!	!	!
8D\Lyy	.	8D\Lyy	.	8e#XLyy 8G#X^/yy	.	(y8bT/Lyy	.	(y8bT/Lyy	.	8ryy	8ryy	.	8ryy	8ryy	.	8ryy	.	8ryy	.	8B/Lyy	4D\yy	.	8dd\Lyy	.	(y8e#XLyy 8B/yy	.	(y8g#XLyy 8e#X/yy	.	8ee#X/Lyy	4dd^\yy	.	8bT/L	.	(y8bb^T\Lyy	.
8D\Jyy	.	8D\Jyy	.	8f#Jyy 8A/yy	.	8a/J)yy	.	8a/J)yy	.	8ryy	8ryy	.	8ryy	8ryy	.	8ryy	.	8ryy	.	8A/Jyy	.	.	[y8dd\Jyy	.	8f#Jyy 8A/)yy	.	8aJyy 8f#/)yy	.	8ff#/Jyy	.	.	8a/J	.	8aa\J)yy	.
*	*	*	*	*	*	*	*	*	*	*	*	*	*	*	*	*	*	*	*	*v	*v	*	*	*	*	*	*	*	*	*	*	*	*	*	*
=37	=37	=37	=37	=37	=37	=37	=37	=37	=37	=37	=37	=37	=37	=37	=37	=37	=37	=37	=37	=37	=37	=37	=37	=37	=37	=37	=37	=37	=37	=37	=37	=37	=37	=37
*	*	*	*	*	*	*	*	*	*	*	*tremolo	*	*	*	*	*	*	*	*	*	*	*	*	*	*	*	*	*	*	*	*	*	*	*
16.GG\LLyy	.	16.GG\LLyy	.	16.d\LLyy	.	16.ggLLyy 16.byy 16.d\yy	.	16.bbLLyy 16.byy 16.d\yy	.	8Ra/Lyy	32Ree\LLLyy	.	16.D\LLyy	16.G\LLyy	.	16.gLLyy 16.B\yy	.	16.ddLLyy 16.g/yy	.	16.GLLyy 16.GG/yy	.	16.dd\LL]yy	.	16.gLLyy 16.B\yy	.	16.bLLyy 16.g/yy	.	16.bbLLyy 16.dd\yy	4ryy	.	16.bb\LL	.	16.ggg\LLyy	.
.	.	.	.	.	.	.	.	.	.	.	32Ree\yy	.	.	.	.	.	.	.	.	.	.	.	.	.	.	.	.	.	.	.	.	.	.	.
.	.	.	.	.	.	.	.	.	.	.	32Ree\yy	.	.	.	.	.	.	.	.	.	.	.	.	.	.	.	.	.	.	.	.	.	.	.
32G\JJkyy	.	32G\JJkyy	.	32ddJJkyy 32d\yy	.	32ggJJkyy 32b\yy	.	32bbJJkyy 32b\yy	.	.	32Ree\JJyy	.	32D\JKyy	32G\JKyy	.	32gJKyy 32B\yy	.	32ddJKyy 32g/yy	.	32GJKyy 32GG/yy	.	32dd\JKyy	.	32gJKyy 32B\yy	.	32bJKyy 32g/yy	.	32bbJKyy 32dd\yy	.	.	32bb\JK	.	32ggg\JKyy	.
*	*	*	*	*	*	*	*	*	*	*	*Xtremolo	*	*	*	*	*	*	*	*	*	*	*	*	*	*	*	*	*	*	*	*	*	*	*
8G\Lyy	.	8G\Lyy	.	8ddLyy 8d\yy	.	8ggLyy 8b\yy	.	8bbyy 8b\yy	.	8Ra/Jyy	8Ree\Jyy	.	8D\Jyy	8G\Jyy	.	8gJyy 8B\yy	.	8ddJyy 8g/yy	.	8GJyy 8GG/yy	.	8dd\Jyy	.	8gJyy 8B\yy	.	8bJyy 8g/yy	.	8bbJyy 8dd\yy	.	.	8bb\J	.	8ggg\Jyy	.
*	*	*	*	*	*	*	*	*	*	*	*	*	*	*	*	*	*	*	*	*	*	*	*	*	*	*	*	*	*	*	*Xtuplet	*	*	*
!	!	!	!	!	!	!	!	!LO:TUP:a:problem:klamra łukowa	!	!	!	!	!	!	!	!	!	!	!	!	!	!	!	!	!	!LO:TUP:b:problem:klamra łukowa, łuczek zamiast numeru	!	!	!	!	!	!	!	!
8G\Jyy	.	8G\Jyy	.	8ddJyy 8d\yy	.	8ggJyy 8b\yy	.	24gg\LLyy	.	8ryy	8ryy	.	8ryy	8ryy	.	8ryy	.	8ryy	.	8ryy	.	8ryy	.	8ryy	.	24g/LLyy	.	24gg/LLyy	8ryy	.	24gg\LL	.	8ryy	.
.	.	.	.	.	.	.	.	24aa\yy	.	.	.	.	.	.	.	.	.	.	.	.	.	.	.	.	.	24a/yy	.	24aa/yy	.	.	24aa\	.	.	.
.	.	.	.	.	.	.	.	24bb\JJyy	.	.	.	.	.	.	.	.	.	.	.	.	.	.	.	.	.	24b/JJyy	.	24bb/JJyy	.	.	24bb\JJ	.	.	.
*	*	*	*	*	*	*	*	*	*	*	*	*	*	*	*	*	*	*	*	*	*	*	*	*	*	*	*	*v	*v	*	*	*	*	*
=38	=38	=38	=38	=38	=38	=38	=38	=38	=38	=38	=38	=38	=38	=38	=38	=38	=38	=38	=38	=38	=38	=38	=38	=38	=38	=38	=38	=38	=38	=38	=38	=38	=38
*	*	*	*	*	*	*	*	*	*	*	*tremolo	*	*	*	*	*	*	*	*	*	*	*	*	*	*	*	*	*	*	*	*	*	*
16.F#\LLyy	.	16.F#\LLyy	.	16.ddLLyy 16.d\yy	.	16.aaLLyy 16.a\yy	.	16.aaLLyy 16.ddyy 16.d\yy	.	8Ra/Lyy	32Ree\LLLyy	.	16.D\LLyy	16.F#\LLyy	.	16.dLLyy 16.A\yy	.	16.ddLLyy 16.a/yy	.	16.F#LLyy 16.FF#/yy	.	16.dd\LLyy	.	16.f#LLyy 16.A/yy	.	16.a/LLyy	.	16.aaLLyy 16.dd\yy	.	16.aa\LL	.	16.ddd\LLyy	.
.	.	.	.	.	.	.	.	.	.	.	32Ree\yy	.	.	.	.	.	.	.	.	.	.	.	.	.	.	.	.	.	.	.	.	.	.
.	.	.	.	.	.	.	.	.	.	.	32Ree\yy	.	.	.	.	.	.	.	.	.	.	.	.	.	.	.	.	.	.	.	.	.	.
32F#\JJkyy	.	32F#\JJkyy	.	32ddJJkyy 32d\yy	.	32aaJJkyy 32a\yy	.	32aaJJkyy 32dd\yy	.	.	32Ree\JJyy	.	32D\JKyy	32F#\JKyy	.	32dJKyy 32A\yy	.	32ddJKyy 32a/yy	.	32F#JKyy 32FF#/yy	.	32dd\JKyy	.	32f#JKyy 32A/yy	.	32a/JKyy	.	32aaJKyy 32dd\yy	.	32aa\JK	.	32ddd\JKyy	.
*	*	*	*	*	*	*	*	*	*	*	*Xtremolo	*	*	*	*	*	*	*	*	*	*	*	*	*	*	*	*	*	*	*	*	*	*
8F#\Lyy	.	8F#\Lyy	.	8ddLyy 8d\yy	.	8aayy 8a\yy	.	8aayy 8dd\yy	.	8Ra/Jyy	8Ree\Jyy	.	8D\Jyy	8F#\Jyy	.	8dJyy 8A\yy	.	8ddJyy 8a/yy	.	8F#Jyy 8FF#/yy	.	8dd\Jyy	.	8f#Jyy 8A/yy	.	8a/Jyy	.	8aaJyy 8dd\yy	.	8aa\J	.	8ddd\Jyy	.
!	!	!	!	!	!	!LO:TUP:a:problem:klamra łukowa, łuczek zamiast numeru	!	!LO:TUP:a:problem:klamra łukowa, łuczek zamiast numeru	!	!	!	!	!	!	!	!	!	!	!	!	!	!	!	!	!	!LO:TUP:b:problem:klamra łukowa, łuczek zamiast numeru	!	!	!	!	!	!	!
8F#\Jyy	.	8F#\Jyy	.	8ddJyy 8d\yy	.	24ff#\LLyy	.	24ff#\LLyy	.	8ryy	8ryy	.	8ryy	8ryy	.	8ryy	.	8ryy	.	8ryy	.	8ryy	.	8ryy	.	24f#/LLyy	.	24ff#/LLyy	.	24ff#\LL	.	8ryy	.
.	.	.	.	.	.	24gg\yy	.	24gg\yy	.	.	.	.	.	.	.	.	.	.	.	.	.	.	.	.	.	24g/yy	.	24gg/yy	.	24gg\	.	.	.
.	.	.	.	.	.	24aa\JJyy	.	24aa\JJyy	.	.	.	.	.	.	.	.	.	.	.	.	.	.	.	.	.	24a/JJyy	.	24aa/JJyy	.	24aa\JJ	.	.	.
=39	=39	=39	=39	=39	=39	=39	=39	=39	=39	=39	=39	=39	=39	=39	=39	=39	=39	=39	=39	=39	=39	=39	=39	=39	=39	=39	=39	=39	=39	=39	=39	=39	=39
*	*	*	*	*	*	*	*	*	*	*	*tremolo	*	*	*	*	*	*	*	*	*	*	*	*	*	*	*	*	*	*	*	*	*	*
16.E\LLyy	.	16.E\LLyy	.	16.bLLyy 16.e\yy	.	16.ee\LLyy	.	16.ggLLyy 16.b\yy	.	8Ra/yy	32Ree\LLLyy	.	8ryy	16.E\LLyy	.	16.eLLyy 16.G\yy	.	16.g/LLyy	.	16.ELLyy 16.EE/yy	.	16.eeLLyy 16.b\yy	.	16.eLLyy 16.B\yy	.	16.eeLLyy 16.g\yy	.	16.ggLLyy 16.b\yy	.	16.gg\LL|	.	16.eee\LLyy	.
.	.	.	.	.	.	.	.	.	.	.	32Ree\yy	.	.	.	.	.	.	.	.	.	.	.	.	.	.	.	.	.	.	.	.	.	.
.	.	.	.	.	.	.	.	.	.	.	32Ree\yy	.	.	.	.	.	.	.	.	.	.	.	.	.	.	.	.	.	.	.	.	.	.
32E\JJkyy	.	32E\JJkyy	.	32bJJkyy 32e\yy	.	32ee\JJkyy	.	32ggJJkyy 32b\yy	.	.	32Ree\JJyy	.	.	32E\JJkyy	.	32eJJkyy 32G\yy	.	32g/JJkyy	.	32EJJkyy 32EE/yy	.	32eeJJkyy 32b\yy	.	32eJJkyy 32B\yy	.	32eeJJkyy 32g\yy	.	32ggJJkyy 32b\yy	.	32gg\JJk|	.	32eee\JJkyy	.
*	*	*	*	*	*	*	*	*	*	*	*Xtremolo	*	*	*	*	*	*	*	*	*	*	*	*	*	*	*	*	*	*	*	*	*	*
!LO:TX:t=P:problem:mixed beam	!	!LO:TX:t=P:problem:mixed beam	!	!	!	!	!	!	!	!	!	!	!	!LO:TX:t=P:problem:mixed beam	!	!	!	!	!	!	!	!	!	!	!	!	!	!	!	!	!	!	!
8A\Lyy	.	8A\Lyy	.	8aLyy 8e\yy	.	8cc#/Lyy	.	8eeLyy 8a\yy	.	8ryy	8Ree\yy	.	8AA/Lyy	8A\Lyy	.	8c#Lyy 8E/yy	.	8e/Lyy	.	8ALyy 8AA/yy	.	8eeLyy 8cc#X\yy	.	8eLyy 8A\yy	.	8cc#Lyy 8a/yy	.	8eeLyy 8cc#\yy	.	8ee'\L	.	8ccc#\Lyy	.
.	.	.	.	.	.	.	.	.	.	.	.	.	.	.	.	.	.	.	.	.	.	.	.	.	.	.	.	(y8qgg#X/yy	.	(8qgg#X/	.	.	.
8AA/Jyy	.	8AA/Jyy	.	8aJyy 8e\yy	.	8cc#Jyy 8e/yy	.	8aaJyy 8a\yy	.	8ryy	8Ree\Jyy	.	8AA/Jyy	8AA/Jyy	.	8c#Jyy 8E/yy	.	8cc#Jyy 8e/yy	.	8AJyy 8AA/yy	.	8eeJyy 8cc#\yy	.	8eJyy 8A\yy	.	8aJyy 8e/yy	.	8aaJyy 8cc#\)yy	.	8aa\J)	.	8ccc#\Jyy	.
=40	=40	=40	=40	=40	=40	=40	=40	=40	=40	=40	=40	=40	=40	=40	=40	=40	=40	=40	=40	=40	=40	=40	=40	=40	=40	=40	=40	=40	=40	=40	=40	=40	=40
8D/Lyy	.	8D/Lyy	.	8aLyy 8d\yy	.	8ddLyy 8f#\yy	.	(y32ff#\LLLyy	.	8Ra/Lyy	8Ree\Lyy	.	8D/Lyy	8D\Lyy	.	8dLyy 8F#/yy	.	8ddLyy 8f#/yy	.	8ALyy 8D\yy	.	8dd\Lyy	.	8f#Lyy 8A\yy	.	(y32f#/LLLyy	.	8ff#Lyy 8dd\yy	.	(32ff#\LLL	.	32ddd\LLLyy	.
.	.	.	.	.	.	.	.	32dd\yy	.	.	.	.	.	.	.	.	.	.	.	.	.	.	.	.	.	32d/yy	.	.	.	32dd\	.	(y32dd\yy	.
.	.	.	.	.	.	.	.	32ff#\yy	.	.	.	.	.	.	.	.	.	.	.	.	.	.	.	.	.	32f#/yy	.	.	.	32ff#\	.	32ff#\yy	.
.	.	.	.	.	.	.	.	32aa\JJ)yy	.	.	.	.	.	.	.	.	.	.	.	.	.	.	.	.	.	32a/JJ)yy	.	.	.	32aa\JJ)	.	32aa\JJyy	.
8D/Jyy	.	8D/Jyy	.	8aJyy 8d\yy	.	8ddJyy 8f#\yy	.	8ddd\Jyy	.	8Ra/Jyy	8Ree\Jyy	.	8D/Jyy	8D\Jyy	.	8dJyy 8F#/yy	.	8ddJyy 8f#/yy	.	8AJyy 8D\yy	.	8dd\Jyy	.	8f#Jyy 8A\yy	.	8dd/Jyy	.	8dddJyy 8ff#\yy	.	8ddd'\J	.	8ddd\J)yy	.
8ryy	.	8ryy	.	8ryy	.	8ryy	.	8ryy	.	8ryy	8ryy	.	8ryy	8ryy	.	8ryy	.	8ryy	.	8ryy	.	8ryy	.	8ryy	.	8ryy	.	8ryy	.	8r	.	8ryy	.
!!LO:PB:g=original
*kcancel	*	*kcancel	*	*kcancel	*	*kcancel	*	*kcancel	*	*	*	*	*	*kcancel	*	*kcancel	*	*kcancel	*	*kcancel	*	*	*	*	*	*kcancel	*	*kcancel	*	*kcancel	*	*kcancel	*
=41:|!|:	=41:|!|:	=41:|!|:	=41:|!|:	=41:|!|:	=41:|!|:	=41:|!|:	=41:|!|:	=41:|!|:	=41:|!|:	=41:|!|:	=41:|!|:	=41:|!|:	=41:|!|:	=41:|!|:	=41:|!|:	=41:|!|:	=41:|!|:	=41:|!|:	=41:|!|:	=41:|!|:	=41:|!|:	=41:|!|:	=41:|!|:	=41:|!|:	=41:|!|:	=41:|!|:	=41:|!|:	=41:|!|:	=41:|!|:	=41:|!|:	=41:|!|:	=41:|!|:	=41:|!|:
*>D	*>D	*>D	*>D	*>D	*>D	*>D	*>D	*>D	*>D	*>D	*>D	*>D	*>D	*>D	*>D	*>D	*>D	*>D	*>D	*>D	*>D	*>D	*>D	*>D	*>D	*>D	*>D	*>D	*>D	*>D	*>D	*>D	*>D
*k[f#]	*	*k[f#]	*	*k[f#]	*	*k[f#]	*	*k[f#]	*	*	*	*	*	*k[f#]	*	*k[f#]	*	*k[f#]	*	*k[f#]	*	*	*	*	*	*k[f#]	*	*k[f#]	*	*k[f#]	*	*k[f#]	*
!	!	!	!	!	!	!	!	!	!	!	!	!	!	!	!	!	!	!	!	!	!	!	!	!	!	!	!	!	!	!	!	!LO:TX:a:t=Trio.	!
16.GG\LL	.	16.DLL 16.GG/	.	16.dLL 16.G\	.	16.B/LL	.	16.g/LL	.	4.r	4.r	.	4.r	8r	.	8r	.	4.r	.	4.r	.	8r	.	8r	.	4.r	.	4.r	.	4.r	.	4.r	.
32G\JJk	.	32DJJk 32GG/	.	32dJJk 32G\	.	32B/JJk	.	32g/JJk	.	.	.	.	.	.	.	.	.	.	.	.	.	.	.	.	.	.	.	.	.	.	.	.	.
!	!	!LO:N:vis=16	!	!	!	!	!	!	!	!	!	!	!	!	!	!	!	!	!	!	!	!	!	!LO:N:vis=1	!	!	!	!	!	!	!	!	!
8G\L	.	8DL 8GG/	.	8dL 8G\	.	8B/L	.	8g/L	.	.	.	.	.	8r	.	8r	.	.	.	.	.	8r	.	4r	.	.	.	.	.	.	.	.	.
!	!	!LO:N:vis=16	!	!	!	!	!	!	!	!	!	!	!	!	!	!	!	!	!	!	!	!	!	!	!	!	!	!	!	!	!	!	!
8G\J	.	8DJ 8GG^/	.	8dJ 8G\	.	8B/J	.	8d^/J	.	.	.	.	.	8G 8GG^\	.	8d 8B\	.	.	.	.	.	8dd 8g^/	.	.	.	.	.	.	.	.	.	.	.
=42	=42	=42	=42	=42	=42	=42	=42	=42	=42	=42	=42	=42	=42	=42	=42	=42	=42	=42	=42	=42	=42	=42	=42	=42	=42	=42	=42	=42	=42	=42	=42	=42	=42
*rep	*	*	*	*	*	*	*	*	*	*	*	*	*	*	*	*	*	*	*	*	*	*	*	*	*	*	*	*	*	*	*	*	*
16.GG\LL	.	16.ELL 16.GG/	.	16.c#XLL 16.G\	.	16.A#X/LL	.	16.g/LL	.	4.r	4.r	.	4.r	8r	.	8r	.	4.r	.	4.r	.	8r	.	4.r	.	4.r	.	4.r	.	4.r	.	4.r	.
32G\JJk	.	32EJJk 32GG/	.	32c#JJk 32G\	.	32A#/JJk	.	32g/JJk	.	.	.	.	.	.	.	.	.	.	.	.	.	.	.	.	.	.	.	.	.	.	.	.	.
8G\L	.	8EL 8GG/	.	8c#L 8G\	.	8A#/L	.	8g/L	.	.	.	.	.	8r	.	8r	.	.	.	.	.	8r	.	.	.	.	.	.	.	.	.	.	.
8G\J	.	8EJ 8GG^/	.	8c#J 8G\	.	8A#/J	.	8e^/J	.	.	.	.	.	8G 8GG\	.	8e 8A#X\	.	.	.	.	.	8cc#X 8g^/	.	.	.	.	.	.	.	.	.	.	.
*Xrep	*	*	*	*	*	*	*	*	*	*	*	*	*	*	*	*	*	*	*	*	*	*	*	*	*	*	*	*	*	*	*	*	*
=43	=43	=43	=43	=43	=43	=43	=43	=43	=43	=43	=43	=43	=43	=43	=43	=43	=43	=43	=43	=43	=43	=43	=43	=43	=43	=43	=43	=43	=43	=43	=43	=43	=43
*rep	*	*	*	*	*	*	*	*	*	*	*	*	*	*	*	*	*	*	*	*	*	*	*	*	*	*	*	*	*	*	*	*	*
16.GG\LL	.	16.DLL 16.GG/	.	16.dLL 16.G\	.	16.B/LL	.	16.g/LL	.	4.r	4.r	.	4.r	8r	.	8r	.	4.r	.	4.r	.	8r	.	4.r	.	4.r	.	4.r	.	4.r	.	4.r	.
32G\JJk	.	32DJJk 32GG/	.	32dJJk 32G\	.	32B/JJk	.	32g/JJk	.	.	.	.	.	.	.	.	.	.	.	.	.	.	.	.	.	.	.	.	.	.	.	.	.
8G\L	.	8DL 8GG/	.	8dL 8G\	.	8B/L	.	8g/L	.	.	.	.	.	8r	.	8r	.	.	.	.	.	8r	.	.	.	.	.	.	.	.	.	.	.
8G\J	.	8DJ 8GG^/	.	8dJ 8G\	.	8B/J	.	8d^/J	.	.	.	.	.	8G 8GG\	.	8d 8B\	.	.	.	.	.	8dd 8g/	.	.	.	.	.	.	.	.	.	.	.
*Xrep	*	*	*	*	*	*	*	*	*	*	*	*	*	*	*	*	*	*	*	*	*	*	*	*	*	*	*	*	*	*	*	*	*
=44	=44	=44	=44	=44	=44	=44	=44	=44	=44	=44	=44	=44	=44	=44	=44	=44	=44	=44	=44	=44	=44	=44	=44	=44	=44	=44	=44	=44	=44	=44	=44	=44	=44
8G\L	.	8G\Lyy	.	8dL 8G\	.	8B/L	.	8g/L	.	4.r	8Ree\L	.	4.r	4.r	.	4.r	.	8gL 8B/	.	8G/L	.	4.r	.	4.r	.	4.r	.	4.r	.	4.r	.	4.r	.
8D\	.	8D\yy	.	8f# 8A\	.	8d/	.	8a/	.	.	8Ree\	.	.	.	.	.	.	8a 8d/	.	8D/	.	.	.	.	.	.	.	.	.	.	.	.	.
8GG\J	.	8GG\Jyy	.	8gJ 8B\	.	8g/J	.	8b/J	.	.	8Ree\J	.	.	.	.	.	.	8bJ 8g/	.	8GG/J	.	.	.	.	.	.	.	.	.	.	.	.	.
=45	=45	=45	=45	=45	=45	=45	=45	=45	=45	=45	=45	=45	=45	=45	=45	=45	=45	=45	=45	=45	=45	=45	=45	=45	=45	=45	=45	=45	=45	=45	=45	=45	=45
*	*	*	*	*	*	*	*	*	*	*	*	*	*	*	*	*	*	*	*	*	*	*^	*	*	*	*	*	*	*	*	*	*	*
8AA/	.	8AA/yy	.	8r	.	16.f#/LL	.	16.a/LL	.	4.r	8Ree\	.	8AA/	8r	.	8r	.	16.aLL 16.f#/	.	8AA/	.	4.dd/	4.dd\	.	4.f# 4.A/	.	4.r	.	16.aaLL 16.ff#\	.	16.aa\LL	.	4.r	.
.	.	.	.	.	.	32g/JJk	.	32b/JJk	.	.	.	.	.	.	.	.	.	32bJJk 32g/	.	.	.	.	.	.	.	.	.	.	32bbJJk 32gg\	.	32bb\JJk	.	.	.
8r	.	8ryy	.	8d/L	.	8f#/L	.	8a/L	.	.	8r	.	8r	8AA/L	.	8f#L 8d\	.	8aL 8f#/	.	8r	.	.	.	.	.	.	.	.	8aaL 8ff#\	.	8aa\L	.	.	.
8r	.	8ryy	.	8A/J	.	8d/J	.	8f#/J	.	.	8r	.	8r	8AA/J	.	8f#J 8d\	.	8f#J 8d/	.	8r	.	.	.	.	.	.	.	.	8ff#J 8dd\	.	8ff#\J	.	.	.
=46	=46	=46	=46	=46	=46	=46	=46	=46	=46	=46	=46	=46	=46	=46	=46	=46	=46	=46	=46	=46	=46	=46	=46	=46	=46	=46	=46	=46	=46	=46	=46	=46	=46	=46
8AA/	.	8AA/yy	.	8r	.	16.e/LL	.	16.g/LL	.	4.r	8Ree\	.	8AA/	8r	.	8r	.	16.gLL 16.e/	.	8AA/	.	4.ee/	4.cc#X\	.	4.g 4.A/	.	4.r	.	16.ggLL 16.ee\	.	16.gg\LL	.	4.r	.
.	.	.	.	.	.	32f#/JJk	.	32a/JJk	.	.	.	.	.	.	.	.	.	32aJJk 32f#/	.	.	.	.	.	.	.	.	.	.	32aaJJk 32ff#\	.	32aa\JJk	.	.	.
8r	.	8ryy	.	8A/L	.	8e/L	.	8g/L	.	.	8r	.	8r	8AA/L	.	8eL 8c#X\	.	8gL 8e/	.	8r	.	.	.	.	.	.	.	.	8ggL 8ee\	.	8gg\L	.	.	.
8r	.	8ryy	.	8AJ 8G/	.	8c#X/J	.	8e/J	.	.	8r	.	8r	8AA/J	.	8gJ 8e\	.	8eJ 8c#X/	.	8r	.	.	.	.	.	.	.	.	8eeJ 8cc#X\	.	8ee\J	.	.	.
!!LO:PB:g=original
=47	=47	=47	=47	=47	=47	=47	=47	=47	=47	=47	=47	=47	=47	=47	=47	=47	=47	=47	=47	=47	=47	=47	=47	=47	=47	=47	=47	=47	=47	=47	=47	=47	=47	=47
*	*	*	*	*	*	*	*	*	*	*	*	*	*	*	*	*	*	*^	*	*	*	*	*	*	*	*	*	*	*^	*	*	*	*	*
!	!	!	!	!	!	!LO:TX:a:t=Uniſ	!	!	!	!	!	!	!	!	!	!	!	!	!	!	!	!	!	!	!	!	!	!	!	!	!	!	!	!	!	!
8D\	.	8D\	.	8A 8F#/	.	8d'/yy	.	8d'/	.	4.r	8Ree\	.	8D\	8D\	.	8f# 8d\	.	8d/	8d\	.	8D\	.	8dd/	8dd\	.	8f# 8A/	.	4.r	.	8dd/	8dd\	.	8dd\	.	4.r	.
.	.	(8qE#X/	.	(8qE#X/	.	(y8qe#X/yy	.	(8qe#X/	.	.	.	.	.	.	.	.	.	.	.	.	.	.	.	.	.	.	.	.	.	.	.	.	.	.	.	.
8r	.	8F#\)	.	8F#/)	.	8f#/)yy	.	8f#/)	.	.	8r	.	8r	8r	.	8r	.	8r	4ryy	.	8r	.	8r	8ryy	.	8r	.	.	.	8r	4ryy	.	8r	.	.	.
.	.	(8qG#X/	.	(8qG#X/	.	(y8qg#X/yy	.	(8qg#X/	.	.	.	.	.	.	.	.	.	.	.	.	.	.	.	.	.	.	.	.	.	.	.	.	.	.	.	.
8r	.	8A\)	.	8A/)	.	8a/)yy	.	8a/)	.	.	8r	.	8r	8r	.	8r	.	8r	.	.	8r	.	8r	8ryy	.	8r	.	.	.	8r	.	.	8r	.	.	.
*	*	*	*	*	*	*	*	*	*	*	*	*	*	*	*	*	*	*v	*v	*	*	*	*v	*v	*	*	*	*	*	*v	*v	*	*	*	*	*
=48	=48	=48	=48	=48	=48	=48	=48	=48	=48	=48	=48	=48	=48	=48	=48	=48	=48	=48	=48	=48	=48	=48	=48	=48	=48	=48	=48	=48	=48	=48	=48	=48	=48
.	.	(8qc#X/	.	(8qc#X/	.	(y>8qcc#X/yy	.	(>8qcc#X/	.	.	.	.	.	.	.	.	.	.	.	.	.	.	.	.	.	.	.	.	.	.	.	.	.
4.r	.	8d\)	.	8d\)	.	8dd\)yy	.	8dd\)	.	4.r	4.r	.	4.r	4.r	.	4.r	.	4.r	.	4.r	.	4.r	.	4.r	.	4.r	.	4.r	.	4.r	.	4.r	.
*	*	*rep	*	*rep	*	*	*	*	*	*	*	*	*	*	*	*	*	*	*	*	*	*	*	*	*	*	*	*	*	*	*	*	*
.	.	(8qc#/	.	(8qc#/	.	(y>8qcc#/yy	.	(>8qcc#/	.	.	.	.	.	.	.	.	.	.	.	.	.	.	.	.	.	.	.	.	.	.	.	.	.
.	.	8d\)	.	8d\)	.	8dd\)yy	.	8dd\)	.	.	.	.	.	.	.	.	.	.	.	.	.	.	.	.	.	.	.	.	.	.	.	.	.
*	*	*Xrep	*	*Xrep	*	*	*	*	*	*	*	*	*	*	*	*	*	*	*	*	*	*	*	*	*	*	*	*	*	*	*	*	*
*	*	*rep	*	*rep	*	*	*	*	*	*	*	*	*	*	*	*	*	*	*	*	*	*	*	*	*	*	*	*	*	*	*	*	*
.	.	(8qc#/	.	(8qc#/	.	(y>8qcc#/yy	.	(>8qcc#/	.	.	.	.	.	.	.	.	.	.	.	.	.	.	.	.	.	.	.	.	.	.	.	.	.
.	.	8d\)	.	8d\)	.	8dd\)yy	.	8dd\)	.	.	.	.	.	.	.	.	.	.	.	.	.	.	.	.	.	.	.	.	.	.	.	.	.
*	*	*Xrep	*	*Xrep	*	*	*	*	*	*	*	*	*	*	*	*	*	*	*	*	*	*	*	*	*	*	*	*	*	*	*	*	*
=49	=49	=49	=49	=49	=49	=49	=49	=49	=49	=49	=49	=49	=49	=49	=49	=49	=49	=49	=49	=49	=49	=49	=49	=49	=49	=49	=49	=49	=49	=49	=49	=49	=49
*	*	*	*	*	*	*	*	*	*	*	*	*	*	*	*	*	*	*^	*	*	*	*	*	*	*	*	*	*	*	*	*	*	*
!	!LO:DY:rj	!	!LO:DY:rj	!	!	!	!LO:DY:rj	!	!	!	!	!	!	!	!	!	!	!	!	!	!	!	!	!	!	!	!	!	!	!	!	!	!	!
8GG/	p	8GG/yy	py	8r	.	8r	p	8r	.	4.ryy	4.ryy	.	4.ryy	4.ryy	.	4.ryy	.	16.dd/LL|	4.re	.	4.ryy	.	4.ryy	.	4.ryy	.	4.r	.	4.r	.	4.r	.	16.ddd\LL|	.
.	.	.	.	.	.	.	.	.	.	.	.	.	.	.	.	.	.	32b/JJk|	.	.	.	.	.	.	.	.	.	.	.	.	.	.	32bb\JJk|	.
4r	.	4ryy	.	8dL 8G/	.	8gL 8B/	.	(8ee^<\L	.	.	.	.	.	.	.	.	.	(8ee/L	.	.	.	.	.	.	.	.	.	.	.	.	.	.	(8eee^<\L	.
.	.	.	.	8dJ 8G/	.	8gJ 8B/	.	8dd\J)	.	.	.	.	.	.	.	.	.	8dd/J)	.	.	.	.	.	.	.	.	.	.	.	.	.	.	8ddd\J)	.
=50	=50	=50	=50	=50	=50	=50	=50	=50	=50	=50	=50	=50	=50	=50	=50	=50	=50	=50	=50	=50	=50	=50	=50	=50	=50	=50	=50	=50	=50	=50	=50	=50	=50	=50
*	*	*	*	*rep	*	*rep	*	*	*	*	*	*	*	*	*	*	*	*	*	*	*	*	*	*	*	*	*	*	*	*	*	*	*	*
8G\	.	8G\yy	.	8r	.	8r	.	8r	.	4.ryy	4.ryy	.	4.ryy	4.ryy	.	4.ryy	.	16.b/LL	4.re	.	4.ryy	.	4.ryy	.	4.ryy	.	4.r	.	4.r	.	4.r	.	16.bb|\LL	.
.	.	.	.	.	.	.	.	.	.	.	.	.	.	.	.	.	.	32g/JJk	.	.	.	.	.	.	.	.	.	.	.	.	.	.	32gg\JJk|	.
.	.	.	.	.	.	.	.	(8qdd/	.	.	.	.	.	.	.	.	.	(8qdd/	.	.	.	.	.	.	.	.	.	.	.	.	.	.	(8qddd/	.
4r	.	4ryy	.	8dL 8G/	.	8gL 8B/	.	8cc/L)	.	.	.	.	.	.	.	.	.	8cc/L)	.	.	.	.	.	.	.	.	.	.	.	.	.	.	8ccc\L)	.
.	.	.	.	8dJ 8G/	.	8gJ 8B/	.	8b'/J	.	.	.	.	.	.	.	.	.	8b'</J	.	.	.	.	.	.	.	.	.	.	.	.	.	.	8bb'\J	.
*	*	*	*	*Xrep	*	*Xrep	*	*	*	*	*	*	*	*	*	*	*	*	*	*	*	*	*	*	*	*	*	*	*	*	*	*	*	*
=51	=51	=51	=51	=51	=51	=51	=51	=51	=51	=51	=51	=51	=51	=51	=51	=51	=51	=51	=51	=51	=51	=51	=51	=51	=51	=51	=51	=51	=51	=51	=51	=51	=51	=51
8D\	.	8D\yy	.	8r	.	8r	.	4.r	.	4.ryy	4.ryy	.	4.ryy	4.ryy	.	4.ryy	.	(8.dd/L	4.re	.	4.ryy	.	4.ryy	.	4.ryy	.	4.r	.	4.r	.	4.r	.	8.ddd\L	.
8r	.	8ryy	.	8dL 8A/	.	8f#L 8c/	.	.	.	.	.	.	.	.	.	.	.	.	.	.	.	.	.	.	.	.	.	.	.	.	.	.	.	.
.	.	.	.	.	.	.	.	.	.	.	.	.	.	.	.	.	.	16cc/L	.	.	.	.	.	.	.	.	.	.	.	.	.	.	(16ccc\L	.
8r	.	8ryy	.	8dJ 8A/	.	8f#J 8c/	.	.	.	.	.	.	.	.	.	.	.	16a/	.	.	.	.	.	.	.	.	.	.	.	.	.	.	16aa\	.
.	.	.	.	.	.	.	.	.	.	.	.	.	.	.	.	.	.	16f#/JJ)	.	.	.	.	.	.	.	.	.	.	.	.	.	.	16ff#\JJ)	.
!!LO:PB:g=original
=52	=52	=52	=52	=52	=52	=52	=52	=52	=52	=52	=52	=52	=52	=52	=52	=52	=52	=52	=52	=52	=52	=52	=52	=52	=52	=52	=52	=52	=52	=52	=52	=52	=52	=52
*	*	*	*	*	*	*	*	*	*	*	*	*	*	*	*	*	*	*	*	*	*	*	*^	*	*	*	*	*	*	*	*	*	*	*
!LO:TX:t=P:problem:mixed beam	!	!LO:TX:t=P:problem:mixed beam	!	!	!	!	!	!	!	!	!	!	!	!	!	!	!	!	!	!	!	!	!	!	!	!	!	!	!	!	!	!	!	!	!
8GG/L	.	8GG/Lyy	.	8d 8G\	.	8g 8B/	.	16.g/LL|	.	4.r	4.r	.	4.r	4.r	.	4.r	.	16.g/LL	4.r	.	8r	.	8r	8ryy	.	8r	.	4.r	.	4.r	.	4.r	.	16.gg\LL|	.
.	.	.	.	.	.	.	.	32b/JJk|	.	.	.	.	.	.	.	.	.	32b/JJk	.	.	.	.	.	.	.	.	.	.	.	.	.	.	.	32bb\JJk|	.
!	!	!	!	!	!	!	!	!	!	!	!	!	!	!	!	!	!	!	!	!	!	!	!LO:TX:t=P:problem:diminuendolike accent	!	!	!LO:TX:t=P:problem:diminuendolike accent	!	!	!	!	!	!	!	!	!
8G^<\	.	8G^<\yy	.	(8A#X^/L	.	(8c#X^>/L	.	(16e/LL	.	.	.	.	.	.	.	.	.	(16e/LL	.	.	4G 4GG\	.	8cc#X/L	4g^\	.	(8eL 8A#X^/	.	.	.	.	.	.	.	(16ee\LL	.
.	.	.	.	.	.	.	.	32f#/L	.	.	.	.	.	.	.	.	.	32f#/L	.	.	.	.	.	.	.	.	.	.	.	.	.	.	.	32ff#\L	.
.	.	.	.	.	.	.	.	32e/JJ)	.	.	.	.	.	.	.	.	.	32e/JJ)	.	.	.	.	.	.	.	.	.	.	.	.	.	.	.	32ee\JJ)	.
8G\J	.	y8G\Jyy	.	8B/J)	.	8d/J)	.	8d'/J	.	.	.	.	.	.	.	.	.	8d'</J	.	.	.	.	8dd/J	.	.	8dJ 8B/)	.	.	.	.	.	.	.	8dd'\J	.
*	*	*	*	*	*	*	*	*	*	*	*	*	*	*	*	*	*	*	*	*	*	*	*v	*v	*	*	*	*	*	*	*	*	*	*	*
=53	=53	=53	=53	=53	=53	=53	=53	=53	=53	=53	=53	=53	=53	=53	=53	=53	=53	=53	=53	=53	=53	=53	=53	=53	=53	=53	=53	=53	=53	=53	=53	=53	=53	=53
8GG/	.	8GG/yy	.	8r	.	8r	.	4.r	.	4.ryy	4.ryy	.	4.ryy	4.r	.	4.r	.	16.dd/LL	4.r	.	4.r	.	4.r	.	4.r	.	4.r	.	4.r	.	4.r	.	16.ddd\LL|	.
.	.	.	.	.	.	.	.	.	.	.	.	.	.	.	.	.	.	32b/JJk	.	.	.	.	.	.	.	.	.	.	.	.	.	.	32bb\JJk|	.
4r	.	4ryy	.	8dL 8G\	.	8gL 8B/	.	.	.	.	.	.	.	.	.	.	.	8ee/L	.	.	.	.	.	.	.	.	.	.	.	.	.	.	(8eee\L	.
.	.	.	.	8dJ 8G\	.	8gJ 8B/	.	.	.	.	.	.	.	.	.	.	.	8dd/J	.	.	.	.	.	.	.	.	.	.	.	.	.	.	8ddd\J)	.
=54	=54	=54	=54	=54	=54	=54	=54	=54	=54	=54	=54	=54	=54	=54	=54	=54	=54	=54	=54	=54	=54	=54	=54	=54	=54	=54	=54	=54	=54	=54	=54	=54	=54	=54
*	*	*	*	*	*	*	*	*	*	*	*	*	*	*	*	*	*	*	*	*	*	*	*	*	*	*	*	*	*^	*	*	*	*	*
*	*	*	*	*rep	*	*rep	*	*	*	*	*	*	*	*	*	*	*	*	*	*	*	*	*	*	*	*	*	*	*	*	*	*	*	*	*
8G\	.	8G\yy	.	8r	.	8r	.	8r	.	4.ryy	4.ryy	.	4.ryy	4.r	.	4.r	.	16.cc#X/LL	4.r	.	4.r	.	4.r	.	4.r	.	4.r	.	8r	4.re	.	8r	.	16.ccc#X\LL	.
.	.	.	.	.	.	.	.	.	.	.	.	.	.	.	.	.	.	32dd/JJk	.	.	.	.	.	.	.	.	.	.	.	.	.	.	.	32ddd\JK	.
4r	.	4ryy	.	8dL 8G\	.	8gL 8B/	.	8r	.	.	.	.	.	.	.	.	.	8b/	.	.	.	.	.	.	.	.	.	.	8r	.	.	8r	.	8bb\J	.
*	*	*	*	*	*	*	*	*	*	*	*	*	*	*	*	*	*	*	*	*	*	*	*	*	*	*	*	*	*	*	*	*tuplet	*	*	*
!	!	!	!	!	!	!	!	!LO:TUP:a:problem:klamra łukowa	!	!	!	!	!	!	!	!	!	!	!	!	!	!	!	!	!	!	!	!	!	!	!	!LO:TUP:a:problem:klamra łukowa	!	!	!
.	.	.	.	8dJ 8G\	.	8gJ 8B/	.	24dd\LL	.	.	.	.	.	.	.	.	.	8r	.	.	.	.	.	.	.	.	.	.	24dd/LL	.	.	24dd\LL	.	8r	.
.	.	.	.	.	.	.	.	24ee\	.	.	.	.	.	.	.	.	.	.	.	.	.	.	.	.	.	.	.	.	24ee/	.	.	24ee\	.	.	.
.	.	.	.	.	.	.	.	24ee#X\JJ	.	.	.	.	.	.	.	.	.	.	.	.	.	.	.	.	.	.	.	.	24ee#X/JJ	.	.	24ee#X\JJ	.	.	.
*	*	*	*	*Xrep	*	*Xrep	*	*	*	*	*	*	*	*	*	*	*	*	*	*	*	*	*	*	*	*	*	*	*	*	*	*	*	*	*
*	*	*	*	*	*	*	*	*	*	*	*	*	*	*	*	*	*	*v	*v	*	*	*	*	*	*	*	*	*	*	*	*	*	*	*	*
=55	=55	=55	=55	=55	=55	=55	=55	=55	=55	=55	=55	=55	=55	=55	=55	=55	=55	=55	=55	=55	=55	=55	=55	=55	=55	=55	=55	=55	=55	=55	=55	=55	=55	=55
*	*	*	*	*	*	*	*	*	*	*	*	*	*	*	*	*	*	*	*	*	*	*^	*	*	*	*	*	*	*	*	*	*	*	*
8F#\	.	8F#\yy	.	8r	.	8r	.	(8.ff#\L	.	4.ryy	4.ryy	.	4.ryy	4.r	.	4.r	.	4.r	.	4F#\	.	4dd/	4dd\	.	4.f# 4.F#/	.	4b 4d/	.	8.ff#/L	4.re	.	(8.ff#\L	.	4.r	.
8r	.	8ryy	.	8d\L	.	8f#L 8B/	.	.	.	.	.	.	.	.	.	.	.	.	.	.	.	.	.	.	.	.	.	.	.	.	.	.	.	.	.
.	.	.	.	.	.	.	.	16ee\L	.	.	.	.	.	.	.	.	.	.	.	.	.	.	.	.	.	.	.	.	16ee/L	.	.	16ee\L	.	.	.
8FF#/	.	8FF#/yy	.	8eJ 8c#X\	.	8f#J 8A#X/	.	16cc#X\	.	.	.	.	.	.	.	.	.	.	.	8FF#/	.	8ee/	8cc#X\	.	.	.	8a#X 8c#X/	.	16cc#X/	.	.	16cc#X\	.	.	.
.	.	.	.	.	.	.	.	16dd\JJ)	.	.	.	.	.	.	.	.	.	.	.	.	.	.	.	.	.	.	.	.	16dd/JJ	.	.	16dd\JJ)	.	.	.
=56	=56	=56	=56	=56	=56	=56	=56	=56	=56	=56	=56	=56	=56	=56	=56	=56	=56	=56	=56	=56	=56	=56	=56	=56	=56	=56	=56	=56	=56	=56	=56	=56	=56	=56	=56
*tremolo	*	*tremolo	*	*tremolo	*	*tremolo	*	*	*	*	*	*	*	*	*	*	*	*	*	*	*	*	*	*	*	*	*	*	*	*	*	*	*	*	*
8BB/L	.	8BB/Lyy	.	8d\L	.	8f#L 8B/	.	(4b\	.	4.ryy	4.ryy	.	4.ryy	4.r	.	4.r	.	4.r	.	4.BB/	.	4.dd/	4.dd\	.	4.f# 4.F#/	.	4.b 4.d/	.	(4b/	4.re	.	(4b\	.	4.r	.
8BB/	.	8BB/yy	.	8d\	.	8f# 8B/	.	.	.	.	.	.	.	.	.	.	.	.	.	.	.	.	.	.	.	.	.	.	.	.	.	.	.	.	.
8BB/J	.	8BB/Jyy	.	8d\J	.	8f#J 8B/	.	8bb\)	.	.	.	.	.	.	.	.	.	.	.	.	.	.	.	.	.	.	.	.	8bb/)	.	.	8bb\)	.	.	.
*Xtremolo	*	*Xtremolo	*	*Xtremolo	*	*Xtremolo	*	*	*	*	*	*	*	*	*	*	*	*	*	*	*	*	*	*	*	*	*	*	*	*	*	*	*	*	*
*	*	*	*	*	*	*	*	*	*	*	*	*	*	*	*	*	*	*	*	*	*	*v	*v	*	*	*	*	*	*v	*v	*	*	*	*	*
!!LO:PB:g=original
=57:|!|:	=57:|!|:	=57:|!|:	=57:|!|:	=57:|!|:	=57:|!|:	=57:|!|:	=57:|!|:	=57:|!|:	=57:|!|:	=57:|!|:	=57:|!|:	=57:|!|:	=57:|!|:	=57:|!|:	=57:|!|:	=57:|!|:	=57:|!|:	=57:|!|:	=57:|!|:	=57:|!|:	=57:|!|:	=57:|!|:	=57:|!|:	=57:|!|:	=57:|!|:	=57:|!|:	=57:|!|:	=57:|!|:	=57:|!|:	=57:|!|:	=57:|!|:	=57:|!|:	=57:|!|:
*>E	*>E	*>E	*>E	*>E	*>E	*>E	*>E	*>E	*>E	*>E	*>E	*>E	*>E	*>E	*>E	*>E	*>E	*>E	*>E	*>E	*>E	*>E	*>E	*>E	*>E	*>E	*>E	*>E	*>E	*>E	*>E	*>E	*>E
!	!	!	!	!	!	!	!LO:DY:rj	!	!LO:DY:rj	!	!	!LO:DY:rj	!	!	!	!	!LO:DY:rj	!	!LO:DY:rj	!	!	!	!	!	!	!	!LO:DY:rj	!	!	!	!LO:DY:rj	!	!
8D/	.	8D/yy	.	8r	.	8r	f	16.dddLL 16.dd\	f	4C/	8r	f	8r	8r	.	8r	f	8d/L	f	8D 8DD/	.	8r	.	8r	.	16.dd\LL	f	8r	.	16.ddd\LL	f	4.r	.
.	.	.	.	.	.	.	.	32cccJJk 32cc\	.	.	.	.	.	.	.	.	.	.	.	.	.	.	.	.	.	32cc\JJk	.	.	.	32ccc\JJk	.	.	.
8r	.	8ryy	.	8dL 8A\	.	8f#L 8c/	.	8aaL 8a\	.	.	8Ree\L	.	8D\L	8D\L	.	8f#L 8A\	.	16f#/L	.	8r	.	8ddL 8cc\	.	8f#L 8A\	.	8a/L	.	8ff#L 8cc\	.	8aa\L	.	.	.
.	.	.	.	.	.	.	.	.	.	.	.	.	.	.	.	.	.	16a/JJ	.	.	.	.	.	.	.	.	.	.	.	.	.	.	.
8r	.	8ryy	.	8dJ 8A\	.	8f#J 8c/	.	8ddJ 8d\	.	8r	8Ree\J	.	8D\J	8D\J	.	8f#J 8A\	.	8dd\	.	8r	.	8ddJ 8cc\	.	8f#J 8A\	.	8d/J	.	8ff#J 8cc\	.	8dd\J	.	.	.
=58	=58	=58	=58	=58	=58	=58	=58	=58	=58	=58	=58	=58	=58	=58	=58	=58	=58	=58	=58	=58	=58	=58	=58	=58	=58	=58	=58	=58	=58	=58	=58	=58	=58
8GG/	.	8GG/yy	.	8r	.	8r	.	16.eeeLL 16.ee\	.	4C/	8r	.	8r	8r	.	8r	.	8d/L	.	8G 8GG/	.	8r	.	8r	.	16.ee\LL	.	8r	.	16.eee\LL	.	4.r	.
.	.	.	.	.	.	.	.	32dddJJk 32dd\	.	.	.	.	.	.	.	.	.	.	.	.	.	.	.	.	.	32dd\JJk	.	.	.	32ddd\JJk	.	.	.
8r	.	8ryy	.	8dL 8G\	.	8gL 8B/	.	8bbL 8b\	.	.	8Ree\L	.	8D\L	8G\L	.	8gL 8B\	.	16g/L	.	8r	.	8ddL 8g/	.	8gL 8B\	.	8b/L	.	8ggL 8b\	.	8bb\L	.	.	.
.	.	.	.	.	.	.	.	.	.	.	.	.	.	.	.	.	.	16b/JJ	.	.	.	.	.	.	.	.	.	.	.	.	.	.	.
8r	.	8ryy	.	8dJ 8G\	.	8gJ 8B/	.	8ggJ 8g\	.	8r	8Ree\J	.	8D\J	8G\J	.	8gJ 8B\	.	8dd\|	.	8r	.	8ddJ 8g/	.	8gJ 8B\	.	8g/J	.	8ggJ 8b\	.	8gg\J	.	.	.
=59	=59	=59	=59	=59	=59	=59	=59	=59	=59	=59	=59	=59	=59	=59	=59	=59	=59	=59	=59	=59	=59	=59	=59	=59	=59	=59	=59	=59	=59	=59	=59	=59	=59
*	*	*	*	*	*	*	*	*	*	*	*	*	*	*	*	*^	*	*	*	*	*	*	*	*	*	*	*	*	*	*	*	*	*
*	*	*	*	*	*	*	*	*tuplet	*	*	*	*	*	*	*	*	*	*	*	*	*	*	*	*	*	*	*	*	*tuplet	*	*	*	*	*
!	!	!	!	!	!	!	!	!	!	!	!	!	!	!	!	!	!	!	!	!	!	!	!	!	!	!	!	!	!	!	!LO:TX:a:t=col Fl //	!	!	!
!	!	!	!	!	!	!	!	!LO:TUP:b:problem:klamra łukowa, kropka zamiast numeru	!	!	!	!	!	!	!	!	!	!LO:DY:rj	!	!	!	!	!	!	!	!	!	!	!LO:TUP:b:problem:klamra łukowa, łuczek zamiast numeru	!	!LO:TUP:a:problem:klamra łukowa	!	!LO:TUP:a:problem:klamra łukowa	!
8C/	.	8C/yy	.	8r	.	8r	.	24a/LL	.	4.r	8Ree\	.	4.r	4C/	.	4.c/	4.A\	p	4.r	.	8C 8CC/	.	8r	.	8r	.	4.r	.	24a/LL	.	24aa\LLyy	.	24aa\LL	.
.	.	.	.	.	.	.	.	24b/	.	.	.	.	.	.	.	.	.	.	.	.	.	.	.	.	.	.	.	.	24b/	.	24bb\yy	.	24bb\	.
.	.	.	.	.	.	.	.	24cc/JJ	.	.	.	.	.	.	.	.	.	.	.	.	.	.	.	.	.	.	.	.	24cc/JJ	.	24ccc\JJyy	.	24ccc\JJ	.
8r	.	8ryy	.	8A/L	.	8c/L	.	8e/L	.	.	8r	.	.	.	.	.	.	.	.	.	8r	.	8eeL 8cc\	.	8A/L	.	.	.	8e/L	.	8ee\Lyy	.	8ee\L	.
8D/	.	8D/yy	.	8A/J	.	8dJ 8c/	.	8f#/J	.	.	8r	.	.	8D/	.	.	.	.	.	.	8D 8DD/	.	8ddJ 8cc\	.	8A/J	.	.	.	8f#/J	.	8ff#\Jyy	.	8ff#\J	.
=60	=60	=60	=60	=60	=60	=60	=60	=60	=60	=60	=60	=60	=60	=60	=60	=60	=60	=60	=60	=60	=60	=60	=60	=60	=60	=60	=60	=60	=60	=60	=60	=60	=60	=60
8GG/	.	8GG/yy	.	8r	.	8r	.	8g/L	.	4.r	8Ree\	.	4.r	4.G\	.	4.B/	4.G\	.	4.r	.	8G 8GG\	.	8r	.	8r	.	4.r	.	8g/	.	8gg\yy	.	8gg\	.
8r	.	8ryy	.	8G/L	.	8dL 8B/	.	(32g/LL	.	.	8r	.	.	.	.	.	.	.	.	.	8r	.	8ddL 8g/	.	8B/L	.	.	.	(32g/LLL	.	(y32gg\LLLyy	.	(32gg\LLL	.
.	.	.	.	.	.	.	.	32a/	.	.	.	.	.	.	.	.	.	.	.	.	.	.	.	.	.	.	.	.	32a/	.	32aa\yy	.	32aa\	.
.	.	.	.	.	.	.	.	32b/	.	.	.	.	.	.	.	.	.	.	.	.	.	.	.	.	.	.	.	.	32b/	.	32bb\yy	.	32bb\	.
.	.	.	.	.	.	.	.	32cc/JJJ	.	.	.	.	.	.	.	.	.	.	.	.	.	.	.	.	.	.	.	.	32cc/JJ	.	32ccc\JJyy	.	32ccc\JJ	.
8r	.	8ryy	.	8dJ 8G/	.	8gJ 8B/	.	8dd/)	.	.	8r	.	.	.	.	.	.	.	.	.	8r	.	8ddJ 8g/	.	8B/J	.	.	.	8dd/J)	.	8ddd\J)yy	.	8ddd\J)	.
*	*	*	*	*	*	*	*	*	*	*	*	*	*	*	*	*v	*v	*	*	*	*	*	*	*	*	*	*	*	*	*	*	*	*	*
=61	=61	=61	=61	=61	=61	=61	=61	=61	=61	=61	=61	=61	=61	=61	=61	=61	=61	=61	=61	=61	=61	=61	=61	=61	=61	=61	=61	=61	=61	=61	=61	=61	=61
!	!	!	!	!	!	!	!	!	!	!	!	!	!	!	!	!	!LO:DY:rj	!	!	!	!	!	!	!	!	!	!	!	!	!	!	!	!
8D\	.	8D\yy	.	8r	.	8r	.	(32dd\LLL	.	4C/	8r	.	8r	8r	.	8r	f	8d/L	.	8D 8DD/	.	8r	.	8r	.	(32dd\LLL	.	8r	.	(y32ddd\LLLyy	.	(32ddd\LLL	.
.	.	.	.	.	.	.	.	32ee\	.	.	.	.	.	.	.	.	.	.	.	.	.	.	.	.	.	32ee\	.	.	.	32eee\yy	.	32eee\	.
.	.	.	.	.	.	.	.	32dd\	.	.	.	.	.	.	.	.	.	.	.	.	.	.	.	.	.	32dd\	.	.	.	32ddd\yy	.	32ddd\	.
.	.	.	.	.	.	.	.	32cc\JJJ	.	.	.	.	.	.	.	.	.	.	.	.	.	.	.	.	.	32cc\JJJ	.	.	.	32ccc\JJJyy	.	32ccc\JJJ	.
8r	.	8ryy	.	8dL 8A\	.	8f#L 8c/	.	8a/L)	.	.	8Ree\L	.	8D\L	8D\L	.	8f#L 8A\	.	16f#/L	.	8r	.	8ddL 8cc\	.	8f#L 8A/	.	8a/L)	.	8ff#L 8cc\	.	8aa\L)yy	.	8aa\L)	.
.	.	.	.	.	.	.	.	.	.	.	.	.	.	.	.	.	.	16a/J	.	.	.	.	.	.	.	.	.	.	.	.	.	.	.
8r	.	8ryy	.	8dJ 8A\	.	8f#J 8c/	.	8d'/J	.	8r	8Ree\J	.	8D\J	8D\J	.	8f#J 8A\	.	8dd/J	.	8r	.	8ddJ 8cc\	.	8f#J 8A/	.	8d'>/J	.	8ff#J 8cc\	.	8dd'\Jyy	.	8dd'\J	.
=62	=62	=62	=62	=62	=62	=62	=62	=62	=62	=62	=62	=62	=62	=62	=62	=62	=62	=62	=62	=62	=62	=62	=62	=62	=62	=62	=62	=62	=62	=62	=62	=62	=62
8GG/	.	8GG/yy	.	8r	.	8r	.	(32ee\LLL	.	4C/	8r	.	8r	8r	.	8r	.	8d/L	.	8G 8GG/	.	8r	.	8r	.	(32ee\LLL	.	8r	.	(y32eee\LLLyy	.	(32eee\LLL	.
.	.	.	.	.	.	.	.	32ff#\	.	.	.	.	.	.	.	.	.	.	.	.	.	.	.	.	.	32ff#\	.	.	.	32fff#\yy	.	32fff#\	.
.	.	.	.	.	.	.	.	32ee\	.	.	.	.	.	.	.	.	.	.	.	.	.	.	.	.	.	32ee\	.	.	.	32eee\yy	.	32eee\	.
.	.	.	.	.	.	.	.	32dd\JJJ	.	.	.	.	.	.	.	.	.	.	.	.	.	.	.	.	.	32dd\JJJ	.	.	.	32ddd\JJJyy	.	32ddd\JJJ	.
8r	.	8ryy	.	8dL 8G\	.	8gL 8B/	.	8b/L)	.	.	8Ree\L	.	8D\L	8G\L	.	8gL 8B\	.	16g/L	.	8r	.	8ddL 8g/	.	8gL 8B/	.	8b/L)	.	8ggL 8b\	.	8bb\L)yy	.	8bb\L)	.
.	.	.	.	.	.	.	.	.	.	.	.	.	.	.	.	.	.	16b/J	.	.	.	.	.	.	.	.	.	.	.	.	.	.	.
8r	.	8ryy	.	8dJ 8G\	.	8gJ 8B/	.	8g'/J	.	8r	8Ree\J	.	8D\J	8G\J	.	8gJ 8B\	.	8dd/J	.	8r	.	8ddJ 8g/	.	8gJ 8B/	.	8g'>/J	.	8ggJ 8b\	.	8gg'\Jyy	.	8gg'\J	.
!!LO:PB:g=original
=63	=63	=63	=63	=63	=63	=63	=63	=63	=63	=63	=63	=63	=63	=63	=63	=63	=63	=63	=63	=63	=63	=63	=63	=63	=63	=63	=63	=63	=63	=63	=63	=63	=63
!LO:TX:t=P:problem:mixed beam	!	!LO:TX:t=P:problem:mixed beam	!	!	!	!	!	!	!	!	!	!	!	!	!	!	!	!	!	!	!	!	!	!	!	!	!	!	!	!	!	!	!
8AA/L	.	8AA/Lyy	.	8r	.	8r	.	(32cc#X/LLL	.	4C/	8r	.	8r	4A\	.	4.g 4.e\	.	4.r	.	8A 8AA\	.	8r	.	8r	.	(32cc#X/LLL	.	8r	.	32ccc#X\LLLyy	.	32ccc#X\LLL	.
.	.	.	.	.	.	.	.	32dd/	.	.	.	.	.	.	.	.	.	.	.	.	.	.	.	.	.	32dd/	.	.	.	32ddd\yy	.	32ddd\	.
.	.	.	.	.	.	.	.	32cc#/	.	.	.	.	.	.	.	.	.	.	.	.	.	.	.	.	.	32cc#/	.	.	.	32ccc#\yy	.	32ccc#\	.
.	.	.	.	.	.	.	.	32b/JJJ)	.	.	.	.	.	.	.	.	.	.	.	.	.	.	.	.	.	32b/JJJ)	.	.	.	32bb\JJJyy	.	32bb\JJJ	.
*	*	*	*	*	*	*	*	*	*	*	*tremolo	*	*	*	*	*	*	*	*	*	*	*	*	*	*	*	*	*	*	*	*	*	*
8A\	.	8A\yy	.	8eL 8c#X\	.	8gL 8A/	.	(8a/L	.	.	32Ree\LLL	.	8AA/L	.	.	.	.	.	.	4r	.	8eeL 8cc#X\	.	8gL 8A\	.	(8a/L	.	8cc#XL 8g/	.	(y8aa\Lyy	.	(8aa\L	.
.	.	.	.	.	.	.	.	.	.	.	32Ree\	.	.	.	.	.	.	.	.	.	.	.	.	.	.	.	.	.	.	.	.	.	.
.	.	.	.	.	.	.	.	.	.	.	32Ree\	.	.	.	.	.	.	.	.	.	.	.	.	.	.	.	.	.	.	.	.	.	.
.	.	.	.	.	.	.	.	.	.	.	32Ree\JJ	.	.	.	.	.	.	.	.	.	.	.	.	.	.	.	.	.	.	.	.	.	.
*	*	*	*	*	*	*	*	*	*	*	*Xtremolo	*	*	*	*	*	*	*	*	*	*	*	*	*	*	*	*	*	*	*	*	*	*
8AA/J	.	8AA/Jyy	.	8eJ 8c#\	.	8gJ 8A/	.	16.g/L)	.	8r	8Ree\J	.	8AA/J	8AA/	.	.	.	.	.	.	.	8eeJ 8cc#\	.	8gJ 8A\	.	16.g/L)	.	8cc#J 8g/	.	16.gg\L)yy	.	16.gg\L)	.
.	.	.	.	.	.	.	.	32c#X/JJk|	.	.	.	.	.	.	.	.	.	.	.	.	.	.	.	.	.	32c#X/JJk|	.	.	.	32cc#X\JJkyy|	.	32cc#X\JJk|	.
=64	=64	=64	=64	=64	=64	=64	=64	=64	=64	=64	=64	=64	=64	=64	=64	=64	=64	=64	=64	=64	=64	=64	=64	=64	=64	=64	=64	=64	=64	=64	=64	=64	=64
*	*	*	*	*	*	*	*	*	*	*	*	*	*	*	*	*	*	*^	*	*	*	*	*	*	*	*	*	*	*	*^	*	*^	*
8D\L	.	8D\Lyy	.	8d\L	.	8f#L 8A/	.	8d/L	.	8C/L	8Ree\L	.	8D/L	8D\L	.	8f#L 8d\	.	8r	4ryy	.	8AL 8D\	.	8dd\L	.	8f#L 8A\	.	8d/L	.	8ddL 8f#/	.	8dd\Lyy	4ryy	.	8dd\L	4ryy	.
8D\J	.	8D\Jyy	.	8d\J	.	8f#J 8A/	.	8ddJ 8f#/	.	8C/J	8Ree\J	.	8D/J	8D\J	.	8f#J 8d\	.	8dd 8f#/	.	.	8AJ 8D\	.	8dd\J	.	8f#J 8A\	.	8ddJ 8f#/	.	8ff#J 8a/	.	8ddd\Jyy	.	.	8ddd\J	.	.
8r	.	8ryy	.	8r	.	8r	.	8r	.	8r	8r	.	8r	8r	.	8r	.	(8dd/	8r	.	8r	.	8r	.	8r	.	8r	.	8r	.	8ddd\yy	8ryy	.	[[8ddd\	8rf	.
*	*	*	*	*	*	*	*	*	*	*	*	*	*	*	*	*	*	*	*	*	*	*	*	*	*	*	*	*	*	*	*v	*v	*	*	*	*
*	*	*	*	*	*	*	*	*	*	*	*	*	*	*	*	*	*	*v	*v	*	*	*	*	*	*	*	*	*	*	*	*	*	*v	*v	*
=65	=65	=65	=65	=65	=65	=65	=65	=65	=65	=65	=65	=65	=65	=65	=65	=65	=65	=65	=65	=65	=65	=65	=65	=65	=65	=65	=65	=65	=65	=65	=65	=65	=65
8GG/yy	py	8GG/yy	py	8ryy	.	8ryy	py	8ryy	.	4.ryy	4.ryy	.	4.ryy	4.ryy	.	4.ryy	.	16.dd'>/LL)	.	4.ryy	.	4.ryy	.	4.ryy	.	4.ryy	.	4.ryy	.	4.ryy	.	16.ddd\LL]]|yy	.
.	.	.	.	.	.	.	.	.	.	.	.	.	.	.	.	.	.	32b'>/JJk	.	.	.	.	.	.	.	.	.	.	.	.	.	32bb\JJkyy|	.
4ryy	.	4ryy	.	8dLyy 8G/yy	.	8gLyy 8B/yy	.	(y8ee^\Lyy	.	.	.	.	.	.	.	.	.	(>8ee/L	.	.	.	.	.	.	.	.	.	.	.	.	.	(y8eee^\Lyy	.
.	.	.	.	8dJyy 8G/yy	.	8gJyy 8B/yy	.	8dd\J)yy	.	.	.	.	.	.	.	.	.	8dd/J)	.	.	.	.	.	.	.	.	.	.	.	.	.	8ddd\J)yy	.
=66	=66	=66	=66	=66	=66	=66	=66	=66	=66	=66	=66	=66	=66	=66	=66	=66	=66	=66	=66	=66	=66	=66	=66	=66	=66	=66	=66	=66	=66	=66	=66	=66	=66
8G\yy	.	8G\yy	.	8ryy	.	8ryy	.	8ryy	.	4.ryy	4.ryy	.	4.ryy	4.ryy	.	4.ryy	.	16.b'>/LL	.	4.ryy	.	4.ryy	.	4.ryy	.	4.ryy	.	4.ryy	.	4.ryy	.	16.bb'\LLyy	.
.	.	.	.	.	.	.	.	.	.	.	.	.	.	.	.	.	.	32g'>/JJk	.	.	.	.	.	.	.	.	.	.	.	.	.	32gg\JJkyy|	.
.	.	.	.	.	.	.	.	(y8qdd/yy	.	.	.	.	.	.	.	.	.	(>8qdd/	.	.	.	.	.	.	.	.	.	.	.	.	.	(y8qddd/yy	.
4ryy	.	4ryy	.	8dLyy 8G/yy	.	8gLyy 8B/yy	.	8cc/L)yy	.	.	.	.	.	.	.	.	.	8cc/L)	.	.	.	.	.	.	.	.	.	.	.	.	.	8ccc\L)yy	.
.	.	.	.	8dJyy 8G/yy	.	8gJyy 8B/yy	.	8b'/Jyy	.	.	.	.	.	.	.	.	.	8b'>/J	.	.	.	.	.	.	.	.	.	.	.	.	.	8bb'\Jyy	.
=67	=67	=67	=67	=67	=67	=67	=67	=67	=67	=67	=67	=67	=67	=67	=67	=67	=67	=67	=67	=67	=67	=67	=67	=67	=67	=67	=67	=67	=67	=67	=67	=67	=67
8D\yy	.	8D\yy	.	8ryy	.	8ryy	.	4.ryy	.	4.ryy	4.ryy	.	4.ryy	4.ryy	.	4.ryy	.	8.dd/L	.	4.ryy	.	4.ryy	.	4.ryy	.	4.ryy	.	4.ryy	.	4.ryy	.	8.ddd\Lyy	.
8ryy	.	8ryy	.	8dLyy 8A/yy	.	8f#Lyy 8c/yy	.	.	.	.	.	.	.	.	.	.	.	.	.	.	.	.	.	.	.	.	.	.	.	.	.	.	.
.	.	.	.	.	.	.	.	.	.	.	.	.	.	.	.	.	.	16cc/L	.	.	.	.	.	.	.	.	.	.	.	.	.	(y16ccc\Lyy	.
8ryy	.	8ryy	.	8dJyy 8A/yy	.	8f#Jyy 8c/yy	.	.	.	.	.	.	.	.	.	.	.	16a/	.	.	.	.	.	.	.	.	.	.	.	.	.	16aa\yy	.
.	.	.	.	.	.	.	.	.	.	.	.	.	.	.	.	.	.	16f#/JJ	.	.	.	.	.	.	.	.	.	.	.	.	.	16ff#\JJ)yy	.
=68	=68	=68	=68	=68	=68	=68	=68	=68	=68	=68	=68	=68	=68	=68	=68	=68	=68	=68	=68	=68	=68	=68	=68	=68	=68	=68	=68	=68	=68	=68	=68	=68	=68
*	*	*	*	*	*	*	*	*	*	*	*	*	*	*	*	*	*	*	*	*	*	*^	*	*	*	*	*	*	*	*	*	*	*
!LO:TX:t=P:problem:mixed beam	!	!LO:TX:t=P:problem:mixed beam	!	!	!	!	!	!	!	!	!	!	!	!	!	!	!	!	!	!	!	!	!	!	!	!	!	!	!	!	!	!	!	!
8GG/Lyy	.	8GG/Lyy	.	8dyy 8G/yy	.	8gyy 8B/yy	.	16.g/LLyy|	.	4.ryy	4.ryy	.	4.ryy	4.ryy	.	4.ryy	.	16.g/LL	.	4.ryy	.	8ryy	8ryy	.	8ryy	.	4.ryy	.	4.ryy	.	4.ryy	.	16.gg\LL|yy	.
.	.	.	.	.	.	.	.	32b/JJkyy|	.	.	.	.	.	.	.	.	.	32b/JJk	.	.	.	.	.	.	.	.	.	.	.	.	.	.	32bb\JJkyy|	.
8G^\yy	.	8G^\yy	.	(y8A#X^/Lyy	.	(y8c#X^/Lyy	.	(y16e/LLyy	.	.	.	.	.	.	.	.	.	(16e^>/LL	.	.	.	8cc#X/Lyy	4g^\yy	.	(y8eLyy 8A#X^/yy	.	.	.	.	.	.	.	(y16ee\LLyy	.
.	.	.	.	.	.	.	.	32f#/Lyy	.	.	.	.	.	.	.	.	.	32f#/L	.	.	.	.	.	.	.	.	.	.	.	.	.	.	32ff#\Lyy	.
.	.	.	.	.	.	.	.	32e/JJ)yy	.	.	.	.	.	.	.	.	.	32e/JJ)	.	.	.	.	.	.	.	.	.	.	.	.	.	.	32ee\JJ)yy	.
8G\Jyy	.	8G\Jyy	.	8B/J)yy	.	8d/J)yy	.	8d'/Jyy	.	.	.	.	.	.	.	.	.	8d/J	.	.	.	8dd/Jyy	.	.	8dJyy 8B/)yy	.	.	.	.	.	.	.	8dd'\Jyy	.
*	*	*	*	*	*	*	*	*	*	*	*	*	*	*	*	*	*	*	*	*	*	*v	*v	*	*	*	*	*	*	*	*	*	*	*
!!LO:PB:g=original
=69	=69	=69	=69	=69	=69	=69	=69	=69	=69	=69	=69	=69	=69	=69	=69	=69	=69	=69	=69	=69	=69	=69	=69	=69	=69	=69	=69	=69	=69	=69	=69	=69	=69
*	*	*	*	*	*	*	*	*	*	*	*	*	*	*	*	*	*	*^	*	*	*	*	*	*	*	*	*	*	*	*	*	*	*
8GG/yy	.	8GG/yy	.	8ryy	.	8ryy	.	4.ryy	.	4.ryy	4.ryy	.	4.ryy	4.ryy	.	4.ryy	.	16.dd/LL	4.r	.	4.ryy	.	4.ryy	.	4.ryy	.	4.ryy	.	4.ryy	.	4.ryy	.	16.ddd\LL|	.
.	.	.	.	.	.	.	.	.	.	.	.	.	.	.	.	.	.	32b/JJk	.	.	.	.	.	.	.	.	.	.	.	.	.	.	32bb\JJk|	.
4ryy	.	4ryy	.	8dLyy 8G\yy	.	8gLyy 8B/yy	.	.	.	.	.	.	.	.	.	.	.	8ee/L	.	.	.	.	.	.	.	.	.	.	.	.	.	.	(8eee\L	.
.	.	.	.	8dJyy 8G\yy	.	8gJyy 8B/yy	.	.	.	.	.	.	.	.	.	.	.	8dd/J	.	.	.	.	.	.	.	.	.	.	.	.	.	.	8ddd\J)	.
=70	=70	=70	=70	=70	=70	=70	=70	=70	=70	=70	=70	=70	=70	=70	=70	=70	=70	=70	=70	=70	=70	=70	=70	=70	=70	=70	=70	=70	=70	=70	=70	=70	=70	=70
8G\	.	8G\yy	.	8r	.	8r	.	4.r	.	4.r	4.r	.	4.r	4.r	.	4.r	.	16.b/LL|	4.r	.	4.r	.	4.r	.	4.r	.	4.r	.	4.r	.	4.r	.	16.bb\LL	.
.	.	.	.	.	.	.	.	.	.	.	.	.	.	.	.	.	.	32g/JJk|	.	.	.	.	.	.	.	.	.	.	.	.	.	.	32gg\JJk	.
.	.	.	.	.	.	.	.	.	.	.	.	.	.	.	.	.	.	(8qdd/	.	.	.	.	.	.	.	.	.	.	.	.	.	.	(8qddd/	.
8r	.	8ryy	.	8dL 8G/	.	8gL 8B/	.	.	.	.	.	.	.	.	.	.	.	8cc/L)	.	.	.	.	.	.	.	.	.	.	.	.	.	.	8ccc\L)	.
8r	.	8ryy	.	8dJ 8G/	.	8gJ 8B/	.	.	.	.	.	.	.	.	.	.	.	8b'</J	.	.	.	.	.	.	.	.	.	.	.	.	.	.	8bb'\J	.
=71	=71	=71	=71	=71	=71	=71	=71	=71	=71	=71	=71	=71	=71	=71	=71	=71	=71	=71	=71	=71	=71	=71	=71	=71	=71	=71	=71	=71	=71	=71	=71	=71	=71	=71
*	*	*	*	*	*	*	*	*	*	*	*	*	*	*	*	*	*	*	*	*	*	*	*^	*	*	*	*	*	*	*	*	*	*	*
*	*	*	*	*tremolo	*	*	*	*	*	*	*	*	*	*	*	*	*	*	*	*	*	*	*	*	*	*	*	*	*	*	*	*	*	*	*
!	!	!	!	!	!	!	!	!LO:TUP:b:problem:klamra łukowa, łuczek zamiast numeru	!	!	!	!	!	!	!	!	!	!LO:TUP:b:problem:klamra łukowa, łuczek zamiast numeru	!	!	!	!	!	!	!	!	!	!	!	!	!	!	!	!LO:TUP:a:problem:klamra łukowa	!
8C/L	.	8C/Lyy	.	8A/L	.	8e-XL 8c/	.	24a/LL	.	4.r	4.r	.	4.r	4.r	.	4.r	.	24a/LL	4.r	.	4A 4C\	.	(4ee-X/	4.cc\	.	4.r	.	4.r	.	4.r	.	4.r	.	24aa\LL	.
.	.	.	.	.	.	.	.	24b/	.	.	.	.	.	.	.	.	.	24b/	.	.	.	.	.	.	.	.	.	.	.	.	.	.	.	24bb\	.
.	.	.	.	.	.	.	.	24cc/JJ	.	.	.	.	.	.	.	.	.	24cc/JJ	.	.	.	.	.	.	.	.	.	.	.	.	.	.	.	24ccc\JJ	.
8C/	.	8C/yy	.	8A/	.	8e- 8c/	.	(8e-X/L	.	.	.	.	.	.	.	.	.	(<8e-X/L	.	.	.	.	.	.	.	.	.	.	.	.	.	.	.	(8ee-X\L	.
8D/J	.	8D/Jyy	.	8A/J	.	8dJ 8c/	.	16d/L)	.	.	.	.	.	.	.	.	.	16d/L)	.	.	8A 8D\	.	8dd/)	.	.	.	.	.	.	.	.	.	.	16dd\L)	.
*	*	*	*	*Xtremolo	*	*	*	*	*	*	*	*	*	*	*	*	*	*	*	*	*	*	*	*	*	*	*	*	*	*	*	*	*	*	*
.	.	.	.	.	.	.	.	16f#'/JJ	.	.	.	.	.	.	.	.	.	16f#'</JJ	.	.	.	.	.	.	.	.	.	.	.	.	.	.	.	16ff#'\JJ	.
*	*	*	*	*	*	*	*	*	*	*	*	*	*	*	*	*	*	*v	*v	*	*	*	*v	*v	*	*	*	*	*	*	*	*	*	*	*
=72	=72	=72	=72	=72	=72	=72	=72	=72	=72	=72	=72	=72	=72	=72	=72	=72	=72	=72	=72	=72	=72	=72	=72	=72	=72	=72	=72	=72	=72	=72	=72	=72	=72
8G\	.	8G\yy	.	8G/	.	8d 8B/	.	8g/	.	4.r	4.r	.	4.r	8r	.	8r	.	8g/	.	8BL 8GG\	.	8ddL 8g/	.	4.r	.	8r	.	8r	.	4.r	.	8gg\	.
8GG/	.	8GG/yy	.	8g 8B\	.	8g 8B/	.	8gg 8b\	.	.	.	.	.	8D 8GG/	.	8g 8B\	.	8ee 8g\	.	8BJ 8GG\	.	8ddJ 8g/	.	.	.	8dd 8b\	.	8gg 8b\	.	.	.	8ggg\	.
!	!	!	!	!	!	!	!	!	!	!	!	!	!	!	!	!	!	!	!	!	!	!	!	!	!	!	!	!	!	!	!	!LO:TX:a:t=Da capo Mazur al fine\ne poi la Coda.	!
8r	.	8ryy	.	8r	.	8r	.	8r	.	.	.	.	.	8r	.	8r	.	8r	.	8r	.	8r	.	.	.	8r	.	8r	.	.	.	8r	.
!!LO:PB:g=original
=73:|!	=73:|!	=73:|!	=73:|!	=73:|!	=73:|!	=73:|!	=73:|!	=73:|!	=73:|!	=73:|!	=73:|!	=73:|!	=73:|!	=73:|!	=73:|!	=73:|!	=73:|!	=73:|!	=73:|!	=73:|!	=73:|!	=73:|!	=73:|!	=73:|!	=73:|!	=73:|!	=73:|!	=73:|!	=73:|!	=73:|!	=73:|!	=73:|!	=73:|!
*>F	*>F	*>F	*>F	*>F	*>F	*>F	*>F	*>F	*>F	*>F	*>F	*>F	*>F	*>F	*>F	*>F	*>F	*>F	*>F	*>F	*>F	*>F	*>F	*>F	*>F	*>F	*>F	*>F	*>F	*>F	*>F	*>F	*>F
*k[f#c#]	*	*k[f#c#]	*	*k[f#c#]	*	*k[f#c#]	*	*k[f#c#]	*	*	*tremolo	*	*	*k[f#c#]	*	*k[f#c#]	*	*k[f#c#]	*	*k[f#c#]	*	*	*	*k[f#c#]	*	*k[f#c#]	*	*k[f#c#]	*	*k[f#c#]	*	*k[f#c#]	*
!LO:TX:t=P:problem:mixed beam	!	!LO:TX:t=P:problem:mixed beam	!	!	!	!	!	!	!	!	!	!	!	!	!	!	!	!	!	!	!	!	!	!	!	!	!	!	!	!	!	!LO:TX:a:t=Coda.	!
8BB/L	.	8BB/Lyy	.	8f#L 8B\	.	8ddL 8f#/	.	(32ff#\LLL	.	8Ra/L	32Ree\LLL	.	8D\L	8BB/L	.	8dL 8F#\	.	8ddL 8f#/	.	8BL 8BB\	.	8dd\L	.	8f#L 8B\	.	(32f#/LLL	.	8ff#L 8dd\	.	(32ff#\LLL	.	(32ff#\LLL	.
.	.	.	.	.	.	.	.	32dd\	.	.	32Ree\	.	.	.	.	.	.	.	.	.	.	.	.	.	.	32d/	.	.	.	32dd\	.	32dd\	.
.	.	.	.	.	.	.	.	32ff#\	.	.	32Ree\	.	.	.	.	.	.	.	.	.	.	.	.	.	.	32f#/	.	.	.	32ff#\	.	32ff#\	.
.	.	.	.	.	.	.	.	32bb\JJ)	.	.	32Ree\JJ	.	.	.	.	.	.	.	.	.	.	.	.	.	.	32b/JJ	.	.	.	32bb\JJ)	.	32bb\JJ)	.
*	*	*	*	*	*	*	*	*	*	*	*Xtremolo	*	*	*	*	*	*	*	*	*	*	*	*	*	*	*	*	*	*	*	*	*	*
8B\J	.	8B\Jyy	.	8f#J 8B\	.	8ddJ 8f#/	.	8ddd'\J	.	8Ra/J	8Ree\J	.	8D\J	8BB/J	.	8dJ 8F#\	.	8ddJ 8f#/	.	8BJ 8BB\	.	8dd\J	.	8f#J 8B\	.	8dd/J)	.	8dddJ 8ff#\	.	8ddd\J	.	8ddd'\J	.
8r	.	8ryy	.	8r	.	8r	.	8r	.	8r	8r	.	8r	8r	.	8r	.	8r	.	8r	.	8r	.	8r	.	8r	.	8r	.	8r	.	8r	.
=74	=74	=74	=74	=74	=74	=74	=74	=74	=74	=74	=74	=74	=74	=74	=74	=74	=74	=74	=74	=74	=74	=74	=74	=74	=74	=74	=74	=74	=74	=74	=74	=74	=74
!	!	!	!	!	!	!	!	!	!	!	!	!	!	!	!	!	!	!	!	!	!	!	!	!	!	!	!	!	!	!	!	!LO:TX:a:t=Col Vo. 1o.	!
.	.	.	.	.	.	(>8qe/	.	(8qee/	.	.	.	.	.	.	.	.	.	.	.	.	.	.	.	.	.	(>8qe/	.	.	.	(8qee/	.	(y8qee/yy	.
*	*	*	*	*	*	*	*	*	*	*	*	*	*	*	*	*	*	*	*	*	*	*^	*	*	*	*	*	*	*	*	*	*	*
*tremolo	*	*tremolo	*	*tremolo	*	*	*	*	*	*	*	*	*	*	*	*	*	*	*	*	*	*	*	*	*	*	*	*	*	*	*	*	*	*
8G\L	.	8G\Lyy	.	8gL 8B\	.	8.ee\L)	.	(8.eee\L)	.	4.r	4.r	.	4.r	4.GG/	.	4.e 4.c#\	.	4.r	.	4.G 4.GG\	.	4.ee/	4.ee\	.	4.g 4.B\	.	8.ee\L)	.	4.ee 4.b\	.	8.eee\L)	.	(y8.eee\L)yy	.
8G\	.	8G\yy	.	8g 8B\	.	.	.	.	.	.	.	.	.	.	.	.	.	.	.	.	.	.	.	.	.	.	.	.	.	.	.	.	.	.
.	.	.	.	.	.	(16dd\L	.	16ddd\L	.	.	.	.	.	.	.	.	.	.	.	.	.	.	.	.	.	.	(16dd\L	.	.	.	(16ddd\L	.	16ddd\Lyy	.
8G\J	.	8G\Jyy	.	8gJ 8B\	.	16cc#\	.	16ccc#\	.	.	.	.	.	.	.	.	.	.	.	.	.	.	.	.	.	.	16cc#\	.	.	.	16ccc#\	.	16ccc#\yy	.
.	.	.	.	.	.	16b\JJ)	.	16bb\JJ)	.	.	.	.	.	.	.	.	.	.	.	.	.	.	.	.	.	.	16b\JJ	.	.	.	16bb\JJ)	.	16bb\JJ)yy	.
=75	=75	=75	=75	=75	=75	=75	=75	=75	=75	=75	=75	=75	=75	=75	=75	=75	=75	=75	=75	=75	=75	=75	=75	=75	=75	=75	=75	=75	=75	=75	=75	=75	=75	=75
*	*	*	*	*	*	*	*	*	*	*	*	*	*	*	*	*	*	*	*	*	*	*	*	*	*	*	*^	*	*	*	*	*	*	*
8A\L	.	8A\Lyy	.	8f#L 8A\	.	16a'\LL	.	16aa'\LL	.	4.r	8r	.	8AA/	8r	.	8r	.	16A'/LL	.	4.A 4.AA\	.	4.dd/	4.dd\	.	4.f# 4.A\	.	16a'\LL)	8ryy	.	4.ff# 4.dd\	.	16aa'\LL	.	16aa'\LLyy	.
.	.	.	.	.	.	(32ff#\L	.	(32fff#\L	.	.	.	.	.	.	.	.	.	(32d/L	.	.	.	.	.	.	.	.	(32ff#\L	.	.	.	.	(32ff#\L	.	(y32fff#\Lyy	.
.	.	.	.	.	.	32dd\JJJ)	.	32ddd\JJJ)	.	.	.	.	.	.	.	.	.	32f#/JJJ)	.	.	.	.	.	.	.	.	32dd\JJJ)	.	.	.	.	32dd\JJJ)	.	32ddd\JJJ)yy	.
8A\	.	8A\yy	.	8f# 8A\	.	8a/L	.	8aa'\L	.	.	8Ree\L	.	8r	8AA/L	.	8f#L 8d\	.	8a'/L	.	.	.	.	.	.	.	.	8a/L	4a\	.	.	.	8a'\L	.	8aa'\Lyy	.
8A\J	.	8A\Jyy	.	8f#J 8A\	.	8ddJ 8f#/	.	8ff#'\J	.	.	8Ree\J	.	8r	8AA/J	.	8f#J 8d\	.	8dd'/J	.	.	.	.	.	.	.	.	8f#/J	.	.	.	.	8ff#'\J	.	8ff#'\Jyy	.
*	*	*	*	*	*	*	*	*	*	*	*	*	*	*	*	*	*	*	*	*	*	*	*	*	*	*	*v	*v	*	*	*	*	*	*	*
=76	=76	=76	=76	=76	=76	=76	=76	=76	=76	=76	=76	=76	=76	=76	=76	=76	=76	=76	=76	=76	=76	=76	=76	=76	=76	=76	=76	=76	=76	=76	=76	=76	=76	=76
*	*	*	*	*	*	*tremolo	*	*	*	*	*rep	*	*	*	*	*	*	*	*	*	*	*	*	*	*	*	*	*	*	*	*	*	*	*
8AA/L	.	8AA/Lyy	.	8eL 8A\	.	8cc#L 8g/	.	8.bb\L	.	4.r	8r	.	8AA/	8r	.	8r	.	8.b/L	.	4.A 4.AA\	.	4.ee/	4.cc#X\	.	4.g 4.A\	.	8.b/L	.	4.gg 4.ee\	.	8.bb\L	.	8.bb\Lyy	.
8AA/	.	8AA/yy	.	8e 8A\	.	8cc# 8g/	.	.	.	.	8Ree\L	.	8r	8AA/L	.	8gL 8c#\	.	.	.	.	.	.	.	.	.	.	.	.	.	.	.	.	.	.
.	.	.	.	.	.	.	.	(16aa\L	.	.	.	.	.	.	.	.	.	(16a/L	.	.	.	.	.	.	.	.	(16a/L	.	.	.	(16aa\L	.	(y16aa\Lyy	.
8AA/J	.	8AA/Jyy	.	8eJ 8A\	.	8cc#J 8g/	.	16gg\	.	.	8Ree\J	.	8r	8AA/J	.	8gJ 8c#\	.	16g/	.	.	.	.	.	.	.	.	16g/	.	.	.	16gg\	.	16gg\yy	.
.	.	.	.	.	.	.	.	16ee\JJ)	.	.	.	.	.	.	.	.	.	16eeJJ 16e/)	.	.	.	.	.	.	.	.	16e/JJ)	.	.	.	16ee\JJ)	.	16ee\JJ)yy	.
*Xtremolo	*	*Xtremolo	*	*Xtremolo	*	*Xtremolo	*	*	*	*	*Xrep	*	*	*	*	*	*	*	*	*	*	*	*	*	*	*	*	*	*	*	*	*	*	*
*	*	*	*	*	*	*	*	*	*	*	*	*	*	*	*	*	*	*	*	*	*	*v	*v	*	*	*	*	*	*	*	*	*	*	*
=77	=77	=77	=77	=77	=77	=77	=77	=77	=77	=77	=77	=77	=77	=77	=77	=77	=77	=77	=77	=77	=77	=77	=77	=77	=77	=77	=77	=77	=77	=77	=77	=77	=77
*	*	*	*	*	*	*	*	*	*	*	*tremolo	*	*	*	*	*	*	*	*	*	*	*	*	*	*	*	*	*	*	*	*	*	*
8D/L	.	8D/Lyy	.	8f#L 8A\	.	8ddL 8f#/	.	(32ff#\LLL	.	8Ra/L	32Ree\LLL	.	8D/L	8D/L	.	8f#L 8d\	.	8ddL 8f#/	.	8AL 8D\	.	8dd\L	.	8f#L 8A\	.	(32f#/LLL	.	8ff#L 8dd\	.	(32ff#\LLL	.	(y32ff#\LLLyy	.
.	.	.	.	.	.	.	.	32dd\	.	.	32Ree\	.	.	.	.	.	.	.	.	.	.	.	.	.	.	32d/	.	.	.	32dd\	.	32dd\yy	.
.	.	.	.	.	.	.	.	32ff#\	.	.	32Ree\	.	.	.	.	.	.	.	.	.	.	.	.	.	.	32f#/	.	.	.	32ff#\	.	32ff#\yy	.
.	.	.	.	.	.	.	.	32aa\JJ)	.	.	32Ree\JJ	.	.	.	.	.	.	.	.	.	.	.	.	.	.	32a/JJ)	.	.	.	32aa\JJ)	.	32aa\JJ)yy	.
*	*	*	*	*	*	*	*	*	*	*	*Xtremolo	*	*	*	*	*	*	*	*	*	*	*	*	*	*	*	*	*	*	*	*	*	*
8D/J	.	8D/Jyy	.	8f#J 8A\	.	8ddJ 8f#/	.	8ddd\J	.	8Ra/J	8Ree\J	.	8D/J	8D/J	.	8f#J 8d\	.	8ddJ 8f#/	.	8AJ 8D\	.	8dd\J	.	8f#J 8A\	.	8dd'/J	.	8dddJ 8ff#\	.	8ddd'\J	.	8ddd\Jyy	.
8r	.	8ryy	.	8r	.	8r	.	8r	.	8r	8r	.	8r	8r	.	8r	.	8r	.	8r	.	8r	.	8r	.	8r	.	8r	.	8r	.	8ryy	.
!!LO:PB:g=original
=78	=78	=78	=78	=78	=78	=78	=78	=78	=78	=78	=78	=78	=78	=78	=78	=78	=78	=78	=78	=78	=78	=78	=78	=78	=78	=78	=78	=78	=78	=78	=78	=78	=78
*	*	*	*	*	*	*	*	*	*	*	*tremolo	*	*	*	*	*	*	*	*	*	*	*	*	*	*	*	*	*	*	*	*	*	*
!LO:TX:t=P:problem:mixed beam	!	!LO:TX:t=P:problem:mixed beam	!	!	!	!	!	!	!	!	!	!	!	!	!	!	!	!	!	!	!	!	!	!	!	!	!	!	!	!	!	!	!
8BB/L	.	8BB/Lyy	.	8f#L 8B\	.	8ddL 8f#/	.	(32ff#\LLL	.	8Ra/L	32Ree\LLL	.	8D/L	8BB/L	.	8dL 8F#\	.	8ddL 8f#/	.	8BL 8BB\	.	8dd\L	.	8f#L 8B\	.	(32f#/LLL	.	8ff#L 8dd\	.	(32ff#\LLL	.	(y32ff#/LLLyy	.
.	.	.	.	.	.	.	.	32dd\	.	.	32Ree\	.	.	.	.	.	.	.	.	.	.	.	.	.	.	32d/	.	.	.	32dd\	.	32dd/yy	.
.	.	.	.	.	.	.	.	32ff#\	.	.	32Ree\	.	.	.	.	.	.	.	.	.	.	.	.	.	.	32f#/	.	.	.	32ff#\	.	32ff#/yy	.
.	.	.	.	.	.	.	.	32aa\JJ)	.	.	32Ree\JJ	.	.	.	.	.	.	.	.	.	.	.	.	.	.	32a/JJ)	.	.	.	32aa\JJ)	.	32aa/JJ)yy	.
*	*	*	*	*	*	*	*	*	*	*	*Xtremolo	*	*	*	*	*	*	*	*	*	*	*	*	*	*	*	*	*	*	*	*	*	*
8B\J	.	8B\Jyy	.	8f#J 8B\	.	8ddJ 8f#/	.	8ddd'\J	.	8Ra/J	8Ree\J	.	8D/J	8BB/J	.	8dJ 8F#\	.	8ddJ 8f#/	.	8BJ 8BB\	.	8dd\J	.	8f#J 8B\	.	8dd'/J	.	8dddJ 8ff#\	.	8ddd'\J	.	8ddd'/Jyy	.
8r	.	8ryy	.	8r	.	8r	.	8r	.	8r	8r	.	8r	8r	.	8r	.	8r	.	8r	.	8r	.	8r	.	8r	.	8r	.	8r	.	8ryy	.
=79	=79	=79	=79	=79	=79	=79	=79	=79	=79	=79	=79	=79	=79	=79	=79	=79	=79	=79	=79	=79	=79	=79	=79	=79	=79	=79	=79	=79	=79	=79	=79	=79	=79
!	!	!	!	!	!	!	!	!	!	!	!	!	!	!	!	!	!	!	!	!	!	!	!	!	!	!	!	!	!	!LO:TX:a:t=Col Vo. 1o.	!	!	!
.	.	.	.	.	.	(>8qe/	.	(8qee/	.	.	.	.	.	.	.	.	.	.	.	.	.	.	.	.	.	(>8qe/	.	.	.	(y8qee/yy	.	(y8qee/yy	.
*	*	*	*	*	*	*	*	*	*	*	*	*	*	*	*	*^	*	*^	*	*	*	*^	*	*^	*	*	*	*^	*	*	*	*	*
8G\L	.	8G\Lyy	.	8eL 8B\	.	8.ee\L)	.	8.eee\L)	.	8r	8r	.	8r	8r	.	8r	4ryy	.	8r	4ryy	.	4G 4GG/	.	4ee/	4b\	.	4e/	4B\	.	8.ee\L)	.	4ee/	4b\	.	8.eee\L)yy	.	8.eee\L)yy	.
8G\	.	8G\yy	.	8e 8B\	.	.	.	.	.	8r	8r	.	8r	8r	.	8r	.	.	8r	.	.	.	.	.	.	.	.	.	.	.	.	.	.	.	.	.	.	.
.	.	.	.	.	.	16dd'\Jk	.	16ddd\Jk	.	.	.	.	.	.	.	.	.	.	.	.	.	.	.	.	.	.	.	.	.	16dd\Jk	.	.	.	.	16ddd\Jkyy	.	16ddd\Jkyy	.
.	.	.	.	.	.	(8qdd/	.	(8qddd/	.	.	.	.	.	.	.	.	.	.	.	.	.	.	.	.	.	.	.	.	.	(8qdd/	.	.	.	.	(y8qddd/yy	.	(y8qddd/yy	.
8G#X\J	.	8G#X\Jyy	.	8e#XJ 8B\	.	16cc#\LL)	.	16ccc#\LL)	.	8Ra/	8Ree\	.	8D\	8G#X^\	.	8e#X/	8d\	.	8b/	8e#X\	.	8G#X 8GG#X/	.	8dd^/	8b\	.	8e#X/	8B\	.	16cc#\LL)	.	8ee#X/	8b\	.	16ccc#\LL)yy	.	16ccc#\LL)yy	.
.	.	.	.	.	.	16b'\JJ	.	16bb'\JJ	.	.	.	.	.	.	.	.	.	.	.	.	.	.	.	.	.	.	.	.	.	16b'\JJ	.	.	.	.	16bb\JJyy	.	16bb\JJyy	.
*	*	*	*	*	*	*	*	*	*	*	*	*	*	*	*	*v	*v	*	*	*	*	*	*	*	*	*	*v	*v	*	*	*	*v	*v	*	*	*	*	*
*	*	*	*	*	*	*	*	*	*	*	*	*	*	*	*	*	*	*v	*v	*	*	*	*	*	*	*	*	*	*	*	*	*	*	*	*
=80	=80	=80	=80	=80	=80	=80	=80	=80	=80	=80	=80	=80	=80	=80	=80	=80	=80	=80	=80	=80	=80	=80	=80	=80	=80	=80	=80	=80	=80	=80	=80	=80	=80	=80
*tremolo	*	*tremolo	*	*tremolo	*	*	*	*	*	*	*tremolo	*	*tremolo	*tremolo	*	*tremolo	*	*	*	*	*	*	*	*	*	*	*	*	*	*	*	*	*	*
8A\L	.	8A\Lyy	.	8f#L 8A\	.	16a'\LL	.	16aa'\LL	.	4Ra/	8Ree\L	.	8AA/L	8A\L	.	8f#L 8d\	.	16aLL 16f#'/	.	4.A 4.AA/	.	4.dd/	4.dd\	.	4.f# 4.A/	.	16a'\LL	.	4.ff# 4.a\	.	16aa'\LLyy	.	16aa'\LLyy	.
.	.	.	.	.	.	(32dd\L	.	(32ddd\L	.	.	.	.	.	.	.	.	.	(32ddL 32d/	.	.	.	.	.	.	.	.	(32dd\L	.	.	.	(y32ddd\Lyy	.	(y32ddd\Lyy	.
.	.	.	.	.	.	32ff#\JJJ)	.	32fff#\JJJ)	.	.	.	.	.	.	.	.	.	32ff#JJJ 32f#/)	.	.	.	.	.	.	.	.	32ff#\JJJ)	.	.	.	32fff#\JJJ)yy	.	32fff#\JJJ)yy	.
8A\	.	8A\yy	.	8f# 8A\	.	8dd'\L	.	8ddd'\L	.	.	8Ree\	.	8AA/	8A\	.	8f# 8d\	.	8ddL 8d'/	.	.	.	.	.	.	.	.	8dd'\L	.	.	.	8ddd'\Lyy	.	8ddd'\Lyy	.
8A\J	.	8A\Jyy	.	8f#J 8A\	.	8a'\J	.	8aa'\J	.	8r	8Ree\J	.	8AA/J	8A\J	.	8f#J 8d\	.	8aJ 8A'/	.	.	.	.	.	.	.	.	8a'\J	.	.	.	8aa'\Jyy	.	8aa'\Jyy	.
*	*	*	*	*	*	*	*	*	*	*	*	*	*Xtremolo	*Xtremolo	*	*Xtremolo	*	*	*	*	*	*	*	*	*	*	*	*	*	*	*	*	*	*
=81	=81	=81	=81	=81	=81	=81	=81	=81	=81	=81	=81	=81	=81	=81	=81	=81	=81	=81	=81	=81	=81	=81	=81	=81	=81	=81	=81	=81	=81	=81	=81	=81	=81	=81
8AA/L	.	8AA/Lyy	.	8gL 8A\	.	(16g#X/LL	.	(16gg#X\LL	.	4Ra/	16Ree\LL	.	8r	4AA/	.	4g 4c#X\	.	4cc#X 4e/	.	4.A 4.AA/	.	4.ee/	4.cc#X\	.	4.g 4.A/	.	16g#X/LL	.	4.gg 4.a\	.	(y16gg#X/LLyy	.	(y16gg#X/LLyy	.
.	.	.	.	.	.	16a/JJ)	.	16aa\JJ)	.	.	16Ree\	.	.	.	.	.	.	.	.	.	.	.	.	.	.	.	16a/JJ	.	.	.	16aa/JJ)yy	.	16aa/JJ)yy	.
8AA/	.	8AA/yy	.	8g 8A\	.	(16a#X/LL	.	(16aa#X\LL	.	.	16Ree\	.	8AA/L	.	.	.	.	.	.	.	.	.	.	.	.	.	16a#X/LL	.	.	.	(y16aa#X/LLyy	.	(y16aa#X/LLyy	.
.	.	.	.	.	.	16b/JJ)	.	16bb\JJ)	.	.	16Ree\	.	.	.	.	.	.	.	.	.	.	.	.	.	.	.	16b/JJ	.	.	.	16bb/JJ)yy	.	16bb/JJ)yy	.
8AA/J	.	8AA/Jyy	.	8gJ 8A\	.	(16b#X/LL	.	(16bb#X\LL	.	8r	16Ree\	.	8AA/J	8AA/	.	8g 8e\	.	8ee 8g/	.	.	.	.	.	.	.	.	16b#X/LL	.	.	.	(y16bb#X\LLyy	.	(y16bb#X\LLyy	.
.	.	.	.	.	.	16cc#/JJ)	.	16ccc#\JJ)	.	.	16Ree\JJ	.	.	.	.	.	.	.	.	.	.	.	.	.	.	.	16cc#/JJ	.	.	.	16ccc#\JJ)yy	.	16ccc#\JJ)yy	.
*Xtremolo	*	*Xtremolo	*	*Xtremolo	*	*	*	*	*	*	*Xtremolo	*	*	*	*	*	*	*	*	*	*	*	*	*	*	*	*	*	*	*	*	*	*	*
=82!|:	=82!|:	=82!|:	=82!|:	=82!|:	=82!|:	=82!|:	=82!|:	=82!|:	=82!|:	=82!|:	=82!|:	=82!|:	=82!|:	=82!|:	=82!|:	=82!|:	=82!|:	=82!|:	=82!|:	=82!|:	=82!|:	=82!|:	=82!|:	=82!|:	=82!|:	=82!|:	=82!|:	=82!|:	=82!|:	=82!|:	=82!|:	=82!|:	=82!|:	=82!|:
*>G	*>G	*>G	*>G	*>G	*>G	*>G	*>G	*>G	*>G	*>G	*>G	*>G	*>G	*>G	*>G	*>G	*>G	*>G	*>G	*>G	*>G	*>G	*>G	*>G	*>G	*>G	*>G	*>G	*>G	*>G	*>G	*>G	*>G	*>G
16.D\LL	.	16.D\LLyy	.	8f# 8A\	.	8dd\	.	8ddd\	.	8Ra/	8Ree\	.	8D/	16.D\LL	.	8f# 8d\	.	16.ddLL 16.f#/	.	16.ALL 16.D\	.	8dd/	8dd\	.	8f# 8A/	.	8dd\	.	8ff# 8a\	.	8ddd\	.	8ddd\	.
32F#\JJk	.	32F#\JJkyy	.	.	.	.	.	.	.	.	.	.	.	32F#\JJk	.	.	.	32f#/JJk	.	32F#\JJk	.	.	.	.	.	.	.	.	.	.	.	.	.	.
!LO:TX:t=P:problem:mixed beam	!	!LO:TX:t=P:problem:mixed beam	!	!	!	!	!	!	!	!	!	!	!	!LO:TX:t=P:problem:mixed beam	!	!	!	!	!	!LO:TX:t=P:problem:mixed beam	!	!	!	!	!	!	!	!	!	!	!	!	!	!
8A\L	.	8A\Lyy	.	8r	.	8r	.	8r	.	8r	8r	.	8r	8A\L	.	8rc	.	8a/L	.	8A\L	.	8r	4ryy	.	8r	.	8r	.	8r	.	8r	.	8r	.
8AA/J	.	8AA/Jyy	.	8e 8A\	.	8gg 8a\	.	8ccc# 8ee\	.	8Ra/	8Ree\	.	8AA/	8AA/J	.	8e 8c#\	.	8cc#J 8e/	.	8AA/J	.	8ee 8cc#X\	.	.	8g 8A/	.	8ee 8cc#\	.	8aa 8cc#\	.	8ccc#\	.	8eee\	.
*	*	*	*	*	*	*	*	*	*	*	*	*	*	*	*	*	*	*	*	*	*	*v	*v	*	*	*	*	*	*	*	*	*	*	*
!!LO:PB:g=original
=83	=83	=83	=83	=83	=83	=83	=83	=83	=83	=83	=83	=83	=83	=83	=83	=83	=83	=83	=83	=83	=83	=83	=83	=83	=83	=83	=83	=83	=83	=83	=83	=83	=83
16.D\LL	.	16.D\LLyy	.	8f# 8A 8D/	.	8ff# 8a 8d/	.	8ddd 8ff#\	.	8Ra/	8Ree\	.	8D/	16.D\LL	.	8f# 8d\	.	16.ddLL 16.f#/	.	16.D\LL	.	8dd\	.	8f# 8A/	.	8ff# 8dd\	.	8aa 8dd\	.	8ddd\	.	8fff#\	.
32B\JJk	.	32B\JJkyy	.	.	.	.	.	.	.	.	.	.	.	32B\JJk	.	.	.	32f#/JJk	.	32B\JJk	.	.	.	.	.	.	.	.	.	.	.	.	.
!LO:TX:t=P:problem:mixed beam	!	!LO:TX:t=P:problem:mixed beam	!	!	!	!	!	!	!	!	!	!	!	!LO:TX:t=P:problem:mixed beam	!	!	!	!	!	!LO:TX:t=P:problem:mixed beam	!	!	!	!	!	!	!	!	!	!	!	!	!
8A\L	.	8A\Lyy	.	8r	.	8r	.	8r	.	8r	8r	.	8r	8A\L	.	8r	.	8a/L	.	8A\L	.	8r	.	8r	.	8r	.	8r	.	8r	.	8r	.
8AA/J	.	8AA/Jyy	.	8e 8A/	.	8gg 8a\	.	8ccc# 8ee\	.	8Ra/	8Ree\	.	8AA/	8AA/J	.	8e 8c#\	.	8cc#J 8e/	.	8AA/J	.	8ee 8cc#X\	.	8g 8A/	.	8ee 8cc#\	.	8aa 8cc#\	.	8ccc#\	.	8eee\	.
=84:|!	=84:|!	=84:|!	=84:|!	=84:|!	=84:|!	=84:|!	=84:|!	=84:|!	=84:|!	=84:|!	=84:|!	=84:|!	=84:|!	=84:|!	=84:|!	=84:|!	=84:|!	=84:|!	=84:|!	=84:|!	=84:|!	=84:|!	=84:|!	=84:|!	=84:|!	=84:|!	=84:|!	=84:|!	=84:|!	=84:|!	=84:|!	=84:|!	=84:|!
*>H	*>H	*>H	*>H	*>H	*>H	*>H	*>H	*>H	*>H	*>H	*>H	*>H	*>H	*>H	*>H	*>H	*>H	*>H	*>H	*>H	*>H	*>H	*>H	*>H	*>H	*>H	*>H	*>H	*>H	*>H	*>H	*>H	*>H
8D\	.	8D\yy	.	8f# 8A 8D/	.	8ff# 8a 8d/	.	8ddd 8ff#\	.	8Ra/	8Ree\	.	8D/	8D/	.	8f# 8d\	.	8dd 8f#/	.	8D\	.	8dd\	.	8f# 8A/	.	8ff# 8dd\	.	8aa 8dd\	.	8ddd\	.	8fff#\	.
8r	.	8ryy	.	8r	.	8r	.	8r	.	8r	8r	.	8r	4r	.	4r	.	4r	.	4r	.	8r	.	8r	.	8r	.	8r	.	8r	.	8r	.
8r	.	8ryy	.	8r	.	8r	.	8r	.	8r	8r	.	8r	.	.	.	.	.	.	.	.	8r	.	8r	.	8r	.	8r	.	8r	.	8r	.
=85	=85	=85	=85	=85	=85	=85	=85	=85	=85	=85	=85	=85	=85	=85	=85	=85	=85	=85	=85	=85	=85	=85	=85	=85	=85	=85	=85	=85	=85	=85	=85	=85	=85
8d 8D\	.	8dyy 8D\yy	.	8dd 8f# 8A\	.	8ddd 8ff# 8d\	.	8fff# 8a 8d\	.	8Ra/	8Ree\	.	8D/	8D\	.	8f# 8A\	.	8dd 8f#/	.	8d 8D\	.	8dd\	.	8f# 8A/	.	8aa 8ff#\	.	8ddd 8ff#\	.	8fff#\	.	8aaa\	.
8.r	.	8.ryy	.	8.r	.	8.r	.	8.r	.	8r	8r	.	4r	4r	.	4r	.	8r	.	8r	.	8r	.	8r	.	8r	.	8r	.	8r	.	8r	.
.	.	.	.	.	.	.	.	.	.	8r	8r	.	.	.	.	.	.	8r	.	8r	.	8r	.	8r	.	8r	.	8r	.	8r	.	8r	.
16D\	.	16D\yy	.	16d\	.	16d/	.	16d/	.	.	.	.	.	.	.	.	.	.	.	.	.	.	.	.	.	.	.	.	.	.	.	.	.
=86	=86	=86	=86	=86	=86	=86	=86	=86	=86	=86	=86	=86	=86	=86	=86	=86	=86	=86	=86	=86	=86	=86	=86	=86	=86	=86	=86	=86	=86	=86	=86	=86	=86
4.D\	.	4.D\yy	.	4.d\	.	4.d/	.	4.d/	.	4.r	4.r	.	4.DTT\	4.r	.	4.r	.	4.r	.	4.r	.	4.r	.	4.r	.	4.r	.	4.r	.	4.r	.	4.r	.
=87	=87	=87	=87	=87	=87	=87	=87	=87	=87	=87	=87	=87	=87	=87	=87	=87	=87	=87	=87	=87	=87	=87	=87	=87	=87	=87	=87	=87	=87	=87	=87	=87	=87
*	*	*	*	*	*	*	*	*	*	*	*	*	*	*	*	*	*	*	*	*	*	*^	*	*	*	*	*	*	*	*	*	*	*
8D\	.	8D\yy	.	8dd 8f# 8A\	.	8ff# 8a 8d\	.	8ddd 8dd 8d\	.	8Ra/	8Ree\	.	8D\	8D\	.	8f# 8A\	.	8dd 8f#/	.	8D 8DD/	.	8dd/	8dd\	.	8f# 8A/	.	8aa 8ff#\	.	8ddd 8ff#\	.	8ddd\	.	8fff#\	.
8r	.	8ryy	.	8r	.	8r	.	8r	.	8r	8r	.	8r	8r	.	8r	.	8r	.	8r	.	8r	8ryy	.	8r	.	8r	.	8r	.	8r	.	8r	.
8r	.	8ryy	.	8r	.	8r	.	8r	.	8r	8r	.	8r	8r	.	8r	.	8r	.	8r	.	8r	8ryy	.	8r	.	8r	.	8r	.	8r	.	8r	.
*	*	*	*	*	*	*	*	*	*	*	*	*	*	*	*	*	*	*	*	*	*	*v	*v	*	*	*	*	*	*	*	*	*	*	*
==	==	==	==	==	==	==	==	==	==	==	==	==	==	==	==	==	==	==	==	==	==	==	==	==	==	==	==	==	==	==	==	==	==
*-	*-	*-	*-	*-	*-	*-	*-	*-	*-	*-	*-	*-	*-	*-	*-	*-	*-	*-	*-	*-	*-	*-	*-	*-	*-	*-	*-	*-	*-	*-	*-	*-	*-
!!!system-decoration: ({s1,s2}<s3,s4>{s5,s6}<s7,s8>{s9,s10}<s11,s12,s13>{s14,s15}<s16,s17,s18>)
!!!RDF**kern: > = above
!!!RDF**kern: < = below
!!!RDF**kern: | = vertical stroke
!!!AIN: 1 bdrum 1 cbass 1 cello 1 clars 2 cor 1 fagot 1 flt 1 oboe 1 picco 1 timpa 1 trngl 1 tromp 2 tromt 1 viola 2 violn
!!!ENC: Andrzej Kubiczek
!!!END: 2021-05-08
!!!ENC: Berenika Jozajtis
!!!END: 2021-04-21
